(fixture-alignment-holes)
(T1  D=0.0787 CR=0 - ZMIN=-0.313 - flat end mill)
G90 G94
G17
G20
(When using Fusion for Personal Use, the feedrate of rapid)
(moves is reduced to match the feedrate of cutting moves,)
(which can increase machining time. Unrestricted rapid moves)
(are available with a Fusion Subscription.)

(alignment-holes)
T1
S5000 M3
G54
M8
G0 X3.8784 Y5.3671
Z0.6
G1 Z0.08 F39.37
Z0.0079
G18 G2 X3.8863 Z0 I0.0079 K0
G1 X3.8903
G17 G3 X3.8981 Y5.375 I0 J0.0079
X3.8519 Y5.375 Z-0.0022 I-0.0231 J0
X3.8981 Y5.375 Z-0.0044 I0.0231 J0
X3.8519 Y5.375 Z-0.0065 I-0.0231 J0
X3.8981 Y5.375 Z-0.0087 I0.0231 J0
X3.8519 Y5.375 Z-0.0109 I-0.0231 J0
X3.8981 Y5.375 Z-0.0131 I0.0231 J0
X3.8519 Y5.375 Z-0.0153 I-0.0231 J0
X3.8981 Y5.375 Z-0.0175 I0.0231 J0
X3.8519 Y5.375 Z-0.0196 I-0.0231 J0
X3.8981 Y5.375 Z-0.0218 I0.0231 J0
X3.8519 Y5.375 Z-0.024 I-0.0231 J0
X3.8981 Y5.375 Z-0.0262 I0.0231 J0
X3.8519 Y5.375 Z-0.0284 I-0.0231 J0
X3.8981 Y5.375 Z-0.0306 I0.0231 J0
X3.8519 Y5.375 Z-0.0327 I-0.0231 J0
X3.8981 Y5.375 Z-0.0349 I0.0231 J0
X3.8519 Y5.375 Z-0.0371 I-0.0231 J0
X3.8981 Y5.375 Z-0.0393 I0.0231 J0
X3.8519 Y5.375 Z-0.0415 I-0.0231 J0
X3.8981 Y5.375 Z-0.0437 I0.0231 J0
X3.8519 Y5.375 Z-0.0458 I-0.0231 J0
X3.8981 Y5.375 Z-0.048 I0.0231 J0
X3.8519 Y5.375 Z-0.0502 I-0.0231 J0
X3.8981 Y5.375 Z-0.0524 I0.0231 J0
X3.8519 Y5.375 Z-0.0546 I-0.0231 J0
X3.8981 Y5.375 Z-0.0567 I0.0231 J0
X3.8519 Y5.375 Z-0.0589 I-0.0231 J0
X3.8981 Y5.375 Z-0.0611 I0.0231 J0
X3.8519 Y5.375 Z-0.0633 I-0.0231 J0
X3.8981 Y5.375 Z-0.0655 I0.0231 J0
X3.8519 Y5.375 Z-0.0677 I-0.0231 J0
X3.8981 Y5.375 Z-0.0698 I0.0231 J0
X3.8519 Y5.375 Z-0.072 I-0.0231 J0
X3.8981 Y5.375 Z-0.0742 I0.0231 J0
X3.8519 Y5.375 Z-0.0764 I-0.0231 J0
X3.8981 Y5.375 Z-0.0786 I0.0231 J0
X3.8519 Y5.375 Z-0.0808 I-0.0231 J0
X3.8981 Y5.375 Z-0.0829 I0.0231 J0
X3.8519 Y5.375 Z-0.0851 I-0.0231 J0
X3.8981 Y5.375 Z-0.0873 I0.0231 J0
X3.8519 Y5.375 Z-0.0895 I-0.0231 J0
X3.8981 Y5.375 Z-0.0917 I0.0231 J0
X3.8519 Y5.375 Z-0.0938 I-0.0231 J0
X3.8981 Y5.375 Z-0.096 I0.0231 J0
X3.8519 Y5.375 Z-0.0982 I-0.0231 J0
X3.8981 Y5.375 Z-0.1004 I0.0231 J0
X3.8519 Y5.375 Z-0.1026 I-0.0231 J0
X3.8981 Y5.375 Z-0.1048 I0.0231 J0
X3.8519 Y5.375 Z-0.1069 I-0.0231 J0
X3.8981 Y5.375 Z-0.1091 I0.0231 J0
X3.8519 Y5.375 Z-0.1113 I-0.0231 J0
X3.8981 Y5.375 Z-0.1135 I0.0231 J0
X3.8519 Y5.375 Z-0.1157 I-0.0231 J0
X3.8981 Y5.375 Z-0.1179 I0.0231 J0
X3.8519 Y5.375 Z-0.12 I-0.0231 J0
X3.8981 Y5.375 Z-0.1222 I0.0231 J0
X3.8519 Y5.375 Z-0.1244 I-0.0231 J0
X3.8981 Y5.375 Z-0.1266 I0.0231 J0
X3.8519 Y5.375 Z-0.1288 I-0.0231 J0
X3.8981 Y5.375 Z-0.131 I0.0231 J0
X3.8519 Y5.375 Z-0.1331 I-0.0231 J0
X3.8981 Y5.375 Z-0.1353 I0.0231 J0
X3.8519 Y5.375 Z-0.1375 I-0.0231 J0
X3.8981 Y5.375 Z-0.1397 I0.0231 J0
X3.8519 Y5.375 Z-0.1419 I-0.0231 J0
X3.8981 Y5.375 Z-0.144 I0.0231 J0
X3.8519 Y5.375 Z-0.1462 I-0.0231 J0
X3.8981 Y5.375 Z-0.1484 I0.0231 J0
X3.8519 Y5.375 Z-0.1506 I-0.0231 J0
X3.8981 Y5.375 Z-0.1528 I0.0231 J0
X3.8519 Y5.375 Z-0.155 I-0.0231 J0
X3.8981 Y5.375 Z-0.1571 I0.0231 J0
X3.8519 Y5.375 Z-0.1593 I-0.0231 J0
X3.8981 Y5.375 Z-0.1615 I0.0231 J0
X3.8519 Y5.375 Z-0.1637 I-0.0231 J0
X3.8981 Y5.375 Z-0.1659 I0.0231 J0
X3.8519 Y5.375 Z-0.1681 I-0.0231 J0
X3.8981 Y5.375 Z-0.1702 I0.0231 J0
X3.8519 Y5.375 Z-0.1724 I-0.0231 J0
X3.8981 Y5.375 Z-0.1746 I0.0231 J0
X3.8519 Y5.375 Z-0.1768 I-0.0231 J0
X3.8981 Y5.375 Z-0.179 I0.0231 J0
X3.8519 Y5.375 Z-0.1812 I-0.0231 J0
X3.8981 Y5.375 Z-0.1833 I0.0231 J0
X3.8519 Y5.375 Z-0.1855 I-0.0231 J0
X3.8981 Y5.375 Z-0.1877 I0.0231 J0
X3.8519 Y5.375 Z-0.1899 I-0.0231 J0
X3.8981 Y5.375 Z-0.1921 I0.0231 J0
X3.8519 Y5.375 Z-0.1942 I-0.0231 J0
X3.8981 Y5.375 Z-0.1964 I0.0231 J0
X3.8519 Y5.375 Z-0.1986 I-0.0231 J0
X3.8981 Y5.375 Z-0.2008 I0.0231 J0
X3.8519 Y5.375 Z-0.203 I-0.0231 J0
X3.8981 Y5.375 Z-0.2052 I0.0231 J0
X3.8519 Y5.375 Z-0.2073 I-0.0231 J0
X3.8981 Y5.375 Z-0.2095 I0.0231 J0
X3.8519 Y5.375 Z-0.2117 I-0.0231 J0
X3.8981 Y5.375 Z-0.2139 I0.0231 J0
X3.8519 Y5.375 Z-0.2161 I-0.0231 J0
X3.8981 Y5.375 Z-0.2183 I0.0231 J0
X3.8519 Y5.375 Z-0.2204 I-0.0231 J0
X3.8981 Y5.375 Z-0.2226 I0.0231 J0
X3.8519 Y5.375 Z-0.2248 I-0.0231 J0
X3.8981 Y5.375 Z-0.227 I0.0231 J0
X3.8519 Y5.375 Z-0.2292 I-0.0231 J0
X3.8981 Y5.375 Z-0.2314 I0.0231 J0
X3.8519 Y5.375 Z-0.2335 I-0.0231 J0
X3.8981 Y5.375 Z-0.2357 I0.0231 J0
X3.8519 Y5.375 Z-0.2379 I-0.0231 J0
X3.8981 Y5.375 Z-0.2401 I0.0231 J0
X3.8519 Y5.375 Z-0.2423 I-0.0231 J0
X3.8981 Y5.375 Z-0.2444 I0.0231 J0
X3.8519 Y5.375 Z-0.2466 I-0.0231 J0
X3.8981 Y5.375 Z-0.2488 I0.0231 J0
X3.8519 Y5.375 Z-0.251 I-0.0231 J0
X3.8981 Y5.375 Z-0.2532 I0.0231 J0
X3.8519 Y5.375 Z-0.2554 I-0.0231 J0
X3.8981 Y5.375 Z-0.2575 I0.0231 J0
X3.8519 Y5.375 Z-0.2597 I-0.0231 J0
X3.8981 Y5.375 Z-0.2619 I0.0231 J0
X3.8519 Y5.375 Z-0.2641 I-0.0231 J0
X3.8981 Y5.375 Z-0.2663 I0.0231 J0
X3.8519 Y5.375 Z-0.2685 I-0.0231 J0
X3.8981 Y5.375 Z-0.2706 I0.0231 J0
X3.8519 Y5.375 Z-0.2728 I-0.0231 J0
X3.8981 Y5.375 Z-0.275 I0.0231 J0
X3.8519 Y5.375 Z-0.2772 I-0.0231 J0
X3.8981 Y5.375 Z-0.2794 I0.0231 J0
X3.8519 Y5.375 Z-0.2815 I-0.0231 J0
X3.8981 Y5.375 Z-0.2837 I0.0231 J0
X3.8519 Y5.375 Z-0.2859 I-0.0231 J0
X3.8981 Y5.375 Z-0.2881 I0.0231 J0
X3.8519 Y5.375 Z-0.2903 I-0.0231 J0
X3.8981 Y5.375 Z-0.2925 I0.0231 J0
X3.8519 Y5.375 Z-0.2946 I-0.0231 J0
X3.8981 Y5.375 Z-0.2968 I0.0231 J0
X3.8519 Y5.375 Z-0.299 I-0.0231 J0
X3.8981 Y5.375 Z-0.3012 I0.0231 J0
X3.8519 Y5.375 Z-0.3034 I-0.0231 J0
X3.8981 Y5.375 Z-0.3056 I0.0231 J0
X3.8519 Y5.375 Z-0.3077 I-0.0231 J0
X3.8981 Y5.375 Z-0.3099 I0.0231 J0
X3.8519 Y5.375 Z-0.3121 I-0.0231 J0
X3.8683 Y5.3529 Z-0.313 I0.0231 J0
X3.8817 Y5.3971 I0.0067 J0.0221
X3.8683 Y5.3529 I-0.0067 J-0.0221
X3.8781 Y5.3581 I0.0023 J0.0075
G1 X3.8793 Y5.3619
X3.8799 Y5.3638 Z-0.3127
X3.8804 Y5.3657 Z-0.3119
X3.8809 Y5.3672 Z-0.3107
X3.8812 Y5.3684 Z-0.3091
X3.8815 Y5.3692 Z-0.3072
Y5.3694 Z-0.3051
Z0.2
X3.8784 Y2.8671
Z0.08
Z0.0079
G18 G2 X3.8863 Z0 I0.0079 K0
G1 X3.8903
G17 G3 X3.8981 Y2.875 I0 J0.0079
X3.8519 Y2.875 Z-0.0022 I-0.0231 J0
X3.8981 Y2.875 Z-0.0044 I0.0231 J0
X3.8519 Y2.875 Z-0.0065 I-0.0231 J0
X3.8981 Y2.875 Z-0.0087 I0.0231 J0
X3.8519 Y2.875 Z-0.0109 I-0.0231 J0
X3.8981 Y2.875 Z-0.0131 I0.0231 J0
X3.8519 Y2.875 Z-0.0153 I-0.0231 J0
X3.8981 Y2.875 Z-0.0175 I0.0231 J0
X3.8519 Y2.875 Z-0.0196 I-0.0231 J0
X3.8981 Y2.875 Z-0.0218 I0.0231 J0
X3.8519 Y2.875 Z-0.024 I-0.0231 J0
X3.8981 Y2.875 Z-0.0262 I0.0231 J0
X3.8519 Y2.875 Z-0.0284 I-0.0231 J0
X3.8981 Y2.875 Z-0.0306 I0.0231 J0
X3.8519 Y2.875 Z-0.0327 I-0.0231 J0
X3.8981 Y2.875 Z-0.0349 I0.0231 J0
X3.8519 Y2.875 Z-0.0371 I-0.0231 J0
X3.8981 Y2.875 Z-0.0393 I0.0231 J0
X3.8519 Y2.875 Z-0.0415 I-0.0231 J0
X3.8981 Y2.875 Z-0.0437 I0.0231 J0
X3.8519 Y2.875 Z-0.0458 I-0.0231 J0
X3.8981 Y2.875 Z-0.048 I0.0231 J0
X3.8519 Y2.875 Z-0.0502 I-0.0231 J0
X3.8981 Y2.875 Z-0.0524 I0.0231 J0
X3.8519 Y2.875 Z-0.0546 I-0.0231 J0
X3.8981 Y2.875 Z-0.0567 I0.0231 J0
X3.8519 Y2.875 Z-0.0589 I-0.0231 J0
X3.8981 Y2.875 Z-0.0611 I0.0231 J0
X3.8519 Y2.875 Z-0.0633 I-0.0231 J0
X3.8981 Y2.875 Z-0.0655 I0.0231 J0
X3.8519 Y2.875 Z-0.0677 I-0.0231 J0
X3.8981 Y2.875 Z-0.0698 I0.0231 J0
X3.8519 Y2.875 Z-0.072 I-0.0231 J0
X3.8981 Y2.875 Z-0.0742 I0.0231 J0
X3.8519 Y2.875 Z-0.0764 I-0.0231 J0
X3.8981 Y2.875 Z-0.0786 I0.0231 J0
X3.8519 Y2.875 Z-0.0808 I-0.0231 J0
X3.8981 Y2.875 Z-0.0829 I0.0231 J0
X3.8519 Y2.875 Z-0.0851 I-0.0231 J0
X3.8981 Y2.875 Z-0.0873 I0.0231 J0
X3.8519 Y2.875 Z-0.0895 I-0.0231 J0
X3.8981 Y2.875 Z-0.0917 I0.0231 J0
X3.8519 Y2.875 Z-0.0938 I-0.0231 J0
X3.8981 Y2.875 Z-0.096 I0.0231 J0
X3.8519 Y2.875 Z-0.0982 I-0.0231 J0
X3.8981 Y2.875 Z-0.1004 I0.0231 J0
X3.8519 Y2.875 Z-0.1026 I-0.0231 J0
X3.8981 Y2.875 Z-0.1048 I0.0231 J0
X3.8519 Y2.875 Z-0.1069 I-0.0231 J0
X3.8981 Y2.875 Z-0.1091 I0.0231 J0
X3.8519 Y2.875 Z-0.1113 I-0.0231 J0
X3.8981 Y2.875 Z-0.1135 I0.0231 J0
X3.8519 Y2.875 Z-0.1157 I-0.0231 J0
X3.8981 Y2.875 Z-0.1179 I0.0231 J0
X3.8519 Y2.875 Z-0.12 I-0.0231 J0
X3.8981 Y2.875 Z-0.1222 I0.0231 J0
X3.8519 Y2.875 Z-0.1244 I-0.0231 J0
X3.8981 Y2.875 Z-0.1266 I0.0231 J0
X3.8519 Y2.875 Z-0.1288 I-0.0231 J0
X3.8981 Y2.875 Z-0.131 I0.0231 J0
X3.8519 Y2.875 Z-0.1331 I-0.0231 J0
X3.8981 Y2.875 Z-0.1353 I0.0231 J0
X3.8519 Y2.875 Z-0.1375 I-0.0231 J0
X3.8981 Y2.875 Z-0.1397 I0.0231 J0
X3.8519 Y2.875 Z-0.1419 I-0.0231 J0
X3.8981 Y2.875 Z-0.144 I0.0231 J0
X3.8519 Y2.875 Z-0.1462 I-0.0231 J0
X3.8981 Y2.875 Z-0.1484 I0.0231 J0
X3.8519 Y2.875 Z-0.1506 I-0.0231 J0
X3.8981 Y2.875 Z-0.1528 I0.0231 J0
X3.8519 Y2.875 Z-0.155 I-0.0231 J0
X3.8981 Y2.875 Z-0.1571 I0.0231 J0
X3.8519 Y2.875 Z-0.1593 I-0.0231 J0
X3.8981 Y2.875 Z-0.1615 I0.0231 J0
X3.8519 Y2.875 Z-0.1637 I-0.0231 J0
X3.8981 Y2.875 Z-0.1659 I0.0231 J0
X3.8519 Y2.875 Z-0.1681 I-0.0231 J0
X3.8981 Y2.875 Z-0.1702 I0.0231 J0
X3.8519 Y2.875 Z-0.1724 I-0.0231 J0
X3.8981 Y2.875 Z-0.1746 I0.0231 J0
X3.8519 Y2.875 Z-0.1768 I-0.0231 J0
X3.8981 Y2.875 Z-0.179 I0.0231 J0
X3.8519 Y2.875 Z-0.1812 I-0.0231 J0
X3.8981 Y2.875 Z-0.1833 I0.0231 J0
X3.8519 Y2.875 Z-0.1855 I-0.0231 J0
X3.8981 Y2.875 Z-0.1877 I0.0231 J0
X3.8519 Y2.875 Z-0.1899 I-0.0231 J0
X3.8981 Y2.875 Z-0.1921 I0.0231 J0
X3.8519 Y2.875 Z-0.1942 I-0.0231 J0
X3.8981 Y2.875 Z-0.1964 I0.0231 J0
X3.8519 Y2.875 Z-0.1986 I-0.0231 J0
X3.8981 Y2.875 Z-0.2008 I0.0231 J0
X3.8519 Y2.875 Z-0.203 I-0.0231 J0
X3.8981 Y2.875 Z-0.2052 I0.0231 J0
X3.8519 Y2.875 Z-0.2073 I-0.0231 J0
X3.8981 Y2.875 Z-0.2095 I0.0231 J0
X3.8519 Y2.875 Z-0.2117 I-0.0231 J0
X3.8981 Y2.875 Z-0.2139 I0.0231 J0
X3.8519 Y2.875 Z-0.2161 I-0.0231 J0
X3.8981 Y2.875 Z-0.2183 I0.0231 J0
X3.8519 Y2.875 Z-0.2204 I-0.0231 J0
X3.8981 Y2.875 Z-0.2226 I0.0231 J0
X3.8519 Y2.875 Z-0.2248 I-0.0231 J0
X3.8981 Y2.875 Z-0.227 I0.0231 J0
X3.8519 Y2.875 Z-0.2292 I-0.0231 J0
X3.8981 Y2.875 Z-0.2314 I0.0231 J0
X3.8519 Y2.875 Z-0.2335 I-0.0231 J0
X3.8981 Y2.875 Z-0.2357 I0.0231 J0
X3.8519 Y2.875 Z-0.2379 I-0.0231 J0
X3.8981 Y2.875 Z-0.2401 I0.0231 J0
X3.8519 Y2.875 Z-0.2423 I-0.0231 J0
X3.8981 Y2.875 Z-0.2444 I0.0231 J0
X3.8519 Y2.875 Z-0.2466 I-0.0231 J0
X3.8981 Y2.875 Z-0.2488 I0.0231 J0
X3.8519 Y2.875 Z-0.251 I-0.0231 J0
X3.8981 Y2.875 Z-0.2532 I0.0231 J0
X3.8519 Y2.875 Z-0.2554 I-0.0231 J0
X3.8981 Y2.875 Z-0.2575 I0.0231 J0
X3.8519 Y2.875 Z-0.2597 I-0.0231 J0
X3.8981 Y2.875 Z-0.2619 I0.0231 J0
X3.8519 Y2.875 Z-0.2641 I-0.0231 J0
X3.8981 Y2.875 Z-0.2663 I0.0231 J0
X3.8519 Y2.875 Z-0.2685 I-0.0231 J0
X3.8981 Y2.875 Z-0.2706 I0.0231 J0
X3.8519 Y2.875 Z-0.2728 I-0.0231 J0
X3.8981 Y2.875 Z-0.275 I0.0231 J0
X3.8519 Y2.875 Z-0.2772 I-0.0231 J0
X3.8981 Y2.875 Z-0.2794 I0.0231 J0
X3.8519 Y2.875 Z-0.2815 I-0.0231 J0
X3.8981 Y2.875 Z-0.2837 I0.0231 J0
X3.8519 Y2.875 Z-0.2859 I-0.0231 J0
X3.8981 Y2.875 Z-0.2881 I0.0231 J0
X3.8519 Y2.875 Z-0.2903 I-0.0231 J0
X3.8981 Y2.875 Z-0.2925 I0.0231 J0
X3.8519 Y2.875 Z-0.2946 I-0.0231 J0
X3.8981 Y2.875 Z-0.2968 I0.0231 J0
X3.8519 Y2.875 Z-0.299 I-0.0231 J0
X3.8981 Y2.875 Z-0.3012 I0.0231 J0
X3.8519 Y2.875 Z-0.3034 I-0.0231 J0
X3.8981 Y2.875 Z-0.3056 I0.0231 J0
X3.8519 Y2.875 Z-0.3077 I-0.0231 J0
X3.8981 Y2.875 Z-0.3099 I0.0231 J0
X3.8519 Y2.875 Z-0.3121 I-0.0231 J0
X3.8683 Y2.8529 Z-0.313 I0.0231 J0
X3.8817 Y2.8971 I0.0067 J0.0221
X3.8683 Y2.8529 I-0.0067 J-0.0221
X3.8781 Y2.8581 I0.0023 J0.0075
G1 X3.8793 Y2.8619
X3.8799 Y2.8638 Z-0.3127
X3.8804 Y2.8657 Z-0.3119
X3.8809 Y2.8672 Z-0.3107
X3.8812 Y2.8684 Z-0.3091
X3.8815 Y2.8692 Z-0.3072
Y2.8694 Z-0.3051
Z0.2
X3.8784 Y2.6171
Z0.08
Z0.0079
G18 G2 X3.8863 Z0 I0.0079 K0
G1 X3.8903
G17 G3 X3.8981 Y2.625 I0 J0.0079
X3.8519 Y2.625 Z-0.0022 I-0.0231 J0
X3.8981 Y2.625 Z-0.0044 I0.0231 J0
X3.8519 Y2.625 Z-0.0065 I-0.0231 J0
X3.8981 Y2.625 Z-0.0087 I0.0231 J0
X3.8519 Y2.625 Z-0.0109 I-0.0231 J0
X3.8981 Y2.625 Z-0.0131 I0.0231 J0
X3.8519 Y2.625 Z-0.0153 I-0.0231 J0
X3.8981 Y2.625 Z-0.0175 I0.0231 J0
X3.8519 Y2.625 Z-0.0196 I-0.0231 J0
X3.8981 Y2.625 Z-0.0218 I0.0231 J0
X3.8519 Y2.625 Z-0.024 I-0.0231 J0
X3.8981 Y2.625 Z-0.0262 I0.0231 J0
X3.8519 Y2.625 Z-0.0284 I-0.0231 J0
X3.8981 Y2.625 Z-0.0306 I0.0231 J0
X3.8519 Y2.625 Z-0.0327 I-0.0231 J0
X3.8981 Y2.625 Z-0.0349 I0.0231 J0
X3.8519 Y2.625 Z-0.0371 I-0.0231 J0
X3.8981 Y2.625 Z-0.0393 I0.0231 J0
X3.8519 Y2.625 Z-0.0415 I-0.0231 J0
X3.8981 Y2.625 Z-0.0437 I0.0231 J0
X3.8519 Y2.625 Z-0.0458 I-0.0231 J0
X3.8981 Y2.625 Z-0.048 I0.0231 J0
X3.8519 Y2.625 Z-0.0502 I-0.0231 J0
X3.8981 Y2.625 Z-0.0524 I0.0231 J0
X3.8519 Y2.625 Z-0.0546 I-0.0231 J0
X3.8981 Y2.625 Z-0.0567 I0.0231 J0
X3.8519 Y2.625 Z-0.0589 I-0.0231 J0
X3.8981 Y2.625 Z-0.0611 I0.0231 J0
X3.8519 Y2.625 Z-0.0633 I-0.0231 J0
X3.8981 Y2.625 Z-0.0655 I0.0231 J0
X3.8519 Y2.625 Z-0.0677 I-0.0231 J0
X3.8981 Y2.625 Z-0.0698 I0.0231 J0
X3.8519 Y2.625 Z-0.072 I-0.0231 J0
X3.8981 Y2.625 Z-0.0742 I0.0231 J0
X3.8519 Y2.625 Z-0.0764 I-0.0231 J0
X3.8981 Y2.625 Z-0.0786 I0.0231 J0
X3.8519 Y2.625 Z-0.0808 I-0.0231 J0
X3.8981 Y2.625 Z-0.0829 I0.0231 J0
X3.8519 Y2.625 Z-0.0851 I-0.0231 J0
X3.8981 Y2.625 Z-0.0873 I0.0231 J0
X3.8519 Y2.625 Z-0.0895 I-0.0231 J0
X3.8981 Y2.625 Z-0.0917 I0.0231 J0
X3.8519 Y2.625 Z-0.0938 I-0.0231 J0
X3.8981 Y2.625 Z-0.096 I0.0231 J0
X3.8519 Y2.625 Z-0.0982 I-0.0231 J0
X3.8981 Y2.625 Z-0.1004 I0.0231 J0
X3.8519 Y2.625 Z-0.1026 I-0.0231 J0
X3.8981 Y2.625 Z-0.1048 I0.0231 J0
X3.8519 Y2.625 Z-0.1069 I-0.0231 J0
X3.8981 Y2.625 Z-0.1091 I0.0231 J0
X3.8519 Y2.625 Z-0.1113 I-0.0231 J0
X3.8981 Y2.625 Z-0.1135 I0.0231 J0
X3.8519 Y2.625 Z-0.1157 I-0.0231 J0
X3.8981 Y2.625 Z-0.1179 I0.0231 J0
X3.8519 Y2.625 Z-0.12 I-0.0231 J0
X3.8981 Y2.625 Z-0.1222 I0.0231 J0
X3.8519 Y2.625 Z-0.1244 I-0.0231 J0
X3.8981 Y2.625 Z-0.1266 I0.0231 J0
X3.8519 Y2.625 Z-0.1288 I-0.0231 J0
X3.8981 Y2.625 Z-0.131 I0.0231 J0
X3.8519 Y2.625 Z-0.1331 I-0.0231 J0
X3.8981 Y2.625 Z-0.1353 I0.0231 J0
X3.8519 Y2.625 Z-0.1375 I-0.0231 J0
X3.8981 Y2.625 Z-0.1397 I0.0231 J0
X3.8519 Y2.625 Z-0.1419 I-0.0231 J0
X3.8981 Y2.625 Z-0.144 I0.0231 J0
X3.8519 Y2.625 Z-0.1462 I-0.0231 J0
X3.8981 Y2.625 Z-0.1484 I0.0231 J0
X3.8519 Y2.625 Z-0.1506 I-0.0231 J0
X3.8981 Y2.625 Z-0.1528 I0.0231 J0
X3.8519 Y2.625 Z-0.155 I-0.0231 J0
X3.8981 Y2.625 Z-0.1571 I0.0231 J0
X3.8519 Y2.625 Z-0.1593 I-0.0231 J0
X3.8981 Y2.625 Z-0.1615 I0.0231 J0
X3.8519 Y2.625 Z-0.1637 I-0.0231 J0
X3.8981 Y2.625 Z-0.1659 I0.0231 J0
X3.8519 Y2.625 Z-0.1681 I-0.0231 J0
X3.8981 Y2.625 Z-0.1702 I0.0231 J0
X3.8519 Y2.625 Z-0.1724 I-0.0231 J0
X3.8981 Y2.625 Z-0.1746 I0.0231 J0
X3.8519 Y2.625 Z-0.1768 I-0.0231 J0
X3.8981 Y2.625 Z-0.179 I0.0231 J0
X3.8519 Y2.625 Z-0.1812 I-0.0231 J0
X3.8981 Y2.625 Z-0.1833 I0.0231 J0
X3.8519 Y2.625 Z-0.1855 I-0.0231 J0
X3.8981 Y2.625 Z-0.1877 I0.0231 J0
X3.8519 Y2.625 Z-0.1899 I-0.0231 J0
X3.8981 Y2.625 Z-0.1921 I0.0231 J0
X3.8519 Y2.625 Z-0.1942 I-0.0231 J0
X3.8981 Y2.625 Z-0.1964 I0.0231 J0
X3.8519 Y2.625 Z-0.1986 I-0.0231 J0
X3.8981 Y2.625 Z-0.2008 I0.0231 J0
X3.8519 Y2.625 Z-0.203 I-0.0231 J0
X3.8981 Y2.625 Z-0.2052 I0.0231 J0
X3.8519 Y2.625 Z-0.2073 I-0.0231 J0
X3.8981 Y2.625 Z-0.2095 I0.0231 J0
X3.8519 Y2.625 Z-0.2117 I-0.0231 J0
X3.8981 Y2.625 Z-0.2139 I0.0231 J0
X3.8519 Y2.625 Z-0.2161 I-0.0231 J0
X3.8981 Y2.625 Z-0.2183 I0.0231 J0
X3.8519 Y2.625 Z-0.2204 I-0.0231 J0
X3.8981 Y2.625 Z-0.2226 I0.0231 J0
X3.8519 Y2.625 Z-0.2248 I-0.0231 J0
X3.8981 Y2.625 Z-0.227 I0.0231 J0
X3.8519 Y2.625 Z-0.2292 I-0.0231 J0
X3.8981 Y2.625 Z-0.2314 I0.0231 J0
X3.8519 Y2.625 Z-0.2335 I-0.0231 J0
X3.8981 Y2.625 Z-0.2357 I0.0231 J0
X3.8519 Y2.625 Z-0.2379 I-0.0231 J0
X3.8981 Y2.625 Z-0.2401 I0.0231 J0
X3.8519 Y2.625 Z-0.2423 I-0.0231 J0
X3.8981 Y2.625 Z-0.2444 I0.0231 J0
X3.8519 Y2.625 Z-0.2466 I-0.0231 J0
X3.8981 Y2.625 Z-0.2488 I0.0231 J0
X3.8519 Y2.625 Z-0.251 I-0.0231 J0
X3.8981 Y2.625 Z-0.2532 I0.0231 J0
X3.8519 Y2.625 Z-0.2554 I-0.0231 J0
X3.8981 Y2.625 Z-0.2575 I0.0231 J0
X3.8519 Y2.625 Z-0.2597 I-0.0231 J0
X3.8981 Y2.625 Z-0.2619 I0.0231 J0
X3.8519 Y2.625 Z-0.2641 I-0.0231 J0
X3.8981 Y2.625 Z-0.2663 I0.0231 J0
X3.8519 Y2.625 Z-0.2685 I-0.0231 J0
X3.8981 Y2.625 Z-0.2706 I0.0231 J0
X3.8519 Y2.625 Z-0.2728 I-0.0231 J0
X3.8981 Y2.625 Z-0.275 I0.0231 J0
X3.8519 Y2.625 Z-0.2772 I-0.0231 J0
X3.8981 Y2.625 Z-0.2794 I0.0231 J0
X3.8519 Y2.625 Z-0.2815 I-0.0231 J0
X3.8981 Y2.625 Z-0.2837 I0.0231 J0
X3.8519 Y2.625 Z-0.2859 I-0.0231 J0
X3.8981 Y2.625 Z-0.2881 I0.0231 J0
X3.8519 Y2.625 Z-0.2903 I-0.0231 J0
X3.8981 Y2.625 Z-0.2925 I0.0231 J0
X3.8519 Y2.625 Z-0.2946 I-0.0231 J0
X3.8981 Y2.625 Z-0.2968 I0.0231 J0
X3.8519 Y2.625 Z-0.299 I-0.0231 J0
X3.8981 Y2.625 Z-0.3012 I0.0231 J0
X3.8519 Y2.625 Z-0.3034 I-0.0231 J0
X3.8981 Y2.625 Z-0.3056 I0.0231 J0
X3.8519 Y2.625 Z-0.3077 I-0.0231 J0
X3.8981 Y2.625 Z-0.3099 I0.0231 J0
X3.8519 Y2.625 Z-0.3121 I-0.0231 J0
X3.8683 Y2.6029 Z-0.313 I0.0231 J0
X3.8817 Y2.6471 I0.0067 J0.0221
X3.8683 Y2.6029 I-0.0067 J-0.0221
X3.8781 Y2.6081 I0.0023 J0.0075
G1 X3.8793 Y2.6119
X3.8799 Y2.6138 Z-0.3127
X3.8804 Y2.6157 Z-0.3119
X3.8809 Y2.6172 Z-0.3107
X3.8812 Y2.6184 Z-0.3091
X3.8815 Y2.6192 Z-0.3072
Y2.6194 Z-0.3051
Z0.2
X3.8784 Y0.1171
Z0.08
Z0.0079
G18 G2 X3.8863 Z0 I0.0079 K0
G1 X3.8903
G17 G3 X3.8981 Y0.125 I0 J0.0079
X3.8519 Y0.125 Z-0.0022 I-0.0231 J0
X3.8981 Y0.125 Z-0.0044 I0.0231 J0
X3.8519 Y0.125 Z-0.0065 I-0.0231 J0
X3.8981 Y0.125 Z-0.0087 I0.0231 J0
X3.8519 Y0.125 Z-0.0109 I-0.0231 J0
X3.8981 Y0.125 Z-0.0131 I0.0231 J0
X3.8519 Y0.125 Z-0.0153 I-0.0231 J0
X3.8981 Y0.125 Z-0.0175 I0.0231 J0
X3.8519 Y0.125 Z-0.0196 I-0.0231 J0
X3.8981 Y0.125 Z-0.0218 I0.0231 J0
X3.8519 Y0.125 Z-0.024 I-0.0231 J0
X3.8981 Y0.125 Z-0.0262 I0.0231 J0
X3.8519 Y0.125 Z-0.0284 I-0.0231 J0
X3.8981 Y0.125 Z-0.0306 I0.0231 J0
X3.8519 Y0.125 Z-0.0327 I-0.0231 J0
X3.8981 Y0.125 Z-0.0349 I0.0231 J0
X3.8519 Y0.125 Z-0.0371 I-0.0231 J0
X3.8981 Y0.125 Z-0.0393 I0.0231 J0
X3.8519 Y0.125 Z-0.0415 I-0.0231 J0
X3.8981 Y0.125 Z-0.0437 I0.0231 J0
X3.8519 Y0.125 Z-0.0458 I-0.0231 J0
X3.8981 Y0.125 Z-0.048 I0.0231 J0
X3.8519 Y0.125 Z-0.0502 I-0.0231 J0
X3.8981 Y0.125 Z-0.0524 I0.0231 J0
X3.8519 Y0.125 Z-0.0546 I-0.0231 J0
X3.8981 Y0.125 Z-0.0567 I0.0231 J0
X3.8519 Y0.125 Z-0.0589 I-0.0231 J0
X3.8981 Y0.125 Z-0.0611 I0.0231 J0
X3.8519 Y0.125 Z-0.0633 I-0.0231 J0
X3.8981 Y0.125 Z-0.0655 I0.0231 J0
X3.8519 Y0.125 Z-0.0677 I-0.0231 J0
X3.8981 Y0.125 Z-0.0698 I0.0231 J0
X3.8519 Y0.125 Z-0.072 I-0.0231 J0
X3.8981 Y0.125 Z-0.0742 I0.0231 J0
X3.8519 Y0.125 Z-0.0764 I-0.0231 J0
X3.8981 Y0.125 Z-0.0786 I0.0231 J0
X3.8519 Y0.125 Z-0.0808 I-0.0231 J0
X3.8981 Y0.125 Z-0.0829 I0.0231 J0
X3.8519 Y0.125 Z-0.0851 I-0.0231 J0
X3.8981 Y0.125 Z-0.0873 I0.0231 J0
X3.8519 Y0.125 Z-0.0895 I-0.0231 J0
X3.8981 Y0.125 Z-0.0917 I0.0231 J0
X3.8519 Y0.125 Z-0.0938 I-0.0231 J0
X3.8981 Y0.125 Z-0.096 I0.0231 J0
X3.8519 Y0.125 Z-0.0982 I-0.0231 J0
X3.8981 Y0.125 Z-0.1004 I0.0231 J0
X3.8519 Y0.125 Z-0.1026 I-0.0231 J0
X3.8981 Y0.125 Z-0.1048 I0.0231 J0
X3.8519 Y0.125 Z-0.1069 I-0.0231 J0
X3.8981 Y0.125 Z-0.1091 I0.0231 J0
X3.8519 Y0.125 Z-0.1113 I-0.0231 J0
X3.8981 Y0.125 Z-0.1135 I0.0231 J0
X3.8519 Y0.125 Z-0.1157 I-0.0231 J0
X3.8981 Y0.125 Z-0.1179 I0.0231 J0
X3.8519 Y0.125 Z-0.12 I-0.0231 J0
X3.8981 Y0.125 Z-0.1222 I0.0231 J0
X3.8519 Y0.125 Z-0.1244 I-0.0231 J0
X3.8981 Y0.125 Z-0.1266 I0.0231 J0
X3.8519 Y0.125 Z-0.1288 I-0.0231 J0
X3.8981 Y0.125 Z-0.131 I0.0231 J0
X3.8519 Y0.125 Z-0.1331 I-0.0231 J0
X3.8981 Y0.125 Z-0.1353 I0.0231 J0
X3.8519 Y0.125 Z-0.1375 I-0.0231 J0
X3.8981 Y0.125 Z-0.1397 I0.0231 J0
X3.8519 Y0.125 Z-0.1419 I-0.0231 J0
X3.8981 Y0.125 Z-0.144 I0.0231 J0
X3.8519 Y0.125 Z-0.1462 I-0.0231 J0
X3.8981 Y0.125 Z-0.1484 I0.0231 J0
X3.8519 Y0.125 Z-0.1506 I-0.0231 J0
X3.8981 Y0.125 Z-0.1528 I0.0231 J0
X3.8519 Y0.125 Z-0.155 I-0.0231 J0
X3.8981 Y0.125 Z-0.1571 I0.0231 J0
X3.8519 Y0.125 Z-0.1593 I-0.0231 J0
X3.8981 Y0.125 Z-0.1615 I0.0231 J0
X3.8519 Y0.125 Z-0.1637 I-0.0231 J0
X3.8981 Y0.125 Z-0.1659 I0.0231 J0
X3.8519 Y0.125 Z-0.1681 I-0.0231 J0
X3.8981 Y0.125 Z-0.1702 I0.0231 J0
X3.8519 Y0.125 Z-0.1724 I-0.0231 J0
X3.8981 Y0.125 Z-0.1746 I0.0231 J0
X3.8519 Y0.125 Z-0.1768 I-0.0231 J0
X3.8981 Y0.125 Z-0.179 I0.0231 J0
X3.8519 Y0.125 Z-0.1812 I-0.0231 J0
X3.8981 Y0.125 Z-0.1833 I0.0231 J0
X3.8519 Y0.125 Z-0.1855 I-0.0231 J0
X3.8981 Y0.125 Z-0.1877 I0.0231 J0
X3.8519 Y0.125 Z-0.1899 I-0.0231 J0
X3.8981 Y0.125 Z-0.1921 I0.0231 J0
X3.8519 Y0.125 Z-0.1942 I-0.0231 J0
X3.8981 Y0.125 Z-0.1964 I0.0231 J0
X3.8519 Y0.125 Z-0.1986 I-0.0231 J0
X3.8981 Y0.125 Z-0.2008 I0.0231 J0
X3.8519 Y0.125 Z-0.203 I-0.0231 J0
X3.8981 Y0.125 Z-0.2052 I0.0231 J0
X3.8519 Y0.125 Z-0.2073 I-0.0231 J0
X3.8981 Y0.125 Z-0.2095 I0.0231 J0
X3.8519 Y0.125 Z-0.2117 I-0.0231 J0
X3.8981 Y0.125 Z-0.2139 I0.0231 J0
X3.8519 Y0.125 Z-0.2161 I-0.0231 J0
X3.8981 Y0.125 Z-0.2183 I0.0231 J0
X3.8519 Y0.125 Z-0.2204 I-0.0231 J0
X3.8981 Y0.125 Z-0.2226 I0.0231 J0
X3.8519 Y0.125 Z-0.2248 I-0.0231 J0
X3.8981 Y0.125 Z-0.227 I0.0231 J0
X3.8519 Y0.125 Z-0.2292 I-0.0231 J0
X3.8981 Y0.125 Z-0.2314 I0.0231 J0
X3.8519 Y0.125 Z-0.2335 I-0.0231 J0
X3.8981 Y0.125 Z-0.2357 I0.0231 J0
X3.8519 Y0.125 Z-0.2379 I-0.0231 J0
X3.8981 Y0.125 Z-0.2401 I0.0231 J0
X3.8519 Y0.125 Z-0.2423 I-0.0231 J0
X3.8981 Y0.125 Z-0.2444 I0.0231 J0
X3.8519 Y0.125 Z-0.2466 I-0.0231 J0
X3.8981 Y0.125 Z-0.2488 I0.0231 J0
X3.8519 Y0.125 Z-0.251 I-0.0231 J0
X3.8981 Y0.125 Z-0.2532 I0.0231 J0
X3.8519 Y0.125 Z-0.2554 I-0.0231 J0
X3.8981 Y0.125 Z-0.2575 I0.0231 J0
X3.8519 Y0.125 Z-0.2597 I-0.0231 J0
X3.8981 Y0.125 Z-0.2619 I0.0231 J0
X3.8519 Y0.125 Z-0.2641 I-0.0231 J0
X3.8981 Y0.125 Z-0.2663 I0.0231 J0
X3.8519 Y0.125 Z-0.2685 I-0.0231 J0
X3.8981 Y0.125 Z-0.2706 I0.0231 J0
X3.8519 Y0.125 Z-0.2728 I-0.0231 J0
X3.8981 Y0.125 Z-0.275 I0.0231 J0
X3.8519 Y0.125 Z-0.2772 I-0.0231 J0
X3.8981 Y0.125 Z-0.2794 I0.0231 J0
X3.8519 Y0.125 Z-0.2815 I-0.0231 J0
X3.8981 Y0.125 Z-0.2837 I0.0231 J0
X3.8519 Y0.125 Z-0.2859 I-0.0231 J0
X3.8981 Y0.125 Z-0.2881 I0.0231 J0
X3.8519 Y0.125 Z-0.2903 I-0.0231 J0
X3.8981 Y0.125 Z-0.2925 I0.0231 J0
X3.8519 Y0.125 Z-0.2946 I-0.0231 J0
X3.8981 Y0.125 Z-0.2968 I0.0231 J0
X3.8519 Y0.125 Z-0.299 I-0.0231 J0
X3.8981 Y0.125 Z-0.3012 I0.0231 J0
X3.8519 Y0.125 Z-0.3034 I-0.0231 J0
X3.8981 Y0.125 Z-0.3056 I0.0231 J0
X3.8519 Y0.125 Z-0.3077 I-0.0231 J0
X3.8981 Y0.125 Z-0.3099 I0.0231 J0
X3.8519 Y0.125 Z-0.3121 I-0.0231 J0
X3.8683 Y0.1029 Z-0.313 I0.0231 J0
X3.8817 Y0.1471 I0.0067 J0.0221
X3.8683 Y0.1029 I-0.0067 J-0.0221
X3.8781 Y0.1081 I0.0023 J0.0075
G1 X3.8793 Y0.1119
X3.8799 Y0.1138 Z-0.3127
X3.8804 Y0.1157 Z-0.3119
X3.8809 Y0.1172 Z-0.3107
X3.8812 Y0.1184 Z-0.3091
X3.8815 Y0.1192 Z-0.3072
Y0.1194 Z-0.3051
Z0.2
X0.1284 Y0.1171
Z0.08
Z0.0079
G18 G2 X0.1363 Z0 I0.0079 K0
G1 X0.1403
G17 G3 X0.1481 Y0.125 I0 J0.0079
X0.1019 Y0.125 Z-0.0022 I-0.0231 J0
X0.1481 Y0.125 Z-0.0044 I0.0231 J0
X0.1019 Y0.125 Z-0.0065 I-0.0231 J0
X0.1481 Y0.125 Z-0.0087 I0.0231 J0
X0.1019 Y0.125 Z-0.0109 I-0.0231 J0
X0.1481 Y0.125 Z-0.0131 I0.0231 J0
X0.1019 Y0.125 Z-0.0153 I-0.0231 J0
X0.1481 Y0.125 Z-0.0175 I0.0231 J0
X0.1019 Y0.125 Z-0.0196 I-0.0231 J0
X0.1481 Y0.125 Z-0.0218 I0.0231 J0
X0.1019 Y0.125 Z-0.024 I-0.0231 J0
X0.1481 Y0.125 Z-0.0262 I0.0231 J0
X0.1019 Y0.125 Z-0.0284 I-0.0231 J0
X0.1481 Y0.125 Z-0.0306 I0.0231 J0
X0.1019 Y0.125 Z-0.0327 I-0.0231 J0
X0.1481 Y0.125 Z-0.0349 I0.0231 J0
X0.1019 Y0.125 Z-0.0371 I-0.0231 J0
X0.1481 Y0.125 Z-0.0393 I0.0231 J0
X0.1019 Y0.125 Z-0.0415 I-0.0231 J0
X0.1481 Y0.125 Z-0.0437 I0.0231 J0
X0.1019 Y0.125 Z-0.0458 I-0.0231 J0
X0.1481 Y0.125 Z-0.048 I0.0231 J0
X0.1019 Y0.125 Z-0.0502 I-0.0231 J0
X0.1481 Y0.125 Z-0.0524 I0.0231 J0
X0.1019 Y0.125 Z-0.0546 I-0.0231 J0
X0.1481 Y0.125 Z-0.0567 I0.0231 J0
X0.1019 Y0.125 Z-0.0589 I-0.0231 J0
X0.1481 Y0.125 Z-0.0611 I0.0231 J0
X0.1019 Y0.125 Z-0.0633 I-0.0231 J0
X0.1481 Y0.125 Z-0.0655 I0.0231 J0
X0.1019 Y0.125 Z-0.0677 I-0.0231 J0
X0.1481 Y0.125 Z-0.0698 I0.0231 J0
X0.1019 Y0.125 Z-0.072 I-0.0231 J0
X0.1481 Y0.125 Z-0.0742 I0.0231 J0
X0.1019 Y0.125 Z-0.0764 I-0.0231 J0
X0.1481 Y0.125 Z-0.0786 I0.0231 J0
X0.1019 Y0.125 Z-0.0808 I-0.0231 J0
X0.1481 Y0.125 Z-0.0829 I0.0231 J0
X0.1019 Y0.125 Z-0.0851 I-0.0231 J0
X0.1481 Y0.125 Z-0.0873 I0.0231 J0
X0.1019 Y0.125 Z-0.0895 I-0.0231 J0
X0.1481 Y0.125 Z-0.0917 I0.0231 J0
X0.1019 Y0.125 Z-0.0938 I-0.0231 J0
X0.1481 Y0.125 Z-0.096 I0.0231 J0
X0.1019 Y0.125 Z-0.0982 I-0.0231 J0
X0.1481 Y0.125 Z-0.1004 I0.0231 J0
X0.1019 Y0.125 Z-0.1026 I-0.0231 J0
X0.1481 Y0.125 Z-0.1048 I0.0231 J0
X0.1019 Y0.125 Z-0.1069 I-0.0231 J0
X0.1481 Y0.125 Z-0.1091 I0.0231 J0
X0.1019 Y0.125 Z-0.1113 I-0.0231 J0
X0.1481 Y0.125 Z-0.1135 I0.0231 J0
X0.1019 Y0.125 Z-0.1157 I-0.0231 J0
X0.1481 Y0.125 Z-0.1179 I0.0231 J0
X0.1019 Y0.125 Z-0.12 I-0.0231 J0
X0.1481 Y0.125 Z-0.1222 I0.0231 J0
X0.1019 Y0.125 Z-0.1244 I-0.0231 J0
X0.1481 Y0.125 Z-0.1266 I0.0231 J0
X0.1019 Y0.125 Z-0.1288 I-0.0231 J0
X0.1481 Y0.125 Z-0.131 I0.0231 J0
X0.1019 Y0.125 Z-0.1331 I-0.0231 J0
X0.1481 Y0.125 Z-0.1353 I0.0231 J0
X0.1019 Y0.125 Z-0.1375 I-0.0231 J0
X0.1481 Y0.125 Z-0.1397 I0.0231 J0
X0.1019 Y0.125 Z-0.1419 I-0.0231 J0
X0.1481 Y0.125 Z-0.144 I0.0231 J0
X0.1019 Y0.125 Z-0.1462 I-0.0231 J0
X0.1481 Y0.125 Z-0.1484 I0.0231 J0
X0.1019 Y0.125 Z-0.1506 I-0.0231 J0
X0.1481 Y0.125 Z-0.1528 I0.0231 J0
X0.1019 Y0.125 Z-0.155 I-0.0231 J0
X0.1481 Y0.125 Z-0.1571 I0.0231 J0
X0.1019 Y0.125 Z-0.1593 I-0.0231 J0
X0.1481 Y0.125 Z-0.1615 I0.0231 J0
X0.1019 Y0.125 Z-0.1637 I-0.0231 J0
X0.1481 Y0.125 Z-0.1659 I0.0231 J0
X0.1019 Y0.125 Z-0.1681 I-0.0231 J0
X0.1481 Y0.125 Z-0.1702 I0.0231 J0
X0.1019 Y0.125 Z-0.1724 I-0.0231 J0
X0.1481 Y0.125 Z-0.1746 I0.0231 J0
X0.1019 Y0.125 Z-0.1768 I-0.0231 J0
X0.1481 Y0.125 Z-0.179 I0.0231 J0
X0.1019 Y0.125 Z-0.1812 I-0.0231 J0
X0.1481 Y0.125 Z-0.1833 I0.0231 J0
X0.1019 Y0.125 Z-0.1855 I-0.0231 J0
X0.1481 Y0.125 Z-0.1877 I0.0231 J0
X0.1019 Y0.125 Z-0.1899 I-0.0231 J0
X0.1481 Y0.125 Z-0.1921 I0.0231 J0
X0.1019 Y0.125 Z-0.1942 I-0.0231 J0
X0.1481 Y0.125 Z-0.1964 I0.0231 J0
X0.1019 Y0.125 Z-0.1986 I-0.0231 J0
X0.1481 Y0.125 Z-0.2008 I0.0231 J0
X0.1019 Y0.125 Z-0.203 I-0.0231 J0
X0.1481 Y0.125 Z-0.2052 I0.0231 J0
X0.1019 Y0.125 Z-0.2073 I-0.0231 J0
X0.1481 Y0.125 Z-0.2095 I0.0231 J0
X0.1019 Y0.125 Z-0.2117 I-0.0231 J0
X0.1481 Y0.125 Z-0.2139 I0.0231 J0
X0.1019 Y0.125 Z-0.2161 I-0.0231 J0
X0.1481 Y0.125 Z-0.2183 I0.0231 J0
X0.1019 Y0.125 Z-0.2204 I-0.0231 J0
X0.1481 Y0.125 Z-0.2226 I0.0231 J0
X0.1019 Y0.125 Z-0.2248 I-0.0231 J0
X0.1481 Y0.125 Z-0.227 I0.0231 J0
X0.1019 Y0.125 Z-0.2292 I-0.0231 J0
X0.1481 Y0.125 Z-0.2314 I0.0231 J0
X0.1019 Y0.125 Z-0.2335 I-0.0231 J0
X0.1481 Y0.125 Z-0.2357 I0.0231 J0
X0.1019 Y0.125 Z-0.2379 I-0.0231 J0
X0.1481 Y0.125 Z-0.2401 I0.0231 J0
X0.1019 Y0.125 Z-0.2423 I-0.0231 J0
X0.1481 Y0.125 Z-0.2444 I0.0231 J0
X0.1019 Y0.125 Z-0.2466 I-0.0231 J0
X0.1481 Y0.125 Z-0.2488 I0.0231 J0
X0.1019 Y0.125 Z-0.251 I-0.0231 J0
X0.1481 Y0.125 Z-0.2532 I0.0231 J0
X0.1019 Y0.125 Z-0.2554 I-0.0231 J0
X0.1481 Y0.125 Z-0.2575 I0.0231 J0
X0.1019 Y0.125 Z-0.2597 I-0.0231 J0
X0.1481 Y0.125 Z-0.2619 I0.0231 J0
X0.1019 Y0.125 Z-0.2641 I-0.0231 J0
X0.1481 Y0.125 Z-0.2663 I0.0231 J0
X0.1019 Y0.125 Z-0.2685 I-0.0231 J0
X0.1481 Y0.125 Z-0.2706 I0.0231 J0
X0.1019 Y0.125 Z-0.2728 I-0.0231 J0
X0.1481 Y0.125 Z-0.275 I0.0231 J0
X0.1019 Y0.125 Z-0.2772 I-0.0231 J0
X0.1481 Y0.125 Z-0.2794 I0.0231 J0
X0.1019 Y0.125 Z-0.2815 I-0.0231 J0
X0.1481 Y0.125 Z-0.2837 I0.0231 J0
X0.1019 Y0.125 Z-0.2859 I-0.0231 J0
X0.1481 Y0.125 Z-0.2881 I0.0231 J0
X0.1019 Y0.125 Z-0.2903 I-0.0231 J0
X0.1481 Y0.125 Z-0.2925 I0.0231 J0
X0.1019 Y0.125 Z-0.2946 I-0.0231 J0
X0.1481 Y0.125 Z-0.2968 I0.0231 J0
X0.1019 Y0.125 Z-0.299 I-0.0231 J0
X0.1481 Y0.125 Z-0.3012 I0.0231 J0
X0.1019 Y0.125 Z-0.3034 I-0.0231 J0
X0.1481 Y0.125 Z-0.3056 I0.0231 J0
X0.1019 Y0.125 Z-0.3077 I-0.0231 J0
X0.1481 Y0.125 Z-0.3099 I0.0231 J0
X0.1019 Y0.125 Z-0.3121 I-0.0231 J0
X0.1183 Y0.1029 Z-0.313 I0.0231 J0
X0.1317 Y0.1471 I0.0067 J0.0221
X0.1183 Y0.1029 I-0.0067 J-0.0221
X0.1281 Y0.1081 I0.0023 J0.0075
G1 X0.1293 Y0.1119
X0.1299 Y0.1138 Z-0.3127
X0.1304 Y0.1157 Z-0.3119
X0.1309 Y0.1172 Z-0.3107
X0.1312 Y0.1184 Z-0.3091
X0.1315 Y0.1192 Z-0.3072
Y0.1194 Z-0.3051
Z0.2
X0.1284 Y2.6171
Z0.08
Z0.0079
G18 G2 X0.1363 Z0 I0.0079 K0
G1 X0.1403
G17 G3 X0.1481 Y2.625 I0 J0.0079
X0.1019 Y2.625 Z-0.0022 I-0.0231 J0
X0.1481 Y2.625 Z-0.0044 I0.0231 J0
X0.1019 Y2.625 Z-0.0065 I-0.0231 J0
X0.1481 Y2.625 Z-0.0087 I0.0231 J0
X0.1019 Y2.625 Z-0.0109 I-0.0231 J0
X0.1481 Y2.625 Z-0.0131 I0.0231 J0
X0.1019 Y2.625 Z-0.0153 I-0.0231 J0
X0.1481 Y2.625 Z-0.0175 I0.0231 J0
X0.1019 Y2.625 Z-0.0196 I-0.0231 J0
X0.1481 Y2.625 Z-0.0218 I0.0231 J0
X0.1019 Y2.625 Z-0.024 I-0.0231 J0
X0.1481 Y2.625 Z-0.0262 I0.0231 J0
X0.1019 Y2.625 Z-0.0284 I-0.0231 J0
X0.1481 Y2.625 Z-0.0306 I0.0231 J0
X0.1019 Y2.625 Z-0.0327 I-0.0231 J0
X0.1481 Y2.625 Z-0.0349 I0.0231 J0
X0.1019 Y2.625 Z-0.0371 I-0.0231 J0
X0.1481 Y2.625 Z-0.0393 I0.0231 J0
X0.1019 Y2.625 Z-0.0415 I-0.0231 J0
X0.1481 Y2.625 Z-0.0437 I0.0231 J0
X0.1019 Y2.625 Z-0.0458 I-0.0231 J0
X0.1481 Y2.625 Z-0.048 I0.0231 J0
X0.1019 Y2.625 Z-0.0502 I-0.0231 J0
X0.1481 Y2.625 Z-0.0524 I0.0231 J0
X0.1019 Y2.625 Z-0.0546 I-0.0231 J0
X0.1481 Y2.625 Z-0.0567 I0.0231 J0
X0.1019 Y2.625 Z-0.0589 I-0.0231 J0
X0.1481 Y2.625 Z-0.0611 I0.0231 J0
X0.1019 Y2.625 Z-0.0633 I-0.0231 J0
X0.1481 Y2.625 Z-0.0655 I0.0231 J0
X0.1019 Y2.625 Z-0.0677 I-0.0231 J0
X0.1481 Y2.625 Z-0.0698 I0.0231 J0
X0.1019 Y2.625 Z-0.072 I-0.0231 J0
X0.1481 Y2.625 Z-0.0742 I0.0231 J0
X0.1019 Y2.625 Z-0.0764 I-0.0231 J0
X0.1481 Y2.625 Z-0.0786 I0.0231 J0
X0.1019 Y2.625 Z-0.0808 I-0.0231 J0
X0.1481 Y2.625 Z-0.0829 I0.0231 J0
X0.1019 Y2.625 Z-0.0851 I-0.0231 J0
X0.1481 Y2.625 Z-0.0873 I0.0231 J0
X0.1019 Y2.625 Z-0.0895 I-0.0231 J0
X0.1481 Y2.625 Z-0.0917 I0.0231 J0
X0.1019 Y2.625 Z-0.0938 I-0.0231 J0
X0.1481 Y2.625 Z-0.096 I0.0231 J0
X0.1019 Y2.625 Z-0.0982 I-0.0231 J0
X0.1481 Y2.625 Z-0.1004 I0.0231 J0
X0.1019 Y2.625 Z-0.1026 I-0.0231 J0
X0.1481 Y2.625 Z-0.1048 I0.0231 J0
X0.1019 Y2.625 Z-0.1069 I-0.0231 J0
X0.1481 Y2.625 Z-0.1091 I0.0231 J0
X0.1019 Y2.625 Z-0.1113 I-0.0231 J0
X0.1481 Y2.625 Z-0.1135 I0.0231 J0
X0.1019 Y2.625 Z-0.1157 I-0.0231 J0
X0.1481 Y2.625 Z-0.1179 I0.0231 J0
X0.1019 Y2.625 Z-0.12 I-0.0231 J0
X0.1481 Y2.625 Z-0.1222 I0.0231 J0
X0.1019 Y2.625 Z-0.1244 I-0.0231 J0
X0.1481 Y2.625 Z-0.1266 I0.0231 J0
X0.1019 Y2.625 Z-0.1288 I-0.0231 J0
X0.1481 Y2.625 Z-0.131 I0.0231 J0
X0.1019 Y2.625 Z-0.1331 I-0.0231 J0
X0.1481 Y2.625 Z-0.1353 I0.0231 J0
X0.1019 Y2.625 Z-0.1375 I-0.0231 J0
X0.1481 Y2.625 Z-0.1397 I0.0231 J0
X0.1019 Y2.625 Z-0.1419 I-0.0231 J0
X0.1481 Y2.625 Z-0.144 I0.0231 J0
X0.1019 Y2.625 Z-0.1462 I-0.0231 J0
X0.1481 Y2.625 Z-0.1484 I0.0231 J0
X0.1019 Y2.625 Z-0.1506 I-0.0231 J0
X0.1481 Y2.625 Z-0.1528 I0.0231 J0
X0.1019 Y2.625 Z-0.155 I-0.0231 J0
X0.1481 Y2.625 Z-0.1571 I0.0231 J0
X0.1019 Y2.625 Z-0.1593 I-0.0231 J0
X0.1481 Y2.625 Z-0.1615 I0.0231 J0
X0.1019 Y2.625 Z-0.1637 I-0.0231 J0
X0.1481 Y2.625 Z-0.1659 I0.0231 J0
X0.1019 Y2.625 Z-0.1681 I-0.0231 J0
X0.1481 Y2.625 Z-0.1702 I0.0231 J0
X0.1019 Y2.625 Z-0.1724 I-0.0231 J0
X0.1481 Y2.625 Z-0.1746 I0.0231 J0
X0.1019 Y2.625 Z-0.1768 I-0.0231 J0
X0.1481 Y2.625 Z-0.179 I0.0231 J0
X0.1019 Y2.625 Z-0.1812 I-0.0231 J0
X0.1481 Y2.625 Z-0.1833 I0.0231 J0
X0.1019 Y2.625 Z-0.1855 I-0.0231 J0
X0.1481 Y2.625 Z-0.1877 I0.0231 J0
X0.1019 Y2.625 Z-0.1899 I-0.0231 J0
X0.1481 Y2.625 Z-0.1921 I0.0231 J0
X0.1019 Y2.625 Z-0.1942 I-0.0231 J0
X0.1481 Y2.625 Z-0.1964 I0.0231 J0
X0.1019 Y2.625 Z-0.1986 I-0.0231 J0
X0.1481 Y2.625 Z-0.2008 I0.0231 J0
X0.1019 Y2.625 Z-0.203 I-0.0231 J0
X0.1481 Y2.625 Z-0.2052 I0.0231 J0
X0.1019 Y2.625 Z-0.2073 I-0.0231 J0
X0.1481 Y2.625 Z-0.2095 I0.0231 J0
X0.1019 Y2.625 Z-0.2117 I-0.0231 J0
X0.1481 Y2.625 Z-0.2139 I0.0231 J0
X0.1019 Y2.625 Z-0.2161 I-0.0231 J0
X0.1481 Y2.625 Z-0.2183 I0.0231 J0
X0.1019 Y2.625 Z-0.2204 I-0.0231 J0
X0.1481 Y2.625 Z-0.2226 I0.0231 J0
X0.1019 Y2.625 Z-0.2248 I-0.0231 J0
X0.1481 Y2.625 Z-0.227 I0.0231 J0
X0.1019 Y2.625 Z-0.2292 I-0.0231 J0
X0.1481 Y2.625 Z-0.2314 I0.0231 J0
X0.1019 Y2.625 Z-0.2335 I-0.0231 J0
X0.1481 Y2.625 Z-0.2357 I0.0231 J0
X0.1019 Y2.625 Z-0.2379 I-0.0231 J0
X0.1481 Y2.625 Z-0.2401 I0.0231 J0
X0.1019 Y2.625 Z-0.2423 I-0.0231 J0
X0.1481 Y2.625 Z-0.2444 I0.0231 J0
X0.1019 Y2.625 Z-0.2466 I-0.0231 J0
X0.1481 Y2.625 Z-0.2488 I0.0231 J0
X0.1019 Y2.625 Z-0.251 I-0.0231 J0
X0.1481 Y2.625 Z-0.2532 I0.0231 J0
X0.1019 Y2.625 Z-0.2554 I-0.0231 J0
X0.1481 Y2.625 Z-0.2575 I0.0231 J0
X0.1019 Y2.625 Z-0.2597 I-0.0231 J0
X0.1481 Y2.625 Z-0.2619 I0.0231 J0
X0.1019 Y2.625 Z-0.2641 I-0.0231 J0
X0.1481 Y2.625 Z-0.2663 I0.0231 J0
X0.1019 Y2.625 Z-0.2685 I-0.0231 J0
X0.1481 Y2.625 Z-0.2706 I0.0231 J0
X0.1019 Y2.625 Z-0.2728 I-0.0231 J0
X0.1481 Y2.625 Z-0.275 I0.0231 J0
X0.1019 Y2.625 Z-0.2772 I-0.0231 J0
X0.1481 Y2.625 Z-0.2794 I0.0231 J0
X0.1019 Y2.625 Z-0.2815 I-0.0231 J0
X0.1481 Y2.625 Z-0.2837 I0.0231 J0
X0.1019 Y2.625 Z-0.2859 I-0.0231 J0
X0.1481 Y2.625 Z-0.2881 I0.0231 J0
X0.1019 Y2.625 Z-0.2903 I-0.0231 J0
X0.1481 Y2.625 Z-0.2925 I0.0231 J0
X0.1019 Y2.625 Z-0.2946 I-0.0231 J0
X0.1481 Y2.625 Z-0.2968 I0.0231 J0
X0.1019 Y2.625 Z-0.299 I-0.0231 J0
X0.1481 Y2.625 Z-0.3012 I0.0231 J0
X0.1019 Y2.625 Z-0.3034 I-0.0231 J0
X0.1481 Y2.625 Z-0.3056 I0.0231 J0
X0.1019 Y2.625 Z-0.3077 I-0.0231 J0
X0.1481 Y2.625 Z-0.3099 I0.0231 J0
X0.1019 Y2.625 Z-0.3121 I-0.0231 J0
X0.1183 Y2.6029 Z-0.313 I0.0231 J0
X0.1317 Y2.6471 I0.0067 J0.0221
X0.1183 Y2.6029 I-0.0067 J-0.0221
X0.1281 Y2.6081 I0.0023 J0.0075
G1 X0.1293 Y2.6119
X0.1299 Y2.6138 Z-0.3127
X0.1304 Y2.6157 Z-0.3119
X0.1309 Y2.6172 Z-0.3107
X0.1312 Y2.6184 Z-0.3091
X0.1315 Y2.6192 Z-0.3072
Y2.6194 Z-0.3051
Z0.2
X0.1284 Y2.8671
Z0.08
Z0.0079
G18 G2 X0.1363 Z0 I0.0079 K0
G1 X0.1403
G17 G3 X0.1481 Y2.875 I0 J0.0079
X0.1019 Y2.875 Z-0.0022 I-0.0231 J0
X0.1481 Y2.875 Z-0.0044 I0.0231 J0
X0.1019 Y2.875 Z-0.0065 I-0.0231 J0
X0.1481 Y2.875 Z-0.0087 I0.0231 J0
X0.1019 Y2.875 Z-0.0109 I-0.0231 J0
X0.1481 Y2.875 Z-0.0131 I0.0231 J0
X0.1019 Y2.875 Z-0.0153 I-0.0231 J0
X0.1481 Y2.875 Z-0.0175 I0.0231 J0
X0.1019 Y2.875 Z-0.0196 I-0.0231 J0
X0.1481 Y2.875 Z-0.0218 I0.0231 J0
X0.1019 Y2.875 Z-0.024 I-0.0231 J0
X0.1481 Y2.875 Z-0.0262 I0.0231 J0
X0.1019 Y2.875 Z-0.0284 I-0.0231 J0
X0.1481 Y2.875 Z-0.0306 I0.0231 J0
X0.1019 Y2.875 Z-0.0327 I-0.0231 J0
X0.1481 Y2.875 Z-0.0349 I0.0231 J0
X0.1019 Y2.875 Z-0.0371 I-0.0231 J0
X0.1481 Y2.875 Z-0.0393 I0.0231 J0
X0.1019 Y2.875 Z-0.0415 I-0.0231 J0
X0.1481 Y2.875 Z-0.0437 I0.0231 J0
X0.1019 Y2.875 Z-0.0458 I-0.0231 J0
X0.1481 Y2.875 Z-0.048 I0.0231 J0
X0.1019 Y2.875 Z-0.0502 I-0.0231 J0
X0.1481 Y2.875 Z-0.0524 I0.0231 J0
X0.1019 Y2.875 Z-0.0546 I-0.0231 J0
X0.1481 Y2.875 Z-0.0567 I0.0231 J0
X0.1019 Y2.875 Z-0.0589 I-0.0231 J0
X0.1481 Y2.875 Z-0.0611 I0.0231 J0
X0.1019 Y2.875 Z-0.0633 I-0.0231 J0
X0.1481 Y2.875 Z-0.0655 I0.0231 J0
X0.1019 Y2.875 Z-0.0677 I-0.0231 J0
X0.1481 Y2.875 Z-0.0698 I0.0231 J0
X0.1019 Y2.875 Z-0.072 I-0.0231 J0
X0.1481 Y2.875 Z-0.0742 I0.0231 J0
X0.1019 Y2.875 Z-0.0764 I-0.0231 J0
X0.1481 Y2.875 Z-0.0786 I0.0231 J0
X0.1019 Y2.875 Z-0.0808 I-0.0231 J0
X0.1481 Y2.875 Z-0.0829 I0.0231 J0
X0.1019 Y2.875 Z-0.0851 I-0.0231 J0
X0.1481 Y2.875 Z-0.0873 I0.0231 J0
X0.1019 Y2.875 Z-0.0895 I-0.0231 J0
X0.1481 Y2.875 Z-0.0917 I0.0231 J0
X0.1019 Y2.875 Z-0.0938 I-0.0231 J0
X0.1481 Y2.875 Z-0.096 I0.0231 J0
X0.1019 Y2.875 Z-0.0982 I-0.0231 J0
X0.1481 Y2.875 Z-0.1004 I0.0231 J0
X0.1019 Y2.875 Z-0.1026 I-0.0231 J0
X0.1481 Y2.875 Z-0.1048 I0.0231 J0
X0.1019 Y2.875 Z-0.1069 I-0.0231 J0
X0.1481 Y2.875 Z-0.1091 I0.0231 J0
X0.1019 Y2.875 Z-0.1113 I-0.0231 J0
X0.1481 Y2.875 Z-0.1135 I0.0231 J0
X0.1019 Y2.875 Z-0.1157 I-0.0231 J0
X0.1481 Y2.875 Z-0.1179 I0.0231 J0
X0.1019 Y2.875 Z-0.12 I-0.0231 J0
X0.1481 Y2.875 Z-0.1222 I0.0231 J0
X0.1019 Y2.875 Z-0.1244 I-0.0231 J0
X0.1481 Y2.875 Z-0.1266 I0.0231 J0
X0.1019 Y2.875 Z-0.1288 I-0.0231 J0
X0.1481 Y2.875 Z-0.131 I0.0231 J0
X0.1019 Y2.875 Z-0.1331 I-0.0231 J0
X0.1481 Y2.875 Z-0.1353 I0.0231 J0
X0.1019 Y2.875 Z-0.1375 I-0.0231 J0
X0.1481 Y2.875 Z-0.1397 I0.0231 J0
X0.1019 Y2.875 Z-0.1419 I-0.0231 J0
X0.1481 Y2.875 Z-0.144 I0.0231 J0
X0.1019 Y2.875 Z-0.1462 I-0.0231 J0
X0.1481 Y2.875 Z-0.1484 I0.0231 J0
X0.1019 Y2.875 Z-0.1506 I-0.0231 J0
X0.1481 Y2.875 Z-0.1528 I0.0231 J0
X0.1019 Y2.875 Z-0.155 I-0.0231 J0
X0.1481 Y2.875 Z-0.1571 I0.0231 J0
X0.1019 Y2.875 Z-0.1593 I-0.0231 J0
X0.1481 Y2.875 Z-0.1615 I0.0231 J0
X0.1019 Y2.875 Z-0.1637 I-0.0231 J0
X0.1481 Y2.875 Z-0.1659 I0.0231 J0
X0.1019 Y2.875 Z-0.1681 I-0.0231 J0
X0.1481 Y2.875 Z-0.1702 I0.0231 J0
X0.1019 Y2.875 Z-0.1724 I-0.0231 J0
X0.1481 Y2.875 Z-0.1746 I0.0231 J0
X0.1019 Y2.875 Z-0.1768 I-0.0231 J0
X0.1481 Y2.875 Z-0.179 I0.0231 J0
X0.1019 Y2.875 Z-0.1812 I-0.0231 J0
X0.1481 Y2.875 Z-0.1833 I0.0231 J0
X0.1019 Y2.875 Z-0.1855 I-0.0231 J0
X0.1481 Y2.875 Z-0.1877 I0.0231 J0
X0.1019 Y2.875 Z-0.1899 I-0.0231 J0
X0.1481 Y2.875 Z-0.1921 I0.0231 J0
X0.1019 Y2.875 Z-0.1942 I-0.0231 J0
X0.1481 Y2.875 Z-0.1964 I0.0231 J0
X0.1019 Y2.875 Z-0.1986 I-0.0231 J0
X0.1481 Y2.875 Z-0.2008 I0.0231 J0
X0.1019 Y2.875 Z-0.203 I-0.0231 J0
X0.1481 Y2.875 Z-0.2052 I0.0231 J0
X0.1019 Y2.875 Z-0.2073 I-0.0231 J0
X0.1481 Y2.875 Z-0.2095 I0.0231 J0
X0.1019 Y2.875 Z-0.2117 I-0.0231 J0
X0.1481 Y2.875 Z-0.2139 I0.0231 J0
X0.1019 Y2.875 Z-0.2161 I-0.0231 J0
X0.1481 Y2.875 Z-0.2183 I0.0231 J0
X0.1019 Y2.875 Z-0.2204 I-0.0231 J0
X0.1481 Y2.875 Z-0.2226 I0.0231 J0
X0.1019 Y2.875 Z-0.2248 I-0.0231 J0
X0.1481 Y2.875 Z-0.227 I0.0231 J0
X0.1019 Y2.875 Z-0.2292 I-0.0231 J0
X0.1481 Y2.875 Z-0.2314 I0.0231 J0
X0.1019 Y2.875 Z-0.2335 I-0.0231 J0
X0.1481 Y2.875 Z-0.2357 I0.0231 J0
X0.1019 Y2.875 Z-0.2379 I-0.0231 J0
X0.1481 Y2.875 Z-0.2401 I0.0231 J0
X0.1019 Y2.875 Z-0.2423 I-0.0231 J0
X0.1481 Y2.875 Z-0.2444 I0.0231 J0
X0.1019 Y2.875 Z-0.2466 I-0.0231 J0
X0.1481 Y2.875 Z-0.2488 I0.0231 J0
X0.1019 Y2.875 Z-0.251 I-0.0231 J0
X0.1481 Y2.875 Z-0.2532 I0.0231 J0
X0.1019 Y2.875 Z-0.2554 I-0.0231 J0
X0.1481 Y2.875 Z-0.2575 I0.0231 J0
X0.1019 Y2.875 Z-0.2597 I-0.0231 J0
X0.1481 Y2.875 Z-0.2619 I0.0231 J0
X0.1019 Y2.875 Z-0.2641 I-0.0231 J0
X0.1481 Y2.875 Z-0.2663 I0.0231 J0
X0.1019 Y2.875 Z-0.2685 I-0.0231 J0
X0.1481 Y2.875 Z-0.2706 I0.0231 J0
X0.1019 Y2.875 Z-0.2728 I-0.0231 J0
X0.1481 Y2.875 Z-0.275 I0.0231 J0
X0.1019 Y2.875 Z-0.2772 I-0.0231 J0
X0.1481 Y2.875 Z-0.2794 I0.0231 J0
X0.1019 Y2.875 Z-0.2815 I-0.0231 J0
X0.1481 Y2.875 Z-0.2837 I0.0231 J0
X0.1019 Y2.875 Z-0.2859 I-0.0231 J0
X0.1481 Y2.875 Z-0.2881 I0.0231 J0
X0.1019 Y2.875 Z-0.2903 I-0.0231 J0
X0.1481 Y2.875 Z-0.2925 I0.0231 J0
X0.1019 Y2.875 Z-0.2946 I-0.0231 J0
X0.1481 Y2.875 Z-0.2968 I0.0231 J0
X0.1019 Y2.875 Z-0.299 I-0.0231 J0
X0.1481 Y2.875 Z-0.3012 I0.0231 J0
X0.1019 Y2.875 Z-0.3034 I-0.0231 J0
X0.1481 Y2.875 Z-0.3056 I0.0231 J0
X0.1019 Y2.875 Z-0.3077 I-0.0231 J0
X0.1481 Y2.875 Z-0.3099 I0.0231 J0
X0.1019 Y2.875 Z-0.3121 I-0.0231 J0
X0.1183 Y2.8529 Z-0.313 I0.0231 J0
X0.1317 Y2.8971 I0.0067 J0.0221
X0.1183 Y2.8529 I-0.0067 J-0.0221
X0.1281 Y2.8581 I0.0023 J0.0075
G1 X0.1293 Y2.8619
X0.1299 Y2.8638 Z-0.3127
X0.1304 Y2.8657 Z-0.3119
X0.1309 Y2.8672 Z-0.3107
X0.1312 Y2.8684 Z-0.3091
X0.1315 Y2.8692 Z-0.3072
Y2.8694 Z-0.3051
Z0.2
X0.1284 Y5.3671
Z0.08
Z0.0079
G18 G2 X0.1363 Z0 I0.0079 K0
G1 X0.1403
G17 G3 X0.1481 Y5.375 I0 J0.0079
X0.1019 Y5.375 Z-0.0022 I-0.0231 J0
X0.1481 Y5.375 Z-0.0044 I0.0231 J0
X0.1019 Y5.375 Z-0.0065 I-0.0231 J0
X0.1481 Y5.375 Z-0.0087 I0.0231 J0
X0.1019 Y5.375 Z-0.0109 I-0.0231 J0
X0.1481 Y5.375 Z-0.0131 I0.0231 J0
X0.1019 Y5.375 Z-0.0153 I-0.0231 J0
X0.1481 Y5.375 Z-0.0175 I0.0231 J0
X0.1019 Y5.375 Z-0.0196 I-0.0231 J0
X0.1481 Y5.375 Z-0.0218 I0.0231 J0
X0.1019 Y5.375 Z-0.024 I-0.0231 J0
X0.1481 Y5.375 Z-0.0262 I0.0231 J0
X0.1019 Y5.375 Z-0.0284 I-0.0231 J0
X0.1481 Y5.375 Z-0.0306 I0.0231 J0
X0.1019 Y5.375 Z-0.0327 I-0.0231 J0
X0.1481 Y5.375 Z-0.0349 I0.0231 J0
X0.1019 Y5.375 Z-0.0371 I-0.0231 J0
X0.1481 Y5.375 Z-0.0393 I0.0231 J0
X0.1019 Y5.375 Z-0.0415 I-0.0231 J0
X0.1481 Y5.375 Z-0.0437 I0.0231 J0
X0.1019 Y5.375 Z-0.0458 I-0.0231 J0
X0.1481 Y5.375 Z-0.048 I0.0231 J0
X0.1019 Y5.375 Z-0.0502 I-0.0231 J0
X0.1481 Y5.375 Z-0.0524 I0.0231 J0
X0.1019 Y5.375 Z-0.0546 I-0.0231 J0
X0.1481 Y5.375 Z-0.0567 I0.0231 J0
X0.1019 Y5.375 Z-0.0589 I-0.0231 J0
X0.1481 Y5.375 Z-0.0611 I0.0231 J0
X0.1019 Y5.375 Z-0.0633 I-0.0231 J0
X0.1481 Y5.375 Z-0.0655 I0.0231 J0
X0.1019 Y5.375 Z-0.0677 I-0.0231 J0
X0.1481 Y5.375 Z-0.0698 I0.0231 J0
X0.1019 Y5.375 Z-0.072 I-0.0231 J0
X0.1481 Y5.375 Z-0.0742 I0.0231 J0
X0.1019 Y5.375 Z-0.0764 I-0.0231 J0
X0.1481 Y5.375 Z-0.0786 I0.0231 J0
X0.1019 Y5.375 Z-0.0808 I-0.0231 J0
X0.1481 Y5.375 Z-0.0829 I0.0231 J0
X0.1019 Y5.375 Z-0.0851 I-0.0231 J0
X0.1481 Y5.375 Z-0.0873 I0.0231 J0
X0.1019 Y5.375 Z-0.0895 I-0.0231 J0
X0.1481 Y5.375 Z-0.0917 I0.0231 J0
X0.1019 Y5.375 Z-0.0938 I-0.0231 J0
X0.1481 Y5.375 Z-0.096 I0.0231 J0
X0.1019 Y5.375 Z-0.0982 I-0.0231 J0
X0.1481 Y5.375 Z-0.1004 I0.0231 J0
X0.1019 Y5.375 Z-0.1026 I-0.0231 J0
X0.1481 Y5.375 Z-0.1048 I0.0231 J0
X0.1019 Y5.375 Z-0.1069 I-0.0231 J0
X0.1481 Y5.375 Z-0.1091 I0.0231 J0
X0.1019 Y5.375 Z-0.1113 I-0.0231 J0
X0.1481 Y5.375 Z-0.1135 I0.0231 J0
X0.1019 Y5.375 Z-0.1157 I-0.0231 J0
X0.1481 Y5.375 Z-0.1179 I0.0231 J0
X0.1019 Y5.375 Z-0.12 I-0.0231 J0
X0.1481 Y5.375 Z-0.1222 I0.0231 J0
X0.1019 Y5.375 Z-0.1244 I-0.0231 J0
X0.1481 Y5.375 Z-0.1266 I0.0231 J0
X0.1019 Y5.375 Z-0.1288 I-0.0231 J0
X0.1481 Y5.375 Z-0.131 I0.0231 J0
X0.1019 Y5.375 Z-0.1331 I-0.0231 J0
X0.1481 Y5.375 Z-0.1353 I0.0231 J0
X0.1019 Y5.375 Z-0.1375 I-0.0231 J0
X0.1481 Y5.375 Z-0.1397 I0.0231 J0
X0.1019 Y5.375 Z-0.1419 I-0.0231 J0
X0.1481 Y5.375 Z-0.144 I0.0231 J0
X0.1019 Y5.375 Z-0.1462 I-0.0231 J0
X0.1481 Y5.375 Z-0.1484 I0.0231 J0
X0.1019 Y5.375 Z-0.1506 I-0.0231 J0
X0.1481 Y5.375 Z-0.1528 I0.0231 J0
X0.1019 Y5.375 Z-0.155 I-0.0231 J0
X0.1481 Y5.375 Z-0.1571 I0.0231 J0
X0.1019 Y5.375 Z-0.1593 I-0.0231 J0
X0.1481 Y5.375 Z-0.1615 I0.0231 J0
X0.1019 Y5.375 Z-0.1637 I-0.0231 J0
X0.1481 Y5.375 Z-0.1659 I0.0231 J0
X0.1019 Y5.375 Z-0.1681 I-0.0231 J0
X0.1481 Y5.375 Z-0.1702 I0.0231 J0
X0.1019 Y5.375 Z-0.1724 I-0.0231 J0
X0.1481 Y5.375 Z-0.1746 I0.0231 J0
X0.1019 Y5.375 Z-0.1768 I-0.0231 J0
X0.1481 Y5.375 Z-0.179 I0.0231 J0
X0.1019 Y5.375 Z-0.1812 I-0.0231 J0
X0.1481 Y5.375 Z-0.1833 I0.0231 J0
X0.1019 Y5.375 Z-0.1855 I-0.0231 J0
X0.1481 Y5.375 Z-0.1877 I0.0231 J0
X0.1019 Y5.375 Z-0.1899 I-0.0231 J0
X0.1481 Y5.375 Z-0.1921 I0.0231 J0
X0.1019 Y5.375 Z-0.1942 I-0.0231 J0
X0.1481 Y5.375 Z-0.1964 I0.0231 J0
X0.1019 Y5.375 Z-0.1986 I-0.0231 J0
X0.1481 Y5.375 Z-0.2008 I0.0231 J0
X0.1019 Y5.375 Z-0.203 I-0.0231 J0
X0.1481 Y5.375 Z-0.2052 I0.0231 J0
X0.1019 Y5.375 Z-0.2073 I-0.0231 J0
X0.1481 Y5.375 Z-0.2095 I0.0231 J0
X0.1019 Y5.375 Z-0.2117 I-0.0231 J0
X0.1481 Y5.375 Z-0.2139 I0.0231 J0
X0.1019 Y5.375 Z-0.2161 I-0.0231 J0
X0.1481 Y5.375 Z-0.2183 I0.0231 J0
X0.1019 Y5.375 Z-0.2204 I-0.0231 J0
X0.1481 Y5.375 Z-0.2226 I0.0231 J0
X0.1019 Y5.375 Z-0.2248 I-0.0231 J0
X0.1481 Y5.375 Z-0.227 I0.0231 J0
X0.1019 Y5.375 Z-0.2292 I-0.0231 J0
X0.1481 Y5.375 Z-0.2314 I0.0231 J0
X0.1019 Y5.375 Z-0.2335 I-0.0231 J0
X0.1481 Y5.375 Z-0.2357 I0.0231 J0
X0.1019 Y5.375 Z-0.2379 I-0.0231 J0
X0.1481 Y5.375 Z-0.2401 I0.0231 J0
X0.1019 Y5.375 Z-0.2423 I-0.0231 J0
X0.1481 Y5.375 Z-0.2444 I0.0231 J0
X0.1019 Y5.375 Z-0.2466 I-0.0231 J0
X0.1481 Y5.375 Z-0.2488 I0.0231 J0
X0.1019 Y5.375 Z-0.251 I-0.0231 J0
X0.1481 Y5.375 Z-0.2532 I0.0231 J0
X0.1019 Y5.375 Z-0.2554 I-0.0231 J0
X0.1481 Y5.375 Z-0.2575 I0.0231 J0
X0.1019 Y5.375 Z-0.2597 I-0.0231 J0
X0.1481 Y5.375 Z-0.2619 I0.0231 J0
X0.1019 Y5.375 Z-0.2641 I-0.0231 J0
X0.1481 Y5.375 Z-0.2663 I0.0231 J0
X0.1019 Y5.375 Z-0.2685 I-0.0231 J0
X0.1481 Y5.375 Z-0.2706 I0.0231 J0
X0.1019 Y5.375 Z-0.2728 I-0.0231 J0
X0.1481 Y5.375 Z-0.275 I0.0231 J0
X0.1019 Y5.375 Z-0.2772 I-0.0231 J0
X0.1481 Y5.375 Z-0.2794 I0.0231 J0
X0.1019 Y5.375 Z-0.2815 I-0.0231 J0
X0.1481 Y5.375 Z-0.2837 I0.0231 J0
X0.1019 Y5.375 Z-0.2859 I-0.0231 J0
X0.1481 Y5.375 Z-0.2881 I0.0231 J0
X0.1019 Y5.375 Z-0.2903 I-0.0231 J0
X0.1481 Y5.375 Z-0.2925 I0.0231 J0
X0.1019 Y5.375 Z-0.2946 I-0.0231 J0
X0.1481 Y5.375 Z-0.2968 I0.0231 J0
X0.1019 Y5.375 Z-0.299 I-0.0231 J0
X0.1481 Y5.375 Z-0.3012 I0.0231 J0
X0.1019 Y5.375 Z-0.3034 I-0.0231 J0
X0.1481 Y5.375 Z-0.3056 I0.0231 J0
X0.1019 Y5.375 Z-0.3077 I-0.0231 J0
X0.1481 Y5.375 Z-0.3099 I0.0231 J0
X0.1019 Y5.375 Z-0.3121 I-0.0231 J0
X0.1183 Y5.3529 Z-0.313 I0.0231 J0
X0.1317 Y5.3971 I0.0067 J0.0221
X0.1183 Y5.3529 I-0.0067 J-0.0221
X0.1281 Y5.3581 I0.0023 J0.0075
G1 X0.1293 Y5.3619
X0.1299 Y5.3638 Z-0.3127
X0.1304 Y5.3657 Z-0.3119
X0.1309 Y5.3672 Z-0.3107
X0.1312 Y5.3684 Z-0.3091
X0.1315 Y5.3692 Z-0.3072
Y5.3694 Z-0.3051
Z0.6
M9
M5
M30
