(pcb-alignment-holes)
(T1  D=0.0787 CR=0 - ZMIN=-0.0669 - flat end mill)
G90 G94
G17
G20
(When using Fusion for Personal Use, the feedrate of rapid)
(moves is reduced to match the feedrate of cutting moves,)
(which can increase machining time. Unrestricted rapid moves)
(are available with a Fusion Subscription.)

([T1] pcb-alignment-holes)
T1
S5000 M3
G54
M8
G0 X0.1284 Y0.1171
Z0.6
G1 Z0.08 F39.37
Z0.0079
G18 G2 X0.1363 Z0 I0.0079 K0
G1 X0.1403
G17 G3 X0.1481 Y0.125 I0 J0.0079
X0.1019 Y0.125 Z-0.0022 I-0.0231 J0
X0.1481 Y0.125 Z-0.0044 I0.0231 J0
X0.1019 Y0.125 Z-0.0065 I-0.0231 J0
X0.1481 Y0.125 Z-0.0087 I0.0231 J0
X0.1019 Y0.125 Z-0.0109 I-0.0231 J0
X0.1481 Y0.125 Z-0.0131 I0.0231 J0
X0.1019 Y0.125 Z-0.0153 I-0.0231 J0
X0.1481 Y0.125 Z-0.0175 I0.0231 J0
X0.1019 Y0.125 Z-0.0196 I-0.0231 J0
X0.1481 Y0.125 Z-0.0218 I0.0231 J0
X0.1019 Y0.125 Z-0.024 I-0.0231 J0
X0.1481 Y0.125 Z-0.0262 I0.0231 J0
X0.1019 Y0.125 Z-0.0284 I-0.0231 J0
X0.1481 Y0.125 Z-0.0306 I0.0231 J0
X0.1019 Y0.125 Z-0.0327 I-0.0231 J0
X0.1481 Y0.125 Z-0.0349 I0.0231 J0
X0.1019 Y0.125 Z-0.0371 I-0.0231 J0
X0.1481 Y0.125 Z-0.0393 I0.0231 J0
X0.1019 Y0.125 Z-0.0415 I-0.0231 J0
X0.1481 Y0.125 Z-0.0437 I0.0231 J0
X0.1019 Y0.125 Z-0.0458 I-0.0231 J0
X0.1481 Y0.125 Z-0.048 I0.0231 J0
X0.1019 Y0.125 Z-0.0502 I-0.0231 J0
X0.1481 Y0.125 Z-0.0524 I0.0231 J0
X0.1019 Y0.125 Z-0.0546 I-0.0231 J0
X0.1481 Y0.125 Z-0.0567 I0.0231 J0
X0.1019 Y0.125 Z-0.0589 I-0.0231 J0
X0.1481 Y0.125 Z-0.0611 I0.0231 J0
X0.1019 Y0.125 Z-0.0633 I-0.0231 J0
X0.1481 Y0.125 Z-0.0655 I0.0231 J0
X0.1135 Y0.1451 Z-0.0669 I-0.0231 J0
X0.1365 Y0.1049 I0.0115 J-0.0201
X0.1135 Y0.1451 I-0.0115 J0.0201
X0.1106 Y0.1343 I0.0039 J-0.0068
G1 X0.1125 Y0.1309
X0.1136 Y0.1291 Z-0.0667
X0.1145 Y0.1275 Z-0.0659
X0.1153 Y0.1261 Z-0.0646
X0.1159 Y0.125 Z-0.063
X0.1163 Y0.1243 Z-0.0611
X0.1165 Y0.1241 Z-0.0591
Z0.2
X0.1284 Y2.6171
Z0.08
Z0.0079
G18 G2 X0.1363 Z0 I0.0079 K0
G1 X0.1403
G17 G3 X0.1481 Y2.625 I0 J0.0079
X0.1019 Y2.625 Z-0.0022 I-0.0231 J0
X0.1481 Y2.625 Z-0.0044 I0.0231 J0
X0.1019 Y2.625 Z-0.0065 I-0.0231 J0
X0.1481 Y2.625 Z-0.0087 I0.0231 J0
X0.1019 Y2.625 Z-0.0109 I-0.0231 J0
X0.1481 Y2.625 Z-0.0131 I0.0231 J0
X0.1019 Y2.625 Z-0.0153 I-0.0231 J0
X0.1481 Y2.625 Z-0.0175 I0.0231 J0
X0.1019 Y2.625 Z-0.0196 I-0.0231 J0
X0.1481 Y2.625 Z-0.0218 I0.0231 J0
X0.1019 Y2.625 Z-0.024 I-0.0231 J0
X0.1481 Y2.625 Z-0.0262 I0.0231 J0
X0.1019 Y2.625 Z-0.0284 I-0.0231 J0
X0.1481 Y2.625 Z-0.0306 I0.0231 J0
X0.1019 Y2.625 Z-0.0327 I-0.0231 J0
X0.1481 Y2.625 Z-0.0349 I0.0231 J0
X0.1019 Y2.625 Z-0.0371 I-0.0231 J0
X0.1481 Y2.625 Z-0.0393 I0.0231 J0
X0.1019 Y2.625 Z-0.0415 I-0.0231 J0
X0.1481 Y2.625 Z-0.0437 I0.0231 J0
X0.1019 Y2.625 Z-0.0458 I-0.0231 J0
X0.1481 Y2.625 Z-0.048 I0.0231 J0
X0.1019 Y2.625 Z-0.0502 I-0.0231 J0
X0.1481 Y2.625 Z-0.0524 I0.0231 J0
X0.1019 Y2.625 Z-0.0546 I-0.0231 J0
X0.1481 Y2.625 Z-0.0567 I0.0231 J0
X0.1019 Y2.625 Z-0.0589 I-0.0231 J0
X0.1481 Y2.625 Z-0.0611 I0.0231 J0
X0.1019 Y2.625 Z-0.0633 I-0.0231 J0
X0.1481 Y2.625 Z-0.0655 I0.0231 J0
X0.1135 Y2.6451 Z-0.0669 I-0.0231 J0
X0.1365 Y2.6049 I0.0115 J-0.0201
X0.1135 Y2.6451 I-0.0115 J0.0201
X0.1106 Y2.6343 I0.0039 J-0.0068
G1 X0.1125 Y2.6309
X0.1136 Y2.6291 Z-0.0667
X0.1145 Y2.6275 Z-0.0659
X0.1153 Y2.6261 Z-0.0646
X0.1159 Y2.625 Z-0.063
X0.1163 Y2.6243 Z-0.0611
X0.1165 Y2.6241 Z-0.0591
Z0.2
X3.8784 Y2.6171
Z0.08
Z0.0079
G18 G2 X3.8863 Z0 I0.0079 K0
G1 X3.8903
G17 G3 X3.8981 Y2.625 I0 J0.0079
X3.8519 Y2.625 Z-0.0022 I-0.0231 J0
X3.8981 Y2.625 Z-0.0044 I0.0231 J0
X3.8519 Y2.625 Z-0.0065 I-0.0231 J0
X3.8981 Y2.625 Z-0.0087 I0.0231 J0
X3.8519 Y2.625 Z-0.0109 I-0.0231 J0
X3.8981 Y2.625 Z-0.0131 I0.0231 J0
X3.8519 Y2.625 Z-0.0153 I-0.0231 J0
X3.8981 Y2.625 Z-0.0175 I0.0231 J0
X3.8519 Y2.625 Z-0.0196 I-0.0231 J0
X3.8981 Y2.625 Z-0.0218 I0.0231 J0
X3.8519 Y2.625 Z-0.024 I-0.0231 J0
X3.8981 Y2.625 Z-0.0262 I0.0231 J0
X3.8519 Y2.625 Z-0.0284 I-0.0231 J0
X3.8981 Y2.625 Z-0.0306 I0.0231 J0
X3.8519 Y2.625 Z-0.0327 I-0.0231 J0
X3.8981 Y2.625 Z-0.0349 I0.0231 J0
X3.8519 Y2.625 Z-0.0371 I-0.0231 J0
X3.8981 Y2.625 Z-0.0393 I0.0231 J0
X3.8519 Y2.625 Z-0.0415 I-0.0231 J0
X3.8981 Y2.625 Z-0.0437 I0.0231 J0
X3.8519 Y2.625 Z-0.0458 I-0.0231 J0
X3.8981 Y2.625 Z-0.048 I0.0231 J0
X3.8519 Y2.625 Z-0.0502 I-0.0231 J0
X3.8981 Y2.625 Z-0.0524 I0.0231 J0
X3.8519 Y2.625 Z-0.0546 I-0.0231 J0
X3.8981 Y2.625 Z-0.0567 I0.0231 J0
X3.8519 Y2.625 Z-0.0589 I-0.0231 J0
X3.8981 Y2.625 Z-0.0611 I0.0231 J0
X3.8519 Y2.625 Z-0.0633 I-0.0231 J0
X3.8981 Y2.625 Z-0.0655 I0.0231 J0
X3.8635 Y2.6451 Z-0.0669 I-0.0231 J0
X3.8865 Y2.6049 I0.0115 J-0.0201
X3.8635 Y2.6451 I-0.0115 J0.0201
X3.8606 Y2.6343 I0.0039 J-0.0068
G1 X3.8625 Y2.6309
X3.8636 Y2.6291 Z-0.0667
X3.8645 Y2.6275 Z-0.0659
X3.8653 Y2.6261 Z-0.0646
X3.8659 Y2.625 Z-0.063
X3.8663 Y2.6243 Z-0.0611
X3.8665 Y2.6241 Z-0.0591
Z0.2
X3.8784 Y0.1171
Z0.08
Z0.0079
G18 G2 X3.8863 Z0 I0.0079 K0
G1 X3.8903
G17 G3 X3.8981 Y0.125 I0 J0.0079
X3.8519 Y0.125 Z-0.0022 I-0.0231 J0
X3.8981 Y0.125 Z-0.0044 I0.0231 J0
X3.8519 Y0.125 Z-0.0065 I-0.0231 J0
X3.8981 Y0.125 Z-0.0087 I0.0231 J0
X3.8519 Y0.125 Z-0.0109 I-0.0231 J0
X3.8981 Y0.125 Z-0.0131 I0.0231 J0
X3.8519 Y0.125 Z-0.0153 I-0.0231 J0
X3.8981 Y0.125 Z-0.0175 I0.0231 J0
X3.8519 Y0.125 Z-0.0196 I-0.0231 J0
X3.8981 Y0.125 Z-0.0218 I0.0231 J0
X3.8519 Y0.125 Z-0.024 I-0.0231 J0
X3.8981 Y0.125 Z-0.0262 I0.0231 J0
X3.8519 Y0.125 Z-0.0284 I-0.0231 J0
X3.8981 Y0.125 Z-0.0306 I0.0231 J0
X3.8519 Y0.125 Z-0.0327 I-0.0231 J0
X3.8981 Y0.125 Z-0.0349 I0.0231 J0
X3.8519 Y0.125 Z-0.0371 I-0.0231 J0
X3.8981 Y0.125 Z-0.0393 I0.0231 J0
X3.8519 Y0.125 Z-0.0415 I-0.0231 J0
X3.8981 Y0.125 Z-0.0437 I0.0231 J0
X3.8519 Y0.125 Z-0.0458 I-0.0231 J0
X3.8981 Y0.125 Z-0.048 I0.0231 J0
X3.8519 Y0.125 Z-0.0502 I-0.0231 J0
X3.8981 Y0.125 Z-0.0524 I0.0231 J0
X3.8519 Y0.125 Z-0.0546 I-0.0231 J0
X3.8981 Y0.125 Z-0.0567 I0.0231 J0
X3.8519 Y0.125 Z-0.0589 I-0.0231 J0
X3.8981 Y0.125 Z-0.0611 I0.0231 J0
X3.8519 Y0.125 Z-0.0633 I-0.0231 J0
X3.8981 Y0.125 Z-0.0655 I0.0231 J0
X3.8635 Y0.1451 Z-0.0669 I-0.0231 J0
X3.8865 Y0.1049 I0.0115 J-0.0201
X3.8635 Y0.1451 I-0.0115 J0.0201
X3.8606 Y0.1343 I0.0039 J-0.0068
G1 X3.8625 Y0.1309
X3.8636 Y0.1291 Z-0.0667
X3.8645 Y0.1275 Z-0.0659
X3.8653 Y0.1261 Z-0.0646
X3.8659 Y0.125 Z-0.063
X3.8663 Y0.1243 Z-0.0611
X3.8665 Y0.1241 Z-0.0591
Z0.6
M9
M5
M30
