( pcb2gcode 2.5.0 )
( Software-independent Gcode )

G94 ( Millimeters per minute feed rate. )
G21 ( Units == Millimeters. )

G90 ( Absolute coordinates. )
G00 S5600 ( RPM spindle speed. )
(Suppressed: G64 P0.01016 ( set maximum deviation from commanded toolpath ))
G01 F150.00000 ( Feedrate. )


G00 Z5.00000 (Retract to tool change height)
T0
M5      (Spindle stop.)
(Suppressed: G04 P1.00000 (Wait for spindle to stop))
(MSG, Change tool bit to mill diameter 0.10000mm)
M0      (Temporary machine stop.)
M3 ( Spindle on clockwise. )
(Suppressed: G04 P1.00000 (Wait for spindle to get up to speed))
(Suppressed: G04 P0 ( dwell for no time -- G64 should not smooth over this point ))
G00 Z5.00000 ( retract )

G00 X25.87499 Y-59.17500 ( rapid move to begin. )
G01 F100.00000
( Mill infeed pass 1/1 )
G01 Z-0.20000
(Suppressed: G04 P0 ( dwell for no time -- G64 should not smooth over this point ))
G01 F150.00000
G01 X25.87499 Y-59.17500
G01 X25.90885 Y-58.85275
G01 X26.00900 Y-58.54457
G01 X26.17100 Y-58.26395
G01 X26.38784 Y-58.02314
G01 X26.65000 Y-57.83266
G01 X26.95106 Y-57.69951
G01 X27.26821 Y-57.63322
G01 X27.58700 Y-57.63350
G01 X27.79185 Y-57.67676
G01 X37.30928 Y-48.15932
G01 X37.43052 Y-48.05983
G01 X37.56440 Y-47.98803
G01 X37.71416 Y-47.94160
G01 X37.87499 Y-47.92501
G01 X51.27499 Y-47.92501
G01 X51.27596 Y-44.96525
G01 X51.28962 Y-44.93965
G01 X51.30585 Y-44.92883
G01 X51.32498 Y-44.92502
G01 X52.02498 Y-44.92502
G01 X52.02523 Y-43.47013
G01 X52.03963 Y-43.32380
G01 X52.08423 Y-43.17348
G01 X52.15728 Y-43.03477
G01 X52.25929 Y-42.90932
G01 X56.14496 Y-39.02366
G01 X56.14496 Y-33.77500
G01 X56.15961 Y-33.62379
G01 X56.20422 Y-33.47348
G01 X56.28273 Y-33.32661
G01 X56.37927 Y-33.20932
G01 X56.50472 Y-33.10731
G01 X56.64343 Y-33.03426
G01 X56.78890 Y-32.99039
G01 X56.94498 Y-32.97500
G01 X58.77246 Y-32.97500
G01 X58.83220 Y-32.92270
G01 X59.02280 Y-32.81391
G01 X59.22669 Y-32.74795
G01 X59.44498 Y-32.72501
G01 X61.44500 Y-32.72501
G01 X61.66329 Y-32.74795
G01 X61.87205 Y-32.81579
G01 X62.06217 Y-32.92555
G01 X62.22529 Y-33.07244
G01 X62.35147 Y-33.24561
G01 X62.44360 Y-33.45054
G01 X62.48924 Y-33.66525
G01 X62.48924 Y-33.88478
G01 X62.44172 Y-34.10436
G01 X62.35147 Y-34.30441
G01 X62.22529 Y-34.47759
G01 X62.06623 Y-34.62118
G01 X61.87205 Y-34.73423
G01 X61.66834 Y-34.80070
G01 X61.44500 Y-34.82501
G01 X59.43977 Y-34.82473
G01 X59.22669 Y-34.80207
G01 X59.02280 Y-34.73611
G01 X58.83220 Y-34.62732
G01 X58.77246 Y-34.57502
G01 X57.74498 Y-34.57502
G01 X57.74498 Y-39.35502
G01 X57.72839 Y-39.51586
G01 X57.68196 Y-39.66562
G01 X57.61016 Y-39.79950
G01 X57.51066 Y-39.92073
G01 X53.62500 Y-43.80640
G01 X53.62500 Y-44.92502
G01 X54.32497 Y-44.92502
G01 X54.34410 Y-44.92883
G01 X54.36035 Y-44.93965
G01 X54.37117 Y-44.95588
G01 X54.37498 Y-44.97500
G01 X54.37402 Y-47.98478
G01 X54.36035 Y-48.01038
G01 X54.34410 Y-48.02120
G01 X54.32497 Y-48.02501
G01 X53.62500 Y-48.02501
G01 X53.62500 Y-49.14365
G01 X58.47068 Y-53.98934
G01 X58.57269 Y-54.11479
G01 X58.64574 Y-54.25350
G01 X58.68961 Y-54.39896
G01 X58.70500 Y-54.55502
G01 X58.70500 Y-57.45387
G01 X58.83535 Y-57.59906
G01 X58.95557 Y-57.80726
G01 X59.02986 Y-58.03591
G01 X59.05498 Y-58.27500
G01 X59.05498 Y-59.07503
G01 X59.02986 Y-59.31412
G01 X58.95318 Y-59.54741
G01 X58.83535 Y-59.75097
G01 X58.70500 Y-59.89616
G01 X58.70500 Y-60.99387
G01 X58.83535 Y-61.13905
G01 X58.95318 Y-61.34261
G01 X59.02986 Y-61.57591
G01 X59.05498 Y-61.81503
G01 X59.05498 Y-62.61502
G01 X59.02986 Y-62.85411
G01 X58.95318 Y-63.08741
G01 X58.83207 Y-63.29503
G01 X58.67449 Y-63.46963
G01 X58.48437 Y-63.60809
G01 X58.26035 Y-63.70872
G01 X58.02519 Y-63.75871
G01 X57.78478 Y-63.75871
G01 X57.54473 Y-63.70684
G01 X57.32999 Y-63.61093
G01 X57.13955 Y-63.47293
G01 X56.97790 Y-63.29503
G01 X56.85441 Y-63.08276
G01 X56.78011 Y-62.85411
G01 X56.75499 Y-62.61502
G01 X56.75499 Y-61.81503
G01 X56.78011 Y-61.57591
G01 X56.85679 Y-61.34261
G01 X56.97462 Y-61.13905
G01 X57.10498 Y-60.99387
G01 X57.10498 Y-59.89616
G01 X56.97462 Y-59.75097
G01 X56.85441 Y-59.54277
G01 X56.78011 Y-59.31412
G01 X56.75499 Y-59.07503
G01 X56.75499 Y-58.27500
G01 X56.78011 Y-58.03591
G01 X56.85679 Y-57.80261
G01 X56.97462 Y-57.59906
G01 X57.10498 Y-57.45387
G01 X57.10498 Y-54.88641
G01 X52.25929 Y-50.04073
G01 X52.15728 Y-49.91528
G01 X52.08589 Y-49.78119
G01 X52.04037 Y-49.63110
G01 X52.02968 Y-49.52503
G01 X38.20636 Y-49.52503
G01 X28.92601 Y-58.80535
G01 X28.94194 Y-58.85791
G01 X28.97498 Y-59.17500
G01 X28.93975 Y-59.50233
G01 X28.84097 Y-59.80545
G01 X28.68182 Y-60.08168
G01 X28.45807 Y-60.33019
G01 X28.19998 Y-60.51736
G01 X27.90884 Y-60.64729
G01 X27.58700 Y-60.71653
G01 X27.25779 Y-60.71571
G01 X26.94601 Y-60.64914
G01 X26.65464 Y-60.51973
G01 X26.38784 Y-60.32689
G01 X26.16816 Y-60.08168
G01 X26.00900 Y-59.80545
G01 X25.91022 Y-59.50233
G01 X25.87499 Y-59.17500
(Suppressed: G04 P0 ( dwell for no time -- G64 should not smooth over this point ))
G00 Z5.00000 ( retract )

G00 X33.49499 Y-59.17500 ( rapid move to begin. )
G01 F100.00000
( Mill infeed pass 1/1 )
G01 Z-0.20000
(Suppressed: G04 P0 ( dwell for no time -- G64 should not smooth over this point ))
G01 F150.00000
G01 X33.49499 Y-59.17500
G01 X33.52885 Y-58.85275
G01 X33.62900 Y-58.54457
G01 X33.79100 Y-58.26395
G01 X34.00413 Y-58.02684
G01 X34.27000 Y-57.83266
G01 X34.56113 Y-57.70274
G01 X34.88821 Y-57.63322
G01 X35.20700 Y-57.63350
G01 X35.52397 Y-57.70089
G01 X35.81998 Y-57.83266
G01 X36.08213 Y-58.02314
G01 X36.29897 Y-58.26395
G01 X36.46097 Y-58.54457
G01 X36.56113 Y-58.85275
G01 X36.59498 Y-59.17500
G01 X36.56113 Y-59.49728
G01 X36.46097 Y-59.80545
G01 X36.29897 Y-60.08607
G01 X36.08584 Y-60.32318
G01 X35.81998 Y-60.51736
G01 X35.52884 Y-60.64729
G01 X35.20177 Y-60.71681
G01 X34.88297 Y-60.71653
G01 X34.56601 Y-60.64914
G01 X34.27000 Y-60.51736
G01 X34.00784 Y-60.32689
G01 X33.79100 Y-60.08607
G01 X33.62900 Y-59.80545
G01 X33.52885 Y-59.49728
G01 X33.49499 Y-59.17500
(Suppressed: G04 P0 ( dwell for no time -- G64 should not smooth over this point ))
G00 Z5.00000 ( retract )

G00 X33.49499 Y-46.47503 ( rapid move to begin. )
G01 F100.00000
( Mill infeed pass 1/1 )
G01 Z-0.20000
(Suppressed: G04 P0 ( dwell for no time -- G64 should not smooth over this point ))
G01 F150.00000
G01 X33.49499 Y-46.47503
G01 X33.52885 Y-46.15278
G01 X33.62900 Y-45.84457
G01 X33.79100 Y-45.56395
G01 X34.00413 Y-45.32684
G01 X34.27000 Y-45.13266
G01 X34.56113 Y-45.00274
G01 X34.88821 Y-44.93322
G01 X35.20700 Y-44.93350
G01 X35.52397 Y-45.00089
G01 X35.81998 Y-45.13266
G01 X36.08213 Y-45.32314
G01 X36.29897 Y-45.56395
G01 X36.46097 Y-45.84457
G01 X36.56113 Y-46.15278
G01 X36.59498 Y-46.47500
G01 X36.56113 Y-46.79728
G01 X36.46097 Y-47.10545
G01 X36.29897 Y-47.38607
G01 X36.08584 Y-47.62318
G01 X35.81998 Y-47.81736
G01 X35.52884 Y-47.94729
G01 X35.20177 Y-48.01681
G01 X34.88297 Y-48.01653
G01 X34.56601 Y-47.94914
G01 X34.27000 Y-47.81736
G01 X34.00784 Y-47.62689
G01 X33.79100 Y-47.38607
G01 X33.62900 Y-47.10545
G01 X33.52885 Y-46.79728
G01 X33.49499 Y-46.47503
(Suppressed: G04 P0 ( dwell for no time -- G64 should not smooth over this point ))
G00 Z5.00000 ( retract )

G00 X25.87499 Y-46.47500 ( rapid move to begin. )
G01 F100.00000
( Mill infeed pass 1/1 )
G01 Z-0.20000
(Suppressed: G04 P0 ( dwell for no time -- G64 should not smooth over this point ))
G01 F150.00000
G01 X25.87499 Y-46.47500
G01 X25.90885 Y-46.15278
G01 X26.00900 Y-45.84457
G01 X26.17100 Y-45.56395
G01 X26.38784 Y-45.32314
G01 X26.65000 Y-45.13266
G01 X26.95106 Y-44.99951
G01 X27.26821 Y-44.93322
G01 X27.58700 Y-44.93350
G01 X27.79185 Y-44.97676
G01 X44.32116 Y-28.44745
G01 X44.32116 Y-21.54863
G01 X44.08402 Y-21.37599
G01 X43.87048 Y-21.13924
G01 X43.70518 Y-20.85458
G01 X43.60422 Y-20.54124
G01 X43.57117 Y-20.22410
G01 X43.60503 Y-19.90185
G01 X43.70754 Y-19.58900
G01 X43.86718 Y-19.31308
G01 X44.08031 Y-19.07594
G01 X44.34618 Y-18.88176
G01 X44.64219 Y-18.74999
G01 X44.95915 Y-18.68260
G01 X45.28836 Y-18.68341
G01 X45.60502 Y-18.75184
G01 X45.89616 Y-18.88176
G01 X46.15425 Y-19.06893
G01 X46.37515 Y-19.31308
G01 X46.53715 Y-19.59367
G01 X46.63731 Y-19.90185
G01 X46.67116 Y-20.22410
G01 X46.63731 Y-20.54640
G01 X46.53479 Y-20.85923
G01 X46.37185 Y-21.13924
G01 X46.15831 Y-21.37599
G01 X45.92118 Y-21.54863
G01 X45.92118 Y-28.77882
G01 X45.90652 Y-28.93005
G01 X45.86192 Y-29.08037
G01 X45.78341 Y-29.22723
G01 X45.68686 Y-29.34453
G01 X28.92601 Y-46.10535
G01 X28.94194 Y-46.15793
G01 X28.97498 Y-46.47500
G01 X28.93975 Y-46.80233
G01 X28.84097 Y-47.10545
G01 X28.68182 Y-47.38168
G01 X28.46213 Y-47.62689
G01 X28.19531 Y-47.81973
G01 X27.90394 Y-47.94914
G01 X27.59218 Y-48.01571
G01 X27.26297 Y-48.01653
G01 X26.94113 Y-47.94729
G01 X26.65000 Y-47.81736
G01 X26.39191 Y-47.63019
G01 X26.17100 Y-47.38607
G01 X26.00712 Y-47.10058
G01 X25.90885 Y-46.79728
G01 X25.87499 Y-46.47500
(Suppressed: G04 P0 ( dwell for no time -- G64 should not smooth over this point ))
G00 Z5.00000 ( retract )

G00 X25.87499 Y-32.27500 ( rapid move to begin. )
G01 F100.00000
( Mill infeed pass 1/1 )
G01 Z-0.20000
(Suppressed: G04 P0 ( dwell for no time -- G64 should not smooth over this point ))
G01 F150.00000
G01 X25.87499 Y-32.27500
G01 X25.87499 Y-35.27502
G01 X25.87880 Y-35.29415
G01 X25.88962 Y-35.31038
G01 X25.90585 Y-35.32120
G01 X25.92498 Y-35.32501
G01 X28.92500 Y-35.32501
G01 X28.94412 Y-35.32120
G01 X28.96035 Y-35.31038
G01 X28.97117 Y-35.29415
G01 X28.97498 Y-35.27502
G01 X28.97498 Y-32.27500
G01 X28.97117 Y-32.25588
G01 X28.96035 Y-32.23965
G01 X28.94412 Y-32.22883
G01 X28.92500 Y-32.22502
G01 X25.92498 Y-32.22502
G01 X25.90585 Y-32.22883
G01 X25.88962 Y-32.23965
G01 X25.87880 Y-32.25588
G01 X25.87499 Y-32.27500
(Suppressed: G04 P0 ( dwell for no time -- G64 should not smooth over this point ))
G00 Z5.00000 ( retract )

G00 X31.07691 Y-17.72220 ( rapid move to begin. )
G01 F100.00000
( Mill infeed pass 1/1 )
G01 Z-0.20000
(Suppressed: G04 P0 ( dwell for no time -- G64 should not smooth over this point ))
G01 F150.00000
G01 X31.07691 Y-17.72220
G01 X31.11077 Y-18.04448
G01 X31.21092 Y-18.35265
G01 X31.37292 Y-18.63327
G01 X31.58605 Y-18.87038
G01 X31.85656 Y-19.06695
G01 X32.14793 Y-19.19634
G01 X32.47013 Y-19.26403
G01 X32.78892 Y-19.26373
G01 X33.10589 Y-19.19634
G01 X33.40190 Y-19.06456
G01 X33.66405 Y-18.87409
G01 X33.88089 Y-18.63327
G01 X34.04289 Y-18.35265
G01 X34.14305 Y-18.04448
G01 X34.17690 Y-17.72220
G01 X34.14305 Y-17.39995
G01 X34.04289 Y-17.09177
G01 X33.88089 Y-16.81115
G01 X33.66776 Y-16.57404
G01 X33.40190 Y-16.37986
G01 X33.11076 Y-16.24994
G01 X32.78369 Y-16.18042
G01 X32.46489 Y-16.18070
G01 X32.14793 Y-16.24809
G01 X31.85192 Y-16.37986
G01 X31.58976 Y-16.57034
G01 X31.37292 Y-16.81115
G01 X31.21092 Y-17.09177
G01 X31.11077 Y-17.39995
G01 X31.07691 Y-17.72220
(Suppressed: G04 P0 ( dwell for no time -- G64 should not smooth over this point ))
G00 Z5.00000 ( retract )

G00 X29.07496 Y-16.58240 ( rapid move to begin. )
G01 F100.00000
( Mill infeed pass 1/1 )
G01 Z-0.20000
(Suppressed: G04 P0 ( dwell for no time -- G64 should not smooth over this point ))
G01 F150.00000
G01 X29.07496 Y-16.58240
G01 X29.08558 Y-16.45342
G01 X29.11547 Y-16.33152
G01 X29.16409 Y-16.21580
G01 X29.22558 Y-16.11545
G01 X29.30930 Y-16.01672
G01 X30.92151 Y-14.40453
G01 X31.03878 Y-14.30796
G01 X31.17661 Y-14.23321
G01 X31.33596 Y-14.18487
G01 X31.48720 Y-14.17021
G01 X48.80200 Y-14.17021
G01 X48.96280 Y-14.18680
G01 X49.10352 Y-14.22947
G01 X49.24223 Y-14.30252
G01 X49.36768 Y-14.40453
G01 X50.95355 Y-15.99078
G01 X51.05228 Y-16.11258
G01 X51.12533 Y-16.25129
G01 X51.16920 Y-16.39675
G01 X51.18434 Y-16.54793
G01 X51.18459 Y-21.47492
G01 X51.17397 Y-21.60393
G01 X51.14649 Y-21.71838
G01 X51.09902 Y-21.83456
G01 X51.02935 Y-21.94825
G01 X50.95025 Y-22.04063
G01 X50.12498 Y-22.86590
G01 X50.12498 Y-30.43500
G01 X51.15246 Y-30.43500
G01 X51.21220 Y-30.38270
G01 X51.40280 Y-30.27391
G01 X51.60669 Y-30.20795
G01 X51.81977 Y-30.18529
G01 X53.82500 Y-30.18501
G01 X54.04834 Y-30.20932
G01 X54.25202 Y-30.27579
G01 X54.44623 Y-30.38885
G01 X54.60859 Y-30.53650
G01 X54.73432 Y-30.71001
G01 X54.82172 Y-30.90566
G01 X54.86924 Y-31.12525
G01 X54.86924 Y-31.34478
G01 X54.82360 Y-31.55948
G01 X54.73432 Y-31.76002
G01 X54.60529 Y-31.93759
G01 X54.44214 Y-32.08448
G01 X54.25202 Y-32.19423
G01 X54.04329 Y-32.26207
G01 X53.82500 Y-32.28501
G01 X51.82498 Y-32.28501
G01 X51.60669 Y-32.26207
G01 X51.40280 Y-32.19611
G01 X51.21220 Y-32.08732
G01 X51.15246 Y-32.03502
G01 X49.32498 Y-32.03502
G01 X49.16415 Y-32.01844
G01 X49.02343 Y-31.97577
G01 X48.88472 Y-31.90272
G01 X48.76293 Y-31.80399
G01 X48.66273 Y-31.68341
G01 X48.58587 Y-31.54117
G01 X48.53961 Y-31.38623
G01 X48.52496 Y-31.23500
G01 X48.52514 Y-22.53060
G01 X48.53557 Y-22.40553
G01 X48.56550 Y-22.28363
G01 X48.61409 Y-22.16791
G01 X48.68020 Y-22.06121
G01 X48.75930 Y-21.96883
G01 X49.58457 Y-21.14355
G01 X49.58457 Y-16.88420
G01 X48.47060 Y-15.77024
G01 X31.81854 Y-15.77024
G01 X30.67498 Y-16.91379
G01 X30.67498 Y-18.53066
G01 X31.81844 Y-19.67414
G01 X33.68638 Y-19.67414
G01 X33.71518 Y-19.58900
G01 X33.87812 Y-19.30899
G01 X34.09166 Y-19.07224
G01 X34.35382 Y-18.88176
G01 X34.65488 Y-18.74861
G01 X34.96679 Y-18.68260
G01 X35.28559 Y-18.68235
G01 X35.61266 Y-18.75184
G01 X35.90380 Y-18.88176
G01 X36.16595 Y-19.07224
G01 X36.38279 Y-19.31308
G01 X36.54243 Y-19.58900
G01 X36.64576 Y-19.90703
G01 X36.67880 Y-20.22410
G01 X36.64576 Y-20.54124
G01 X36.54479 Y-20.85458
G01 X36.38279 Y-21.13517
G01 X36.16966 Y-21.37228
G01 X35.90819 Y-21.56359
G01 X35.84500 Y-21.59293
G01 X35.84500 Y-32.45049
G01 X36.08213 Y-32.62314
G01 X36.29567 Y-32.85989
G01 X36.46097 Y-33.14457
G01 X36.56194 Y-33.45791
G01 X36.59498 Y-33.77500
G01 X36.56194 Y-34.09212
G01 X36.46097 Y-34.40545
G01 X36.29897 Y-34.68607
G01 X36.08213 Y-34.92689
G01 X35.81533 Y-35.11973
G01 X35.52397 Y-35.24914
G01 X35.21218 Y-35.31571
G01 X34.88821 Y-35.31681
G01 X34.56601 Y-35.24914
G01 X34.27000 Y-35.11736
G01 X34.00413 Y-34.92318
G01 X33.79100 Y-34.68607
G01 X33.63136 Y-34.41013
G01 X33.52885 Y-34.09728
G01 X33.49499 Y-33.77500
G01 X33.52885 Y-33.45275
G01 X33.63136 Y-33.13990
G01 X33.79430 Y-32.85989
G01 X34.00784 Y-32.62314
G01 X34.24498 Y-32.45049
G01 X34.24498 Y-21.48772
G01 X34.09166 Y-21.37599
G01 X33.99956 Y-21.27414
G01 X31.48219 Y-21.27388
G01 X31.32626 Y-21.25755
G01 X31.17650 Y-21.21114
G01 X31.03868 Y-21.13639
G01 X30.92141 Y-21.03982
G01 X29.30930 Y-19.42776
G01 X29.22558 Y-19.32900
G01 X29.16409 Y-19.22867
G01 X29.11547 Y-19.11295
G01 X29.08558 Y-18.99103
G01 X29.07496 Y-18.86203
G01 X29.07496 Y-16.58240
(Suppressed: G04 P0 ( dwell for no time -- G64 should not smooth over this point ))
G00 Z5.00000 ( retract )

G00 X33.57373 Y-7.72730 ( rapid move to begin. )
G01 F100.00000
( Mill infeed pass 1/1 )
G01 Z-0.20000
(Suppressed: G04 P0 ( dwell for no time -- G64 should not smooth over this point ))
G01 F150.00000
G01 X33.57373 Y-7.72730
G01 X33.60759 Y-8.04958
G01 X33.70774 Y-8.35775
G01 X33.86974 Y-8.63837
G01 X34.08287 Y-8.87548
G01 X34.34874 Y-9.06966
G01 X34.63987 Y-9.19959
G01 X34.96695 Y-9.26911
G01 X35.28574 Y-9.26883
G01 X35.60271 Y-9.20144
G01 X35.89872 Y-9.06966
G01 X36.16087 Y-8.87919
G01 X36.37771 Y-8.63837
G01 X36.53971 Y-8.35775
G01 X36.63987 Y-8.04958
G01 X36.67372 Y-7.72730
G01 X36.63987 Y-7.40505
G01 X36.53971 Y-7.09687
G01 X36.37771 Y-6.81625
G01 X36.16458 Y-6.57914
G01 X35.89872 Y-6.38496
G01 X35.60758 Y-6.25504
G01 X35.28051 Y-6.18552
G01 X34.96171 Y-6.18580
G01 X34.64475 Y-6.25319
G01 X34.34874 Y-6.38496
G01 X34.08658 Y-6.57544
G01 X33.86974 Y-6.81625
G01 X33.70774 Y-7.09687
G01 X33.60759 Y-7.40505
G01 X33.57373 Y-7.72730
(Suppressed: G04 P0 ( dwell for no time -- G64 should not smooth over this point ))
G00 Z5.00000 ( retract )

G00 X43.57625 Y-7.72730 ( rapid move to begin. )
G01 F100.00000
( Mill infeed pass 1/1 )
G01 Z-0.20000
(Suppressed: G04 P0 ( dwell for no time -- G64 should not smooth over this point ))
G01 F150.00000
G01 X43.57625 Y-7.72730
G01 X43.61011 Y-8.04958
G01 X43.71026 Y-8.35775
G01 X43.87226 Y-8.63837
G01 X44.08539 Y-8.87548
G01 X44.35126 Y-9.06966
G01 X44.64239 Y-9.19959
G01 X44.96947 Y-9.26911
G01 X45.28826 Y-9.26883
G01 X45.60523 Y-9.20144
G01 X45.90124 Y-9.06966
G01 X46.16339 Y-8.87919
G01 X46.38023 Y-8.63837
G01 X46.54223 Y-8.35775
G01 X46.64239 Y-8.04958
G01 X46.67624 Y-7.72730
G01 X46.64239 Y-7.40505
G01 X46.54223 Y-7.09687
G01 X46.38023 Y-6.81625
G01 X46.16710 Y-6.57914
G01 X45.90124 Y-6.38496
G01 X45.61010 Y-6.25504
G01 X45.28303 Y-6.18552
G01 X44.96423 Y-6.18580
G01 X44.64727 Y-6.25319
G01 X44.35126 Y-6.38496
G01 X44.08910 Y-6.57544
G01 X43.87226 Y-6.81625
G01 X43.71026 Y-7.09687
G01 X43.61011 Y-7.40505
G01 X43.57625 Y-7.72730
(Suppressed: G04 P0 ( dwell for no time -- G64 should not smooth over this point ))
G00 Z5.00000 ( retract )

G00 X58.97373 Y-7.72730 ( rapid move to begin. )
G01 F100.00000
( Mill infeed pass 1/1 )
G01 Z-0.20000
(Suppressed: G04 P0 ( dwell for no time -- G64 should not smooth over this point ))
G01 F150.00000
G01 X58.97373 Y-7.72730
G01 X59.00759 Y-8.04958
G01 X59.10774 Y-8.35775
G01 X59.26974 Y-8.63837
G01 X59.48287 Y-8.87548
G01 X59.74874 Y-9.06966
G01 X60.03987 Y-9.19959
G01 X60.36695 Y-9.26911
G01 X60.68574 Y-9.26883
G01 X61.00271 Y-9.20144
G01 X61.29872 Y-9.06966
G01 X61.56087 Y-8.87919
G01 X61.77771 Y-8.63837
G01 X61.93971 Y-8.35775
G01 X62.03987 Y-8.04958
G01 X62.07372 Y-7.72730
G01 X62.03987 Y-7.40505
G01 X61.93971 Y-7.09687
G01 X61.77771 Y-6.81625
G01 X61.56458 Y-6.57914
G01 X61.29872 Y-6.38496
G01 X61.00758 Y-6.25504
G01 X60.68051 Y-6.18552
G01 X60.36171 Y-6.18580
G01 X60.04475 Y-6.25319
G01 X59.74874 Y-6.38496
G01 X59.48658 Y-6.57544
G01 X59.26974 Y-6.81625
G01 X59.10774 Y-7.09687
G01 X59.00759 Y-7.40505
G01 X58.97373 Y-7.72730
(Suppressed: G04 P0 ( dwell for no time -- G64 should not smooth over this point ))
G00 Z5.00000 ( retract )

G00 X68.97625 Y-7.72730 ( rapid move to begin. )
G01 F100.00000
( Mill infeed pass 1/1 )
G01 Z-0.20000
(Suppressed: G04 P0 ( dwell for no time -- G64 should not smooth over this point ))
G01 F150.00000
G01 X68.97625 Y-7.72730
G01 X69.01011 Y-8.04958
G01 X69.11026 Y-8.35775
G01 X69.27226 Y-8.63837
G01 X69.48539 Y-8.87548
G01 X69.75126 Y-9.06966
G01 X70.04239 Y-9.19959
G01 X70.36947 Y-9.26911
G01 X70.68826 Y-9.26883
G01 X71.00523 Y-9.20144
G01 X71.30124 Y-9.06966
G01 X71.56339 Y-8.87919
G01 X71.78023 Y-8.63837
G01 X71.94223 Y-8.35775
G01 X72.04239 Y-8.04958
G01 X72.07624 Y-7.72730
G01 X72.04239 Y-7.40505
G01 X71.94223 Y-7.09687
G01 X71.78023 Y-6.81625
G01 X71.56710 Y-6.57914
G01 X71.30124 Y-6.38496
G01 X71.01010 Y-6.25504
G01 X70.68303 Y-6.18552
G01 X70.36423 Y-6.18580
G01 X70.04727 Y-6.25319
G01 X69.75126 Y-6.38496
G01 X69.48910 Y-6.57544
G01 X69.27226 Y-6.81625
G01 X69.11026 Y-7.09687
G01 X69.01011 Y-7.40505
G01 X68.97625 Y-7.72730
(Suppressed: G04 P0 ( dwell for no time -- G64 should not smooth over this point ))
G00 Z5.00000 ( retract )

G00 X71.47307 Y-17.72220 ( rapid move to begin. )
G01 F100.00000
( Mill infeed pass 1/1 )
G01 Z-0.20000
(Suppressed: G04 P0 ( dwell for no time -- G64 should not smooth over this point ))
G01 F150.00000
G01 X71.47307 Y-17.72220
G01 X71.50693 Y-18.04448
G01 X71.60708 Y-18.35265
G01 X71.76908 Y-18.63327
G01 X71.98221 Y-18.87038
G01 X72.25272 Y-19.06695
G01 X72.54409 Y-19.19634
G01 X72.86629 Y-19.26403
G01 X73.18508 Y-19.26373
G01 X73.50205 Y-19.19634
G01 X73.79806 Y-19.06456
G01 X74.06021 Y-18.87409
G01 X74.27705 Y-18.63327
G01 X74.43905 Y-18.35265
G01 X74.53921 Y-18.04448
G01 X74.57306 Y-17.72220
G01 X74.53921 Y-17.39995
G01 X74.43905 Y-17.09177
G01 X74.27705 Y-16.81115
G01 X74.06392 Y-16.57404
G01 X73.79806 Y-16.37986
G01 X73.50692 Y-16.24994
G01 X73.17985 Y-16.18042
G01 X72.86105 Y-16.18070
G01 X72.54409 Y-16.24809
G01 X72.24808 Y-16.37986
G01 X71.98592 Y-16.57034
G01 X71.76908 Y-16.81115
G01 X71.60708 Y-17.09177
G01 X71.50693 Y-17.39995
G01 X71.47307 Y-17.72220
(Suppressed: G04 P0 ( dwell for no time -- G64 should not smooth over this point ))
G00 Z5.00000 ( retract )

G00 X68.97117 Y-20.22410 ( rapid move to begin. )
G01 F100.00000
( Mill infeed pass 1/1 )
G01 Z-0.20000
(Suppressed: G04 P0 ( dwell for no time -- G64 should not smooth over this point ))
G01 F150.00000
G01 X68.97117 Y-20.22410
G01 X69.00503 Y-20.54640
G01 X69.10518 Y-20.85458
G01 X69.26718 Y-21.13517
G01 X69.48402 Y-21.37599
G01 X69.74618 Y-21.56646
G01 X70.04724 Y-21.69961
G01 X70.36439 Y-21.76591
G01 X70.68318 Y-21.76563
G01 X70.88803 Y-21.72237
G01 X86.31498 Y-37.14931
G01 X86.31498 Y-55.36500
G01 X86.33037 Y-55.52108
G01 X86.37423 Y-55.66655
G01 X86.44728 Y-55.80526
G01 X86.54929 Y-55.93071
G01 X89.42396 Y-58.80535
G01 X89.40804 Y-58.85791
G01 X89.37499 Y-59.17500
G01 X89.41022 Y-59.50233
G01 X89.50900 Y-59.80545
G01 X89.66816 Y-60.08168
G01 X89.88784 Y-60.32689
G01 X90.15000 Y-60.51736
G01 X90.44113 Y-60.64729
G01 X90.76297 Y-60.71653
G01 X91.09218 Y-60.71571
G01 X91.40397 Y-60.64914
G01 X91.69998 Y-60.51736
G01 X91.96213 Y-60.32689
G01 X92.17897 Y-60.08607
G01 X92.34097 Y-59.80545
G01 X92.44113 Y-59.49728
G01 X92.47498 Y-59.17500
G01 X92.44113 Y-58.85275
G01 X92.34097 Y-58.54457
G01 X92.17897 Y-58.26395
G01 X91.95807 Y-58.01983
G01 X91.69998 Y-57.83266
G01 X91.40397 Y-57.70089
G01 X91.08177 Y-57.63322
G01 X90.76297 Y-57.63350
G01 X90.55812 Y-57.67676
G01 X87.91500 Y-55.03363
G01 X87.91500 Y-36.81792
G01 X87.89841 Y-36.65711
G01 X87.85574 Y-36.51640
G01 X87.78269 Y-36.37769
G01 X87.68068 Y-36.25224
G01 X72.02219 Y-20.59377
G01 X72.03812 Y-20.54124
G01 X72.07116 Y-20.22410
G01 X72.03593 Y-19.89680
G01 X71.93715 Y-19.59367
G01 X71.77800 Y-19.31745
G01 X71.55831 Y-19.07224
G01 X71.29151 Y-18.87940
G01 X71.00015 Y-18.74999
G01 X70.68836 Y-18.68341
G01 X70.35915 Y-18.68260
G01 X70.03731 Y-18.75184
G01 X69.74618 Y-18.88176
G01 X69.48809 Y-19.06893
G01 X69.26718 Y-19.31308
G01 X69.10330 Y-19.59855
G01 X69.00503 Y-19.90185
G01 X68.97117 Y-20.22410
(Suppressed: G04 P0 ( dwell for no time -- G64 should not smooth over this point ))
G00 Z5.00000 ( retract )

G00 X63.97499 Y-17.72474 ( rapid move to begin. )
G01 F100.00000
( Mill infeed pass 1/1 )
G01 Z-0.20000
(Suppressed: G04 P0 ( dwell for no time -- G64 should not smooth over this point ))
G01 F150.00000
G01 X63.97499 Y-17.72474
G01 X64.00885 Y-18.04702
G01 X64.10900 Y-18.35519
G01 X64.27100 Y-18.63581
G01 X64.48413 Y-18.87292
G01 X64.75000 Y-19.06710
G01 X65.04113 Y-19.19705
G01 X65.36821 Y-19.26655
G01 X65.68700 Y-19.26627
G01 X66.00397 Y-19.19891
G01 X66.29998 Y-19.06710
G01 X66.56213 Y-18.87663
G01 X66.77897 Y-18.63581
G01 X66.94097 Y-18.35519
G01 X67.04113 Y-18.04702
G01 X67.07498 Y-17.72474
G01 X67.04113 Y-17.40249
G01 X66.94097 Y-17.09431
G01 X66.77897 Y-16.81369
G01 X66.56584 Y-16.57658
G01 X66.29998 Y-16.38240
G01 X66.00884 Y-16.25248
G01 X65.68177 Y-16.18296
G01 X65.36297 Y-16.18324
G01 X65.04601 Y-16.25063
G01 X64.75000 Y-16.38240
G01 X64.48784 Y-16.57288
G01 X64.27100 Y-16.81369
G01 X64.10900 Y-17.09431
G01 X64.00885 Y-17.40249
G01 X63.97499 Y-17.72474
(Suppressed: G04 P0 ( dwell for no time -- G64 should not smooth over this point ))
G00 Z5.00000 ( retract )

G00 X56.47691 Y-17.72220 ( rapid move to begin. )
G01 F100.00000
( Mill infeed pass 1/1 )
G01 Z-0.20000
(Suppressed: G04 P0 ( dwell for no time -- G64 should not smooth over this point ))
G01 F150.00000
G01 X56.47691 Y-17.72220
G01 X56.51077 Y-18.04448
G01 X56.61092 Y-18.35265
G01 X56.77292 Y-18.63327
G01 X56.98605 Y-18.87038
G01 X57.25656 Y-19.06695
G01 X57.54793 Y-19.19634
G01 X57.87013 Y-19.26403
G01 X58.18892 Y-19.26373
G01 X58.50589 Y-19.19634
G01 X58.80190 Y-19.06456
G01 X59.06405 Y-18.87409
G01 X59.28089 Y-18.63327
G01 X59.44289 Y-18.35265
G01 X59.54305 Y-18.04448
G01 X59.57690 Y-17.72220
G01 X59.54305 Y-17.39995
G01 X59.44289 Y-17.09177
G01 X59.28089 Y-16.81115
G01 X59.06776 Y-16.57404
G01 X58.80190 Y-16.37986
G01 X58.51076 Y-16.24994
G01 X58.18369 Y-16.18042
G01 X57.86489 Y-16.18070
G01 X57.54793 Y-16.24809
G01 X57.25192 Y-16.37986
G01 X56.98976 Y-16.57034
G01 X56.77292 Y-16.81115
G01 X56.61092 Y-17.09177
G01 X56.51077 Y-17.39995
G01 X56.47691 Y-17.72220
(Suppressed: G04 P0 ( dwell for no time -- G64 should not smooth over this point ))
G00 Z5.00000 ( retract )

G00 X58.97881 Y-20.22410 ( rapid move to begin. )
G01 F100.00000
( Mill infeed pass 1/1 )
G01 Z-0.20000
(Suppressed: G04 P0 ( dwell for no time -- G64 should not smooth over this point ))
G01 F150.00000
G01 X58.97881 Y-20.22410
G01 X59.01267 Y-20.54640
G01 X59.11282 Y-20.85458
G01 X59.27482 Y-21.13517
G01 X59.48795 Y-21.37228
G01 X59.75382 Y-21.56646
G01 X60.04495 Y-21.69639
G01 X60.37203 Y-21.76591
G01 X60.69082 Y-21.76563
G01 X61.00779 Y-21.69824
G01 X61.30380 Y-21.56646
G01 X61.56595 Y-21.37599
G01 X61.78279 Y-21.13517
G01 X61.94479 Y-20.85458
G01 X62.04495 Y-20.54640
G01 X62.07880 Y-20.22410
G01 X62.04495 Y-19.90185
G01 X61.94667 Y-19.59855
G01 X61.77949 Y-19.30899
G01 X61.56595 Y-19.07224
G01 X61.30380 Y-18.88176
G01 X61.00779 Y-18.74999
G01 X60.69600 Y-18.68341
G01 X60.36161 Y-18.68341
G01 X60.04983 Y-18.74999
G01 X59.75382 Y-18.88176
G01 X59.48795 Y-19.07594
G01 X59.27482 Y-19.31308
G01 X59.11282 Y-19.59367
G01 X59.01267 Y-19.90185
G01 X58.97909 Y-20.21892
G01 X58.40048 Y-28.59048
G01 X58.40073 Y-28.80478
G01 X58.44826 Y-29.02436
G01 X58.53850 Y-29.22441
G01 X58.66469 Y-29.39759
G01 X58.82374 Y-29.54118
G01 X59.01793 Y-29.65423
G01 X59.22669 Y-29.72207
G01 X59.44498 Y-29.74501
G01 X61.45020 Y-29.74473
G01 X61.66329 Y-29.72207
G01 X61.87205 Y-29.65423
G01 X62.06217 Y-29.54448
G01 X62.22158 Y-29.40130
G01 X62.35668 Y-29.21534
G01 X62.44360 Y-29.01948
G01 X62.48924 Y-28.80478
G01 X62.48924 Y-28.58525
G01 X62.44495 Y-28.37560
G01 X62.35147 Y-28.16561
G01 X62.22529 Y-27.99244
G01 X62.06217 Y-27.84555
G01 X61.87205 Y-27.73579
G01 X61.66834 Y-27.66932
G01 X61.44500 Y-27.64501
G01 X59.44498 Y-27.64501
G01 X59.22669 Y-27.66795
G01 X59.01325 Y-27.73816
G01 X58.82374 Y-27.84885
G01 X58.66469 Y-27.99244
G01 X58.53850 Y-28.16561
G01 X58.44638 Y-28.37054
G01 X58.40157 Y-28.58009
G01 X58.40048 Y-31.13048
G01 X58.44826 Y-30.90566
G01 X58.53566 Y-30.71001
G01 X58.66469 Y-30.53244
G01 X58.83220 Y-30.38270
G01 X59.01793 Y-30.27579
G01 X59.22163 Y-30.20932
G01 X59.44498 Y-30.18501
G01 X61.44500 Y-30.18501
G01 X61.66329 Y-30.20795
G01 X61.87205 Y-30.27579
G01 X62.06217 Y-30.38555
G01 X62.22529 Y-30.53244
G01 X62.35432 Y-30.71001
G01 X62.44360 Y-30.91054
G01 X62.48924 Y-31.12525
G01 X62.48924 Y-31.34478
G01 X62.44172 Y-31.56436
G01 X62.35432 Y-31.76002
G01 X62.22529 Y-31.93759
G01 X62.05777 Y-32.08732
G01 X61.87205 Y-32.19423
G01 X61.66834 Y-32.26070
G01 X61.44500 Y-32.28501
G01 X59.44498 Y-32.28501
G01 X59.22669 Y-32.26207
G01 X59.01793 Y-32.19423
G01 X58.82781 Y-32.08448
G01 X58.66469 Y-31.93759
G01 X58.53566 Y-31.76002
G01 X58.44638 Y-31.55948
G01 X58.40073 Y-31.34478
G01 X58.40048 Y-31.13048
(Suppressed: G04 P0 ( dwell for no time -- G64 should not smooth over this point ))
G00 Z5.00000 ( retract )

G00 X46.07307 Y-17.72220 ( rapid move to begin. )
G01 F100.00000
( Mill infeed pass 1/1 )
G01 Z-0.20000
(Suppressed: G04 P0 ( dwell for no time -- G64 should not smooth over this point ))
G01 F150.00000
G01 X46.07307 Y-17.72220
G01 X46.10693 Y-18.04448
G01 X46.20708 Y-18.35265
G01 X46.36908 Y-18.63327
G01 X46.58221 Y-18.87038
G01 X46.85272 Y-19.06695
G01 X47.14409 Y-19.19634
G01 X47.46629 Y-19.26403
G01 X47.78508 Y-19.26373
G01 X48.10205 Y-19.19634
G01 X48.39806 Y-19.06456
G01 X48.66021 Y-18.87409
G01 X48.87705 Y-18.63327
G01 X49.03905 Y-18.35265
G01 X49.13921 Y-18.04448
G01 X49.17306 Y-17.72220
G01 X49.13921 Y-17.39995
G01 X49.03905 Y-17.09177
G01 X48.87705 Y-16.81115
G01 X48.66392 Y-16.57404
G01 X48.39806 Y-16.37986
G01 X48.10692 Y-16.24994
G01 X47.77985 Y-16.18042
G01 X47.46105 Y-16.18070
G01 X47.14409 Y-16.24809
G01 X46.84808 Y-16.37986
G01 X46.58592 Y-16.57034
G01 X46.36908 Y-16.81115
G01 X46.20708 Y-17.09177
G01 X46.10693 Y-17.39995
G01 X46.07307 Y-17.72220
(Suppressed: G04 P0 ( dwell for no time -- G64 should not smooth over this point ))
G00 Z5.00000 ( retract )

G00 X38.57499 Y-17.72474 ( rapid move to begin. )
G01 F100.00000
( Mill infeed pass 1/1 )
G01 Z-0.20000
(Suppressed: G04 P0 ( dwell for no time -- G64 should not smooth over this point ))
G01 F150.00000
G01 X38.57499 Y-17.72474
G01 X38.60885 Y-18.04702
G01 X38.70900 Y-18.35519
G01 X38.87100 Y-18.63581
G01 X39.08413 Y-18.87292
G01 X39.35000 Y-19.06710
G01 X39.64113 Y-19.19705
G01 X39.96821 Y-19.26655
G01 X40.28700 Y-19.26627
G01 X40.60397 Y-19.19891
G01 X40.89998 Y-19.06710
G01 X41.16213 Y-18.87663
G01 X41.37897 Y-18.63581
G01 X41.54097 Y-18.35519
G01 X41.64113 Y-18.04702
G01 X41.67498 Y-17.72474
G01 X41.64113 Y-17.40249
G01 X41.54097 Y-17.09431
G01 X41.37897 Y-16.81369
G01 X41.16584 Y-16.57658
G01 X40.89998 Y-16.38240
G01 X40.60884 Y-16.25248
G01 X40.28177 Y-16.18296
G01 X39.96297 Y-16.18324
G01 X39.64601 Y-16.25063
G01 X39.35000 Y-16.38240
G01 X39.08784 Y-16.57288
G01 X38.87100 Y-16.81369
G01 X38.70900 Y-17.09431
G01 X38.60885 Y-17.40249
G01 X38.57499 Y-17.72474
(Suppressed: G04 P0 ( dwell for no time -- G64 should not smooth over this point ))
G00 Z5.00000 ( retract )

G00 X50.78048 Y-28.59048 ( rapid move to begin. )
G01 F100.00000
( Mill infeed pass 1/1 )
G01 Z-0.20000
(Suppressed: G04 P0 ( dwell for no time -- G64 should not smooth over this point ))
G01 F150.00000
G01 X50.78048 Y-28.59048
G01 X50.82826 Y-28.36566
G01 X50.91566 Y-28.17001
G01 X51.04469 Y-27.99244
G01 X51.21220 Y-27.84270
G01 X51.39793 Y-27.73579
G01 X51.60163 Y-27.66932
G01 X51.82498 Y-27.64501
G01 X53.82500 Y-27.64501
G01 X54.04329 Y-27.66795
G01 X54.25202 Y-27.73579
G01 X54.44214 Y-27.84555
G01 X54.60529 Y-27.99244
G01 X54.73432 Y-28.17001
G01 X54.82360 Y-28.37054
G01 X54.86924 Y-28.58525
G01 X54.86924 Y-28.80478
G01 X54.82172 Y-29.02436
G01 X54.73432 Y-29.22002
G01 X54.60529 Y-29.39759
G01 X54.43777 Y-29.54732
G01 X54.25202 Y-29.65423
G01 X54.04834 Y-29.72070
G01 X53.82500 Y-29.74501
G01 X51.82498 Y-29.74501
G01 X51.60669 Y-29.72207
G01 X51.39793 Y-29.65423
G01 X51.20781 Y-29.54448
G01 X51.04469 Y-29.39759
G01 X50.91566 Y-29.22002
G01 X50.82638 Y-29.01948
G01 X50.78073 Y-28.80478
G01 X50.78048 Y-28.59048
(Suppressed: G04 P0 ( dwell for no time -- G64 should not smooth over this point ))
G00 Z5.00000 ( retract )

G00 X50.77499 Y-32.77500 ( rapid move to begin. )
G01 F100.00000
( Mill infeed pass 1/1 )
G01 Z-0.20000
(Suppressed: G04 P0 ( dwell for no time -- G64 should not smooth over this point ))
G01 F150.00000
G01 X50.77499 Y-32.77500
G01 X50.77880 Y-32.75588
G01 X50.78962 Y-32.73965
G01 X50.80585 Y-32.72882
G01 X50.82498 Y-32.72501
G01 X54.82497 Y-32.72501
G01 X54.85273 Y-32.73345
G01 X54.87117 Y-32.75588
G01 X54.87498 Y-32.77500
G01 X54.87498 Y-35.77502
G01 X54.86653 Y-35.80278
G01 X54.84410 Y-35.82120
G01 X54.82497 Y-35.82501
G01 X50.82498 Y-35.82501
G01 X50.79722 Y-35.81658
G01 X50.77880 Y-35.79415
G01 X50.77499 Y-35.77502
G01 X50.77499 Y-32.77500
(Suppressed: G04 P0 ( dwell for no time -- G64 should not smooth over this point ))
G00 Z5.00000 ( retract )

G00 X66.27499 Y-46.47500 ( rapid move to begin. )
G01 F100.00000
( Mill infeed pass 1/1 )
G01 Z-0.20000
(Suppressed: G04 P0 ( dwell for no time -- G64 should not smooth over this point ))
G01 F150.00000
G01 X66.27499 Y-46.47500
G01 X66.30887 Y-46.15278
G01 X66.40900 Y-45.84457
G01 X66.57102 Y-45.56395
G01 X66.78413 Y-45.32684
G01 X67.04999 Y-45.13266
G01 X67.34113 Y-45.00274
G01 X67.66820 Y-44.93322
G01 X67.98700 Y-44.93350
G01 X68.30396 Y-45.00089
G01 X68.59997 Y-45.13266
G01 X68.86213 Y-45.32314
G01 X69.07897 Y-45.56395
G01 X69.24099 Y-45.84457
G01 X69.34112 Y-46.15278
G01 X69.37498 Y-46.47500
G01 X69.34112 Y-46.79728
G01 X69.24099 Y-47.10545
G01 X69.07897 Y-47.38607
G01 X68.86584 Y-47.62318
G01 X68.59997 Y-47.81736
G01 X68.30884 Y-47.94729
G01 X67.98179 Y-48.01681
G01 X67.66297 Y-48.01653
G01 X67.34600 Y-47.94914
G01 X67.04999 Y-47.81736
G01 X66.78784 Y-47.62689
G01 X66.57102 Y-47.38607
G01 X66.40900 Y-47.10545
G01 X66.30887 Y-46.79728
G01 X66.27499 Y-46.47500
(Suppressed: G04 P0 ( dwell for no time -- G64 should not smooth over this point ))
G00 Z5.00000 ( retract )

G00 X51.67499 Y-59.85148 ( rapid move to begin. )
G01 F100.00000
( Mill infeed pass 1/1 )
G01 Z-0.20000
(Suppressed: G04 P0 ( dwell for no time -- G64 should not smooth over this point ))
G01 F150.00000
G01 X51.67499 Y-59.85148
G01 X51.67499 Y-57.49855
G01 X51.68314 Y-57.42088
G01 X51.70539 Y-57.35151
G01 X51.74961 Y-57.27493
G01 X51.79859 Y-57.22095
G01 X51.86640 Y-57.17269
G01 X51.93813 Y-57.14193
G01 X52.00430 Y-57.12789
G01 X52.04852 Y-57.12502
G01 X53.63790 Y-57.12685
G01 X53.72175 Y-57.14516
G01 X53.78822 Y-57.17505
G01 X53.85139 Y-57.22095
G01 X53.90364 Y-57.27899
G01 X53.94270 Y-57.34661
G01 X53.96683 Y-57.42088
G01 X53.97499 Y-57.49855
G01 X53.97499 Y-59.85148
G01 X53.96683 Y-59.92915
G01 X53.94456 Y-59.99852
G01 X53.90033 Y-60.07510
G01 X53.85139 Y-60.12907
G01 X53.78822 Y-60.17497
G01 X53.71690 Y-60.20672
G01 X53.63790 Y-60.22318
G01 X52.01207 Y-60.22318
G01 X51.93308 Y-60.20672
G01 X51.86640 Y-60.17733
G01 X51.79488 Y-60.12537
G01 X51.74631 Y-60.07104
G01 X51.70727 Y-60.00342
G01 X51.68314 Y-59.92915
G01 X51.67499 Y-59.85148
G01 X51.67499 Y-61.81503
G01 X51.70011 Y-61.57591
G01 X51.77253 Y-61.35216
G01 X51.89462 Y-61.13905
G01 X52.05548 Y-60.96039
G01 X52.24560 Y-60.82194
G01 X52.46963 Y-60.72130
G01 X52.71001 Y-60.67103
G01 X52.94519 Y-60.67131
G01 X53.18035 Y-60.72130
G01 X53.39998 Y-60.81909
G01 X53.59043 Y-60.95711
G01 X53.75820 Y-61.14345
G01 X53.87557 Y-61.34726
G01 X53.95068 Y-61.58109
G01 X53.97499 Y-61.81503
G01 X53.97499 Y-62.61502
G01 X53.94986 Y-62.85411
G01 X53.87745 Y-63.07786
G01 X53.75533 Y-63.29097
G01 X53.59449 Y-63.46963
G01 X53.39998 Y-63.61093
G01 X53.18035 Y-63.70872
G01 X52.95035 Y-63.75790
G01 X52.70478 Y-63.75871
G01 X52.47468 Y-63.71009
G01 X52.24560 Y-63.60809
G01 X52.05548 Y-63.46963
G01 X51.89462 Y-63.29097
G01 X51.77441 Y-63.08276
G01 X51.70148 Y-62.85917
G01 X51.67499 Y-62.61502
G01 X51.67499 Y-61.81503
(Suppressed: G04 P0 ( dwell for no time -- G64 should not smooth over this point ))
G00 Z5.00000 ( retract )

G00 X54.21499 Y-61.81503 ( rapid move to begin. )
G01 F100.00000
( Mill infeed pass 1/1 )
G01 Z-0.20000
(Suppressed: G04 P0 ( dwell for no time -- G64 should not smooth over this point ))
G01 F150.00000
G01 X54.21499 Y-61.81503
G01 X54.21499 Y-62.61502
G01 X54.24011 Y-62.85411
G01 X54.31679 Y-63.08741
G01 X54.43462 Y-63.29097
G01 X54.56498 Y-63.43615
G01 X54.56498 Y-65.21502
G01 X54.58156 Y-65.37585
G01 X54.62423 Y-65.51657
G01 X54.69728 Y-65.65528
G01 X54.79601 Y-65.77707
G01 X54.92472 Y-65.88273
G01 X55.06345 Y-65.95578
G01 X55.20892 Y-65.99965
G01 X55.36500 Y-66.01504
G01 X63.78769 Y-66.01504
G01 X63.90892 Y-66.00564
G01 X64.03112 Y-65.97694
G01 X64.15429 Y-65.92591
G01 X64.26099 Y-65.85982
G01 X64.35337 Y-65.78073
G01 X65.91347 Y-64.22063
G01 X66.01547 Y-64.09518
G01 X66.08852 Y-63.95647
G01 X66.13120 Y-63.81576
G01 X66.14778 Y-63.65493
G01 X66.14778 Y-58.09365
G01 X72.48638 Y-58.09365
G01 X72.64719 Y-58.07706
G01 X72.78790 Y-58.03439
G01 X72.92661 Y-57.96134
G01 X73.05206 Y-57.85933
G01 X82.93812 Y-47.97327
G01 X83.14297 Y-48.01653
G01 X83.46177 Y-48.01681
G01 X83.77891 Y-47.95051
G01 X84.07998 Y-47.81736
G01 X84.34584 Y-47.62318
G01 X84.55897 Y-47.38607
G01 X84.71861 Y-47.11013
G01 X84.82113 Y-46.79728
G01 X84.85498 Y-46.47500
G01 X84.82194 Y-46.15793
G01 X84.72097 Y-45.84457
G01 X84.55897 Y-45.56395
G01 X84.33807 Y-45.31983
G01 X84.07998 Y-45.13266
G01 X83.78884 Y-45.00274
G01 X83.47218 Y-44.93431
G01 X83.14297 Y-44.93350
G01 X82.82601 Y-45.00089
G01 X82.53000 Y-45.13266
G01 X82.26784 Y-45.32314
G01 X82.04816 Y-45.56835
G01 X81.88900 Y-45.84457
G01 X81.79022 Y-46.14770
G01 X81.75499 Y-46.47500
G01 X81.78804 Y-46.79212
G01 X81.80396 Y-46.84467
G01 X72.15498 Y-56.49362
G01 X65.67915 Y-56.49362
G01 X64.29198 Y-55.10668
G01 X64.20250 Y-55.03023
G01 X64.09579 Y-54.96414
G01 X63.98007 Y-54.91552
G01 X63.85818 Y-54.88563
G01 X63.72919 Y-54.87501
G01 X60.44010 Y-54.87526
G01 X60.28892 Y-54.89040
G01 X60.14345 Y-54.93427
G01 X60.00474 Y-55.00732
G01 X59.88295 Y-55.10605
G01 X59.77728 Y-55.23477
G01 X59.70423 Y-55.37348
G01 X59.65963 Y-55.52380
G01 X59.64498 Y-55.67501
G01 X59.64498 Y-57.45387
G01 X59.51462 Y-57.59906
G01 X59.39441 Y-57.80726
G01 X59.32011 Y-58.03591
G01 X59.29499 Y-58.27500
G01 X59.29499 Y-59.07503
G01 X59.32148 Y-59.31917
G01 X59.39441 Y-59.54277
G01 X59.51462 Y-59.75097
G01 X59.67548 Y-59.92963
G01 X59.86999 Y-60.07093
G01 X60.08963 Y-60.16872
G01 X60.32478 Y-60.21871
G01 X60.56519 Y-60.21871
G01 X60.80035 Y-60.16872
G01 X61.01998 Y-60.07093
G01 X61.21449 Y-59.92963
G01 X61.37535 Y-59.75097
G01 X61.49745 Y-59.53786
G01 X61.56986 Y-59.31412
G01 X61.59471 Y-59.08023
G01 X61.59471 Y-58.26979
G01 X61.56986 Y-58.03591
G01 X61.49557 Y-57.80726
G01 X61.37535 Y-57.59906
G01 X61.24500 Y-57.45387
G01 X61.24500 Y-56.47503
G01 X63.39780 Y-56.47503
G01 X64.54776 Y-57.62499
G01 X64.54776 Y-63.32356
G01 X63.45630 Y-64.41502
G01 X56.16500 Y-64.41502
G01 X56.16500 Y-63.43615
G01 X56.29535 Y-63.29097
G01 X56.41557 Y-63.08276
G01 X56.48986 Y-62.85411
G01 X56.51471 Y-62.62023
G01 X56.51471 Y-61.80979
G01 X56.48986 Y-61.57591
G01 X56.41745 Y-61.35216
G01 X56.29207 Y-61.13499
G01 X56.13449 Y-60.96039
G01 X55.93998 Y-60.81909
G01 X55.72035 Y-60.72130
G01 X55.49037 Y-60.67213
G01 X55.23960 Y-60.67213
G01 X55.00960 Y-60.72130
G01 X54.78999 Y-60.81909
G01 X54.59548 Y-60.96039
G01 X54.43790 Y-61.13499
G01 X54.31253 Y-61.35216
G01 X54.24011 Y-61.57591
G01 X54.21499 Y-61.81503
G01 X54.21499 Y-59.07503
G01 X54.24148 Y-59.31917
G01 X54.31441 Y-59.54277
G01 X54.43178 Y-59.74658
G01 X54.59548 Y-59.92963
G01 X54.78999 Y-60.07093
G01 X55.01468 Y-60.17007
G01 X55.24478 Y-60.21871
G01 X55.47996 Y-60.21899
G01 X55.72035 Y-60.16872
G01 X55.94437 Y-60.06809
G01 X56.13449 Y-59.92963
G01 X56.29535 Y-59.75097
G01 X56.41557 Y-59.54277
G01 X56.49068 Y-59.30893
G01 X56.51498 Y-59.07503
G01 X56.51498 Y-58.27500
G01 X56.49068 Y-58.04109
G01 X56.41557 Y-57.80726
G01 X56.29535 Y-57.59906
G01 X56.13449 Y-57.42039
G01 X55.93998 Y-57.27909
G01 X55.72035 Y-57.18130
G01 X55.49037 Y-57.13213
G01 X55.24478 Y-57.13132
G01 X55.01468 Y-57.17993
G01 X54.78560 Y-57.28194
G01 X54.59548 Y-57.42039
G01 X54.43462 Y-57.59906
G01 X54.31441 Y-57.80726
G01 X54.24148 Y-58.03086
G01 X54.21499 Y-58.27500
G01 X54.21499 Y-59.07503
(Suppressed: G04 P0 ( dwell for no time -- G64 should not smooth over this point ))
G00 Z5.00000 ( retract )

G00 X59.29499 Y-61.81503 ( rapid move to begin. )
G01 F100.00000
( Mill infeed pass 1/1 )
G01 Z-0.20000
(Suppressed: G04 P0 ( dwell for no time -- G64 should not smooth over this point ))
G01 F150.00000
G01 X59.29499 Y-61.81503
G01 X59.29499 Y-62.61502
G01 X59.32148 Y-62.85917
G01 X59.39441 Y-63.08276
G01 X59.51462 Y-63.29097
G01 X59.67548 Y-63.46963
G01 X59.86560 Y-63.60809
G01 X60.09468 Y-63.71009
G01 X60.32478 Y-63.75871
G01 X60.57037 Y-63.75790
G01 X60.80035 Y-63.70872
G01 X61.01998 Y-63.61093
G01 X61.21449 Y-63.46963
G01 X61.37535 Y-63.29097
G01 X61.49557 Y-63.08276
G01 X61.57068 Y-62.84893
G01 X61.59499 Y-62.61502
G01 X61.59499 Y-61.81503
G01 X61.57068 Y-61.58109
G01 X61.49557 Y-61.34726
G01 X61.37535 Y-61.13905
G01 X61.21449 Y-60.96039
G01 X61.02437 Y-60.82194
G01 X60.80035 Y-60.72130
G01 X60.55996 Y-60.67103
G01 X60.32478 Y-60.67131
G01 X60.09468 Y-60.71995
G01 X59.86999 Y-60.81909
G01 X59.67548 Y-60.96039
G01 X59.51178 Y-61.14345
G01 X59.39441 Y-61.34726
G01 X59.32148 Y-61.57086
G01 X59.29499 Y-61.81503
(Suppressed: G04 P0 ( dwell for no time -- G64 should not smooth over this point ))
G00 Z5.00000 ( retract )

G00 X61.83499 Y-61.81503 ( rapid move to begin. )
G01 F100.00000
( Mill infeed pass 1/1 )
G01 Z-0.20000
(Suppressed: G04 P0 ( dwell for no time -- G64 should not smooth over this point ))
G01 F150.00000
G01 X61.83499 Y-61.81503
G01 X61.83499 Y-62.61502
G01 X61.86148 Y-62.85917
G01 X61.93441 Y-63.08276
G01 X62.05462 Y-63.29097
G01 X62.21548 Y-63.46963
G01 X62.40560 Y-63.60809
G01 X62.63468 Y-63.71009
G01 X62.86478 Y-63.75871
G01 X63.11037 Y-63.75790
G01 X63.34035 Y-63.70872
G01 X63.55998 Y-63.61093
G01 X63.75449 Y-63.46963
G01 X63.91535 Y-63.29097
G01 X64.03557 Y-63.08276
G01 X64.11068 Y-62.84893
G01 X64.13499 Y-62.61502
G01 X64.13499 Y-61.81503
G01 X64.11068 Y-61.58109
G01 X64.03557 Y-61.34726
G01 X63.91535 Y-61.13905
G01 X63.75449 Y-60.96039
G01 X63.56437 Y-60.82194
G01 X63.34035 Y-60.72130
G01 X63.09996 Y-60.67103
G01 X62.86478 Y-60.67131
G01 X62.63468 Y-60.71995
G01 X62.40999 Y-60.81909
G01 X62.21548 Y-60.96039
G01 X62.05178 Y-61.14345
G01 X61.93441 Y-61.34726
G01 X61.86148 Y-61.57086
G01 X61.83499 Y-61.81503
G01 X61.83499 Y-59.07503
G01 X61.86148 Y-59.31917
G01 X61.93441 Y-59.54277
G01 X62.05178 Y-59.74658
G01 X62.21548 Y-59.92963
G01 X62.40999 Y-60.07093
G01 X62.63468 Y-60.17007
G01 X62.86478 Y-60.21871
G01 X63.09996 Y-60.21899
G01 X63.34035 Y-60.16872
G01 X63.56437 Y-60.06809
G01 X63.75449 Y-59.92963
G01 X63.91535 Y-59.75097
G01 X64.03557 Y-59.54277
G01 X64.11068 Y-59.30893
G01 X64.13499 Y-59.07503
G01 X64.13499 Y-58.27500
G01 X64.11068 Y-58.04109
G01 X64.03557 Y-57.80726
G01 X63.91535 Y-57.59906
G01 X63.75449 Y-57.42039
G01 X63.55998 Y-57.27909
G01 X63.34035 Y-57.18130
G01 X63.11037 Y-57.13213
G01 X62.86478 Y-57.13132
G01 X62.63468 Y-57.17993
G01 X62.40560 Y-57.28194
G01 X62.21548 Y-57.42039
G01 X62.05462 Y-57.59906
G01 X61.93441 Y-57.80726
G01 X61.86148 Y-58.03086
G01 X61.83499 Y-58.27500
G01 X61.83499 Y-59.07503
(Suppressed: G04 P0 ( dwell for no time -- G64 should not smooth over this point ))
G00 Z5.00000 ( retract )

G00 X81.75499 Y-59.17500 ( rapid move to begin. )
G01 F100.00000
( Mill infeed pass 1/1 )
G01 Z-0.20000
(Suppressed: G04 P0 ( dwell for no time -- G64 should not smooth over this point ))
G01 F150.00000
G01 X81.75499 Y-59.17500
G01 X81.78885 Y-58.85275
G01 X81.88900 Y-58.54457
G01 X82.05100 Y-58.26395
G01 X82.26413 Y-58.02684
G01 X82.53000 Y-57.83266
G01 X82.82113 Y-57.70274
G01 X83.14821 Y-57.63322
G01 X83.46700 Y-57.63350
G01 X83.78397 Y-57.70089
G01 X84.07998 Y-57.83266
G01 X84.34213 Y-58.02314
G01 X84.55897 Y-58.26395
G01 X84.72097 Y-58.54457
G01 X84.82113 Y-58.85275
G01 X84.85498 Y-59.17500
G01 X84.82113 Y-59.49728
G01 X84.72097 Y-59.80545
G01 X84.55897 Y-60.08607
G01 X84.34584 Y-60.32318
G01 X84.07998 Y-60.51736
G01 X83.78884 Y-60.64729
G01 X83.46177 Y-60.71681
G01 X83.14297 Y-60.71653
G01 X82.82601 Y-60.64914
G01 X82.53000 Y-60.51736
G01 X82.26784 Y-60.32689
G01 X82.05100 Y-60.08607
G01 X81.88900 Y-59.80545
G01 X81.78885 Y-59.49728
G01 X81.75499 Y-59.17500
(Suppressed: G04 P0 ( dwell for no time -- G64 should not smooth over this point ))
G00 Z5.00000 ( retract )

G00 X89.37499 Y-46.47500 ( rapid move to begin. )
G01 F100.00000
( Mill infeed pass 1/1 )
G01 Z-0.20000
(Suppressed: G04 P0 ( dwell for no time -- G64 should not smooth over this point ))
G01 F150.00000
G01 X89.37499 Y-46.47500
G01 X89.40885 Y-46.15278
G01 X89.50900 Y-45.84457
G01 X89.67100 Y-45.56395
G01 X89.88413 Y-45.32684
G01 X90.15000 Y-45.13266
G01 X90.44113 Y-45.00274
G01 X90.76821 Y-44.93322
G01 X91.08700 Y-44.93350
G01 X91.40397 Y-45.00089
G01 X91.69998 Y-45.13266
G01 X91.96213 Y-45.32314
G01 X92.17897 Y-45.56395
G01 X92.34097 Y-45.84457
G01 X92.44113 Y-46.15278
G01 X92.47498 Y-46.47500
G01 X92.44113 Y-46.79728
G01 X92.34097 Y-47.10545
G01 X92.17897 Y-47.38607
G01 X91.96584 Y-47.62318
G01 X91.69998 Y-47.81736
G01 X91.40884 Y-47.94729
G01 X91.08177 Y-48.01681
G01 X90.76297 Y-48.01653
G01 X90.44601 Y-47.94914
G01 X90.15000 Y-47.81736
G01 X89.88784 Y-47.62689
G01 X89.67100 Y-47.38607
G01 X89.50900 Y-47.10545
G01 X89.40885 Y-46.79728
G01 X89.37499 Y-46.47500

(Suppressed: G04 P0 ( dwell for no time -- G64 should not smooth over this point ))
G00 Z5.000000 ( retract )

M5 ( Spindle off. )
(Suppressed: G04 P1.000000)
M9 ( Coolant off. )
M2 ( Program end. )

