( pcb2gcode 2.5.0 )
( Software-independent Gcode )
( This file uses a mill head of 1.00000mm to drill the 2 hole sizes. )
( Hole sizes: [1.2mm] [1.397mm] )

G94       (Millimeters per minute feed rate.)
G21       (Units == Millimeters.)
G91.1     (Incremental arc distance mode.)
G90       (Absolute coordinates.)
S5600    (RPM spindle speed.)

G01 F150.00000 (Feedrate)
G00 Z5.00000 (Retract to tool change height)
T1
M5        (Spindle stop.)
(Suppressed: G04)
(MSG, Change tool bit to drill size 1.00000mm)
M6        (Tool change.)
M0        (Temporary machine stop.)
M3        (Spindle on clockwise.)
(Suppressed: G04)
G00 Z5.00000

G0 X35.14500 Y103.62500
G1 Z1.10000 F75.00000
G1 F150.00000
G2 X35.14500 Y103.62500 Z-0.00000 I-0.10000 J0.00000
G2 X35.14500 Y103.62500 Z-1.10000 I-0.10000 J0.00000
G2 X35.14500 Y103.62500 I-0.10000 J0.00000
G1 Z5.00000 F75.00000

G0 X27.52500 Y103.62500
G1 Z1.10000 F75.00000
G1 F150.00000
G2 X27.52500 Y103.62500 Z-0.00000 I-0.10000 J0.00000
G2 X27.52500 Y103.62500 Z-1.10000 I-0.10000 J0.00000
G2 X27.52500 Y103.62500 I-0.10000 J0.00000
G1 Z5.00000 F75.00000

G0 X27.52500 Y116.32500
G1 Z1.10000 F75.00000
G1 F150.00000
G2 X27.52500 Y116.32500 Z-0.00000 I-0.10000 J0.00000
G2 X27.52500 Y116.32500 Z-1.10000 I-0.10000 J0.00000
G2 X27.52500 Y116.32500 I-0.10000 J0.00000
G1 Z5.00000 F75.00000

G0 X27.52500 Y129.02500
G1 Z1.10000 F75.00000
G1 F150.00000
G2 X27.52500 Y129.02500 Z-0.00000 I-0.10000 J0.00000
G2 X27.52500 Y129.02500 Z-1.10000 I-0.10000 J0.00000
G2 X27.52500 Y129.02500 I-0.10000 J0.00000
G1 Z5.00000 F75.00000

G0 X35.14500 Y129.02500
G1 Z1.10000 F75.00000
G1 F150.00000
G2 X35.14500 Y129.02500 Z-0.00000 I-0.10000 J0.00000
G2 X35.14500 Y129.02500 Z-1.10000 I-0.10000 J0.00000
G2 X35.14500 Y129.02500 I-0.10000 J0.00000
G1 Z5.00000 F75.00000

G0 X35.14500 Y116.32500
G1 Z1.10000 F75.00000
G1 F150.00000
G2 X35.14500 Y116.32500 Z-0.00000 I-0.10000 J0.00000
G2 X35.14500 Y116.32500 Z-1.10000 I-0.10000 J0.00000
G2 X35.14500 Y116.32500 I-0.10000 J0.00000
G1 Z5.00000 F75.00000

G0 X52.92500 Y103.62500
G1 Z1.10000 F75.00000
G1 F150.00000
G2 X52.92500 Y103.62500 Z-0.00000 I-0.10000 J0.00000
G2 X52.92500 Y103.62500 Z-1.10000 I-0.10000 J0.00000
G2 X52.92500 Y103.62500 I-0.10000 J0.00000
G1 Z5.00000 F75.00000

G0 X52.92500 Y101.08500
G1 Z1.10000 F75.00000
G1 F150.00000
G2 X52.92500 Y101.08500 Z-0.00000 I-0.10000 J0.00000
G2 X52.92500 Y101.08500 Z-1.10000 I-0.10000 J0.00000
G2 X52.92500 Y101.08500 I-0.10000 J0.00000
G1 Z5.00000 F75.00000

G0 X52.92500 Y98.54500
G1 Z1.10000 F75.00000
G1 F150.00000
G2 X52.92500 Y98.54500 Z-0.00000 I-0.10000 J0.00000
G2 X52.92500 Y98.54500 Z-1.10000 I-0.10000 J0.00000
G2 X52.92500 Y98.54500 I-0.10000 J0.00000
G1 Z5.00000 F75.00000

G0 X60.54500 Y98.54500
G1 Z1.10000 F75.00000
G1 F150.00000
G2 X60.54500 Y98.54500 Z-0.00000 I-0.10000 J0.00000
G2 X60.54500 Y98.54500 Z-1.10000 I-0.10000 J0.00000
G2 X60.54500 Y98.54500 I-0.10000 J0.00000
G1 Z5.00000 F75.00000

G0 X60.54500 Y101.08500
G1 Z1.10000 F75.00000
G1 F150.00000
G2 X60.54500 Y101.08500 Z-0.00000 I-0.10000 J0.00000
G2 X60.54500 Y101.08500 Z-1.10000 I-0.10000 J0.00000
G2 X60.54500 Y101.08500 I-0.10000 J0.00000
G1 Z5.00000 F75.00000

G0 X60.54500 Y103.62500
G1 Z1.10000 F75.00000
G1 F150.00000
G2 X60.54500 Y103.62500 Z-0.00000 I-0.10000 J0.00000
G2 X60.54500 Y103.62500 Z-1.10000 I-0.10000 J0.00000
G2 X60.54500 Y103.62500 I-0.10000 J0.00000
G1 Z5.00000 F75.00000

G0 X52.92500 Y116.32500
G1 Z1.10000 F75.00000
G1 F150.00000
G2 X52.92500 Y116.32500 Z-0.00000 I-0.10000 J0.00000
G2 X52.92500 Y116.32500 Z-1.10000 I-0.10000 J0.00000
G2 X52.92500 Y116.32500 I-0.10000 J0.00000
G1 Z5.00000 F75.00000

G0 X52.92500 Y129.02500
G1 Z1.10000 F75.00000
G1 F150.00000
G2 X52.92500 Y129.02500 Z-0.00000 I-0.10000 J0.00000
G2 X52.92500 Y129.02500 Z-1.10000 I-0.10000 J0.00000
G2 X52.92500 Y129.02500 I-0.10000 J0.00000
G1 Z5.00000 F75.00000

G0 X52.92500 Y131.56500
G1 Z1.10000 F75.00000
G1 F150.00000
G2 X52.92500 Y131.56500 Z-0.00000 I-0.10000 J0.00000
G2 X52.92500 Y131.56500 Z-1.10000 I-0.10000 J0.00000
G2 X52.92500 Y131.56500 I-0.10000 J0.00000
G1 Z5.00000 F75.00000

G0 X55.46500 Y131.56500
G1 Z1.10000 F75.00000
G1 F150.00000
G2 X55.46500 Y131.56500 Z-0.00000 I-0.10000 J0.00000
G2 X55.46500 Y131.56500 Z-1.10000 I-0.10000 J0.00000
G2 X55.46500 Y131.56500 I-0.10000 J0.00000
G1 Z5.00000 F75.00000

G0 X55.46500 Y129.02500
G1 Z1.10000 F75.00000
G1 F150.00000
G2 X55.46500 Y129.02500 Z-0.00000 I-0.10000 J0.00000
G2 X55.46500 Y129.02500 Z-1.10000 I-0.10000 J0.00000
G2 X55.46500 Y129.02500 I-0.10000 J0.00000
G1 Z5.00000 F75.00000

G0 X58.00500 Y131.56500
G1 Z1.10000 F75.00000
G1 F150.00000
G2 X58.00500 Y131.56500 Z-0.00000 I-0.10000 J0.00000
G2 X58.00500 Y131.56500 Z-1.10000 I-0.10000 J0.00000
G2 X58.00500 Y131.56500 I-0.10000 J0.00000
G1 Z5.00000 F75.00000

G0 X58.00500 Y129.02500
G1 Z1.10000 F75.00000
G1 F150.00000
G2 X58.00500 Y129.02500 Z-0.00000 I-0.10000 J0.00000
G2 X58.00500 Y129.02500 Z-1.10000 I-0.10000 J0.00000
G2 X58.00500 Y129.02500 I-0.10000 J0.00000
G1 Z5.00000 F75.00000

G0 X60.54500 Y131.56500
G1 Z1.10000 F75.00000
G1 F150.00000
G2 X60.54500 Y131.56500 Z-0.00000 I-0.10000 J0.00000
G2 X60.54500 Y131.56500 Z-1.10000 I-0.10000 J0.00000
G2 X60.54500 Y131.56500 I-0.10000 J0.00000
G1 Z5.00000 F75.00000

G0 X60.54500 Y129.02500
G1 Z1.10000 F75.00000
G1 F150.00000
G2 X60.54500 Y129.02500 Z-0.00000 I-0.10000 J0.00000
G2 X60.54500 Y129.02500 Z-1.10000 I-0.10000 J0.00000
G2 X60.54500 Y129.02500 I-0.10000 J0.00000
G1 Z5.00000 F75.00000

G0 X63.08500 Y131.56500
G1 Z1.10000 F75.00000
G1 F150.00000
G2 X63.08500 Y131.56500 Z-0.00000 I-0.10000 J0.00000
G2 X63.08500 Y131.56500 Z-1.10000 I-0.10000 J0.00000
G2 X63.08500 Y131.56500 I-0.10000 J0.00000
G1 Z5.00000 F75.00000

G0 X63.08500 Y129.02500
G1 Z1.10000 F75.00000
G1 F150.00000
G2 X63.08500 Y129.02500 Z-0.00000 I-0.10000 J0.00000
G2 X63.08500 Y129.02500 Z-1.10000 I-0.10000 J0.00000
G2 X63.08500 Y129.02500 I-0.10000 J0.00000
G1 Z5.00000 F75.00000

G0 X67.92500 Y116.32500
G1 Z1.10000 F75.00000
G1 F150.00000
G2 X67.92500 Y116.32500 Z-0.00000 I-0.10000 J0.00000
G2 X67.92500 Y116.32500 Z-1.10000 I-0.10000 J0.00000
G2 X67.92500 Y116.32500 I-0.10000 J0.00000
G1 Z5.00000 F75.00000

G0 X83.40500 Y129.02500
G1 Z1.10000 F75.00000
G1 F150.00000
G2 X83.40500 Y129.02500 Z-0.00000 I-0.10000 J0.00000
G2 X83.40500 Y129.02500 Z-1.10000 I-0.10000 J0.00000
G2 X83.40500 Y129.02500 I-0.10000 J0.00000
G1 Z5.00000 F75.00000

G0 X91.02500 Y129.02500
G1 Z1.10000 F75.00000
G1 F150.00000
G2 X91.02500 Y129.02500 Z-0.00000 I-0.10000 J0.00000
G2 X91.02500 Y129.02500 Z-1.10000 I-0.10000 J0.00000
G2 X91.02500 Y129.02500 I-0.10000 J0.00000
G1 Z5.00000 F75.00000

G0 X83.40500 Y116.32500
G1 Z1.10000 F75.00000
G1 F150.00000
G2 X83.40500 Y116.32500 Z-0.00000 I-0.10000 J0.00000
G2 X83.40500 Y116.32500 Z-1.10000 I-0.10000 J0.00000
G2 X83.40500 Y116.32500 I-0.10000 J0.00000
G1 Z5.00000 F75.00000

G0 X91.02500 Y116.32500
G1 Z1.10000 F75.00000
G1 F150.00000
G2 X91.02500 Y116.32500 Z-0.00000 I-0.10000 J0.00000
G2 X91.02500 Y116.32500 Z-1.10000 I-0.10000 J0.00000
G2 X91.02500 Y116.32500 I-0.10000 J0.00000
G1 Z5.00000 F75.00000

G0 X35.32250 Y77.57700
G1 Z1.10000 F75.00000
G1 F150.00000
G2 X35.32250 Y77.57700 Z-0.00000 I-0.19850 J0.00000
G2 X35.32250 Y77.57700 Z-1.10000 I-0.19850 J0.00000
G2 X35.32250 Y77.57700 I-0.19850 J0.00000
G1 Z5.00000 F75.00000

G0 X32.82550 Y87.57200
G1 Z1.10000 F75.00000
G1 F150.00000
G2 X32.82550 Y87.57200 Z-0.00000 I-0.19850 J0.00000
G2 X32.82550 Y87.57200 Z-1.10000 I-0.19850 J0.00000
G2 X32.82550 Y87.57200 I-0.19850 J0.00000
G1 Z5.00000 F75.00000

G0 X35.32750 Y90.07400
G1 Z1.10000 F75.00000
G1 F150.00000
G2 X35.32750 Y90.07400 Z-0.00000 I-0.19850 J0.00000
G2 X35.32750 Y90.07400 Z-1.10000 I-0.19850 J0.00000
G2 X35.32750 Y90.07400 I-0.19850 J0.00000
G1 Z5.00000 F75.00000

G0 X40.32350 Y87.57500
G1 Z1.10000 F75.00000
G1 F150.00000
G2 X40.32350 Y87.57500 Z-0.00000 I-0.19850 J0.00000
G2 X40.32350 Y87.57500 Z-1.10000 I-0.19850 J0.00000
G2 X40.32350 Y87.57500 I-0.19850 J0.00000
G1 Z5.00000 F75.00000

G0 X45.31950 Y90.07400
G1 Z1.10000 F75.00000
G1 F150.00000
G2 X45.31950 Y90.07400 Z-0.00000 I-0.19850 J0.00000
G2 X45.31950 Y90.07400 Z-1.10000 I-0.19850 J0.00000
G2 X45.31950 Y90.07400 I-0.19850 J0.00000
G1 Z5.00000 F75.00000

G0 X47.82150 Y87.57200
G1 Z1.10000 F75.00000
G1 F150.00000
G2 X47.82150 Y87.57200 Z-0.00000 I-0.19850 J0.00000
G2 X47.82150 Y87.57200 Z-1.10000 I-0.19850 J0.00000
G2 X47.82150 Y87.57200 I-0.19850 J0.00000
G1 Z5.00000 F75.00000

G0 X45.32450 Y77.57700
G1 Z1.10000 F75.00000
G1 F150.00000
G2 X45.32450 Y77.57700 Z-0.00000 I-0.19850 J0.00000
G2 X45.32450 Y77.57700 Z-1.10000 I-0.19850 J0.00000
G2 X45.32450 Y77.57700 I-0.19850 J0.00000
G1 Z5.00000 F75.00000

G0 X58.22550 Y87.57200
G1 Z1.10000 F75.00000
G1 F150.00000
G2 X58.22550 Y87.57200 Z-0.00000 I-0.19850 J0.00000
G2 X58.22550 Y87.57200 Z-1.10000 I-0.19850 J0.00000
G2 X58.22550 Y87.57200 I-0.19850 J0.00000
G1 Z5.00000 F75.00000

G0 X60.72750 Y90.07400
G1 Z1.10000 F75.00000
G1 F150.00000
G2 X60.72750 Y90.07400 Z-0.00000 I-0.19850 J0.00000
G2 X60.72750 Y90.07400 Z-1.10000 I-0.19850 J0.00000
G2 X60.72750 Y90.07400 I-0.19850 J0.00000
G1 Z5.00000 F75.00000

G0 X65.72350 Y87.57500
G1 Z1.10000 F75.00000
G1 F150.00000
G2 X65.72350 Y87.57500 Z-0.00000 I-0.19850 J0.00000
G2 X65.72350 Y87.57500 Z-1.10000 I-0.19850 J0.00000
G2 X65.72350 Y87.57500 I-0.19850 J0.00000
G1 Z5.00000 F75.00000

G0 X70.71950 Y90.07400
G1 Z1.10000 F75.00000
G1 F150.00000
G2 X70.71950 Y90.07400 Z-0.00000 I-0.19850 J0.00000
G2 X70.71950 Y90.07400 Z-1.10000 I-0.19850 J0.00000
G2 X70.71950 Y90.07400 I-0.19850 J0.00000
G1 Z5.00000 F75.00000

G0 X73.22150 Y87.57200
G1 Z1.10000 F75.00000
G1 F150.00000
G2 X73.22150 Y87.57200 Z-0.00000 I-0.19850 J0.00000
G2 X73.22150 Y87.57200 Z-1.10000 I-0.19850 J0.00000
G2 X73.22150 Y87.57200 I-0.19850 J0.00000
G1 Z5.00000 F75.00000

G0 X70.72450 Y77.57700
G1 Z1.10000 F75.00000
G1 F150.00000
G2 X70.72450 Y77.57700 Z-0.00000 I-0.19850 J0.00000
G2 X70.72450 Y77.57700 Z-1.10000 I-0.19850 J0.00000
G2 X70.72450 Y77.57700 I-0.19850 J0.00000
G1 Z5.00000 F75.00000

G0 X60.72250 Y77.57700
G1 Z1.10000 F75.00000
G1 F150.00000
G2 X60.72250 Y77.57700 Z-0.00000 I-0.19850 J0.00000
G2 X60.72250 Y77.57700 Z-1.10000 I-0.19850 J0.00000
G2 X60.72250 Y77.57700 I-0.19850 J0.00000
G1 Z5.00000 F75.00000

G00 Z5.000000 ( All done -- retract )

M5      (Spindle off.)
(Suppressed: G04)
M9      (Coolant off.)
M2      (Program end.)

