( pcb2gcode 2.5.0 )
( Software-independent Gcode )

G94 ( Millimeters per minute feed rate. )
G21 ( Units == Millimeters. )

G90 ( Absolute coordinates. )
G00 S5600 ( RPM spindle speed. )
(Suppressed: G64 )
G01 F150.00000 ( Feedrate. )


G00 Z5.00000 (Retract to tool change height)
T0
M5      (Spindle stop.)
(Suppressed: G04)
(MSG, Change tool bit to mill diameter 0.10000mm)
M0      (Temporary machine stop.)
M3 ( Spindle on clockwise. )
(Suppressed: G04)
(Suppressed: G04)
G00 Z5.00000 ( retract )

G00 X25.87499 Y59.17500 ( rapid move to begin. )
G01 F100.00000
( Mill infeed pass 1/1 )
G01 Z-0.20000
(Suppressed: G04)
G01 F150.00000
G01 X25.87499 Y59.17500
G01 X25.90885 Y58.85275
G01 X26.00900 Y58.54457
G01 X26.17100 Y58.26395
G01 X26.38413 Y58.02684
G01 X26.65000 Y57.83266
G01 X26.94113 Y57.70274
G01 X27.26821 Y57.63322
G01 X27.58700 Y57.63350
G01 X27.90394 Y57.70089
G01 X28.19998 Y57.83266
G01 X28.46213 Y58.02314
G01 X28.67897 Y58.26395
G01 X28.84097 Y58.54457
G01 X28.94113 Y58.85275
G01 X28.97498 Y59.17500
G01 X28.94113 Y59.49728
G01 X28.84097 Y59.80545
G01 X28.67897 Y60.08607
G01 X28.46584 Y60.32318
G01 X28.19998 Y60.51736
G01 X27.90884 Y60.64729
G01 X27.58177 Y60.71681
G01 X27.26297 Y60.71653
G01 X26.94601 Y60.64914
G01 X26.65000 Y60.51736
G01 X26.38784 Y60.32689
G01 X26.17100 Y60.08607
G01 X26.00900 Y59.80545
G01 X25.90885 Y59.49728
G01 X25.87499 Y59.17500
(Suppressed: G04)
G00 Z5.00000 ( retract )

G00 X33.49499 Y59.17500 ( rapid move to begin. )
G01 F100.00000
( Mill infeed pass 1/1 )
G01 Z-0.20000
(Suppressed: G04)
G01 F150.00000
G01 X33.49499 Y59.17500
G01 X33.52885 Y58.85275
G01 X33.62900 Y58.54457
G01 X33.79100 Y58.26395
G01 X34.00413 Y58.02684
G01 X34.27000 Y57.83266
G01 X34.56113 Y57.70274
G01 X34.88821 Y57.63322
G01 X35.21218 Y57.63431
G01 X35.52397 Y57.70089
G01 X35.81533 Y57.83030
G01 X36.08213 Y58.02314
G01 X36.29897 Y58.26395
G01 X36.36341 Y58.37500
G01 X49.67187 Y58.37500
G01 X49.67187 Y56.84681
G01 X49.68726 Y56.69075
G01 X49.73489 Y56.53624
G01 X49.80669 Y56.40236
G01 X49.90618 Y56.28113
G01 X51.07799 Y55.10932
G01 X51.17672 Y55.02563
G01 X51.28406 Y54.96058
G01 X51.40024 Y54.91311
G01 X51.52244 Y54.88441
G01 X51.64370 Y54.87501
G01 X54.56498 Y54.87501
G01 X54.56498 Y54.38502
G01 X54.57963 Y54.23381
G01 X54.62423 Y54.08349
G01 X54.69728 Y53.94478
G01 X54.79929 Y53.81936
G01 X56.14496 Y52.47367
G01 X56.14496 Y28.69500
G01 X56.16154 Y28.53419
G01 X56.20422 Y28.39348
G01 X56.27727 Y28.25477
G01 X56.37600 Y28.13297
G01 X56.50472 Y28.02731
G01 X56.64343 Y27.95426
G01 X56.78415 Y27.91159
G01 X56.94498 Y27.89500
G01 X58.77246 Y27.89500
G01 X58.83220 Y27.84270
G01 X59.02280 Y27.73391
G01 X59.22669 Y27.66795
G01 X59.43977 Y27.64529
G01 X61.44500 Y27.64501
G01 X61.65813 Y27.66714
G01 X61.87672 Y27.73816
G01 X62.06217 Y27.84555
G01 X62.22158 Y27.98873
G01 X62.35432 Y28.17001
G01 X62.44495 Y28.37560
G01 X62.48950 Y28.59048
G01 X62.48924 Y28.80478
G01 X62.44495 Y29.01443
G01 X62.35432 Y29.22002
G01 X62.22529 Y29.39759
G01 X62.06217 Y29.54448
G01 X61.86717 Y29.65611
G01 X61.66329 Y29.72207
G01 X61.44500 Y29.74501
G01 X59.44498 Y29.74501
G01 X59.22669 Y29.72207
G01 X59.02280 Y29.65611
G01 X58.83220 Y29.54732
G01 X58.77246 Y29.49502
G01 X57.74498 Y29.49502
G01 X57.74498 Y52.80501
G01 X57.73032 Y52.95624
G01 X57.68572 Y53.10656
G01 X57.61267 Y53.24527
G01 X57.51394 Y53.36706
G01 X56.16500 Y54.71639
G01 X56.16500 Y57.45387
G01 X56.29535 Y57.59906
G01 X56.41557 Y57.80726
G01 X56.48986 Y58.03591
G01 X56.51498 Y58.27500
G01 X56.51471 Y59.08023
G01 X56.48986 Y59.31412
G01 X56.41557 Y59.54277
G01 X56.29207 Y59.75503
G01 X56.13449 Y59.92963
G01 X55.94437 Y60.06809
G01 X55.72035 Y60.16872
G01 X55.48519 Y60.21871
G01 X55.23960 Y60.21790
G01 X55.00960 Y60.16872
G01 X54.79464 Y60.07332
G01 X54.59548 Y59.92963
G01 X54.43178 Y59.74658
G01 X54.31441 Y59.54277
G01 X54.23927 Y59.30893
G01 X54.21499 Y59.07503
G01 X54.21499 Y58.27500
G01 X54.24011 Y58.03591
G01 X54.31441 Y57.80726
G01 X54.43462 Y57.59906
G01 X54.56498 Y57.45387
G01 X54.56498 Y56.47503
G01 X51.97507 Y56.47503
G01 X51.27189 Y57.17820
G01 X51.27189 Y63.27936
G01 X52.40755 Y64.41502
G01 X59.64498 Y64.41502
G01 X59.64498 Y63.43615
G01 X59.51462 Y63.29097
G01 X59.39679 Y63.08741
G01 X59.31930 Y62.84893
G01 X59.29499 Y62.61502
G01 X59.29499 Y61.81503
G01 X59.32011 Y61.57591
G01 X59.39441 Y61.34726
G01 X59.51462 Y61.13905
G01 X59.67548 Y60.96039
G01 X59.86560 Y60.82194
G01 X60.08963 Y60.72130
G01 X60.31960 Y60.67213
G01 X60.57037 Y60.67213
G01 X60.80035 Y60.72130
G01 X61.01998 Y60.81909
G01 X61.21449 Y60.96039
G01 X61.37207 Y61.13499
G01 X61.49745 Y61.35216
G01 X61.56986 Y61.57591
G01 X61.59471 Y61.80979
G01 X61.59499 Y62.61502
G01 X61.56986 Y62.85411
G01 X61.49318 Y63.08741
G01 X61.37535 Y63.29097
G01 X61.24500 Y63.43615
G01 X61.24500 Y65.21502
G01 X61.23034 Y65.36628
G01 X61.18198 Y65.52561
G01 X61.10723 Y65.66343
G01 X61.01068 Y65.78073
G01 X60.88523 Y65.88273
G01 X60.74652 Y65.95578
G01 X60.60106 Y65.99965
G01 X60.44500 Y66.01504
G01 X52.07618 Y66.01504
G01 X51.95492 Y66.00564
G01 X51.83272 Y65.97694
G01 X51.70956 Y65.92591
G01 X51.60285 Y65.85982
G01 X51.51047 Y65.78070
G01 X49.90618 Y64.17639
G01 X49.80418 Y64.05096
G01 X49.73113 Y63.91225
G01 X49.68653 Y63.76194
G01 X49.67187 Y63.61070
G01 X49.67187 Y59.97502
G01 X36.36341 Y59.97502
G01 X36.29897 Y60.08607
G01 X36.08213 Y60.32689
G01 X35.81533 Y60.51973
G01 X35.52397 Y60.64914
G01 X35.21218 Y60.71571
G01 X34.88821 Y60.71681
G01 X34.56113 Y60.64729
G01 X34.27000 Y60.51736
G01 X34.00413 Y60.32318
G01 X33.79100 Y60.08607
G01 X33.62900 Y59.80545
G01 X33.52885 Y59.49728
G01 X33.49499 Y59.17500
(Suppressed: G04)
G00 Z5.00000 ( retract )

G00 X25.87499 Y46.47500 ( rapid move to begin. )
G01 F100.00000
( Mill infeed pass 1/1 )
G01 Z-0.20000
(Suppressed: G04)
G01 F150.00000
G01 X25.87499 Y46.47500
G01 X25.90885 Y46.15278
G01 X26.00900 Y45.84457
G01 X26.17100 Y45.56395
G01 X26.38413 Y45.32684
G01 X26.65000 Y45.13266
G01 X26.94113 Y45.00274
G01 X27.26821 Y44.93322
G01 X27.58700 Y44.93350
G01 X27.90394 Y45.00089
G01 X28.19998 Y45.13266
G01 X28.46213 Y45.32314
G01 X28.67897 Y45.56395
G01 X28.84097 Y45.84457
G01 X28.94113 Y46.15278
G01 X28.97498 Y46.47500
G01 X28.94113 Y46.79728
G01 X28.84097 Y47.10545
G01 X28.67897 Y47.38607
G01 X28.46584 Y47.62318
G01 X28.19998 Y47.81736
G01 X27.90884 Y47.94729
G01 X27.58177 Y48.01681
G01 X27.26297 Y48.01653
G01 X26.94601 Y47.94914
G01 X26.65000 Y47.81736
G01 X26.38784 Y47.62689
G01 X26.17100 Y47.38607
G01 X26.00900 Y47.10545
G01 X25.90885 Y46.79728
G01 X25.87499 Y46.47500
(Suppressed: G04)
G00 Z5.00000 ( retract )

G00 X33.49499 Y33.77500 ( rapid move to begin. )
G01 F100.00000
( Mill infeed pass 1/1 )
G01 Z-0.20000
(Suppressed: G04)
G01 F150.00000
G01 X33.49499 Y33.77500
G01 X33.52885 Y33.45275
G01 X33.62900 Y33.14457
G01 X33.79100 Y32.86395
G01 X34.00413 Y32.62684
G01 X34.27000 Y32.43266
G01 X34.56113 Y32.30274
G01 X34.88821 Y32.23322
G01 X35.20700 Y32.23350
G01 X35.52397 Y32.30089
G01 X35.81998 Y32.43266
G01 X36.08213 Y32.62314
G01 X36.29897 Y32.86395
G01 X36.46097 Y33.14457
G01 X36.56113 Y33.45275
G01 X36.59498 Y33.77500
G01 X36.56113 Y34.09728
G01 X36.46097 Y34.40545
G01 X36.29897 Y34.68607
G01 X36.08584 Y34.92318
G01 X35.81998 Y35.11736
G01 X35.52884 Y35.24729
G01 X35.20177 Y35.31681
G01 X34.88297 Y35.31653
G01 X34.56601 Y35.24914
G01 X34.27000 Y35.11736
G01 X34.00784 Y34.92689
G01 X33.79100 Y34.68607
G01 X33.62900 Y34.40545
G01 X33.52885 Y34.09728
G01 X33.49499 Y33.77500
(Suppressed: G04)
G00 Z5.00000 ( retract )

G00 X25.87499 Y32.27500 ( rapid move to begin. )
G01 F100.00000
( Mill infeed pass 1/1 )
G01 Z-0.20000
(Suppressed: G04)
G01 F150.00000
G01 X25.87499 Y32.27500
G01 X25.87499 Y35.27502
G01 X25.87880 Y35.29415
G01 X25.89722 Y35.31658
G01 X25.92498 Y35.32501
G01 X28.93475 Y35.32404
G01 X28.96035 Y35.31038
G01 X28.97117 Y35.29415
G01 X28.97498 Y35.27502
G01 X28.97498 Y34.57502
G01 X30.09360 Y34.57502
G01 X32.65877 Y37.14020
G01 X32.75750 Y37.22391
G01 X32.85786 Y37.28541
G01 X32.97358 Y37.33402
G01 X33.10322 Y37.36514
G01 X33.22448 Y37.37454
G01 X34.24498 Y37.37454
G01 X34.24498 Y45.15049
G01 X34.00784 Y45.32314
G01 X33.79430 Y45.55989
G01 X33.63136 Y45.83990
G01 X33.52885 Y46.15278
G01 X33.49527 Y46.48023
G01 X33.52885 Y46.79728
G01 X33.62900 Y47.10545
G01 X33.79100 Y47.38607
G01 X34.00413 Y47.62318
G01 X34.27464 Y47.81973
G01 X34.56601 Y47.94914
G01 X34.88297 Y48.01653
G01 X35.20700 Y48.01653
G01 X35.52397 Y47.94914
G01 X35.81998 Y47.81736
G01 X36.08213 Y47.62689
G01 X36.29897 Y47.38607
G01 X36.46097 Y47.10545
G01 X36.56113 Y46.79728
G01 X36.59470 Y46.48023
G01 X36.56113 Y46.15278
G01 X36.45861 Y45.83990
G01 X36.29567 Y45.55989
G01 X36.08213 Y45.32314
G01 X35.84500 Y45.15049
G01 X35.84500 Y37.37454
G01 X46.52550 Y37.37454
G01 X46.65448 Y37.36392
G01 X46.77637 Y37.33402
G01 X46.89209 Y37.28541
G01 X46.99880 Y37.21932
G01 X47.09118 Y37.14020
G01 X49.65635 Y34.57502
G01 X50.77499 Y34.57502
G01 X50.77499 Y35.77502
G01 X50.77880 Y35.79415
G01 X50.78962 Y35.81038
G01 X50.81523 Y35.82404
G01 X54.82497 Y35.82501
G01 X54.84410 Y35.82120
G01 X54.86033 Y35.81038
G01 X54.87402 Y35.78477
G01 X54.87498 Y32.77500
G01 X54.87117 Y32.75588
G01 X54.86033 Y32.73965
G01 X54.83475 Y32.72598
G01 X50.82498 Y32.72501
G01 X50.80585 Y32.72882
G01 X50.78962 Y32.73965
G01 X50.77596 Y32.76525
G01 X50.77499 Y32.97500
G01 X49.32498 Y32.97500
G01 X49.19597 Y32.98562
G01 X49.07408 Y33.01551
G01 X48.95836 Y33.06413
G01 X48.85800 Y33.12562
G01 X48.75927 Y33.20934
G01 X46.19410 Y35.77451
G01 X33.55585 Y35.77451
G01 X30.99068 Y33.20934
G01 X30.89195 Y33.12562
G01 X30.78461 Y33.06057
G01 X30.67587 Y33.01551
G01 X30.55398 Y32.98562
G01 X30.42891 Y32.97518
G01 X28.97498 Y32.97500
G01 X28.97498 Y32.27500
G01 X28.97117 Y32.25588
G01 X28.96035 Y32.23965
G01 X28.93475 Y32.22598
G01 X25.92498 Y32.22502
G01 X25.90585 Y32.22883
G01 X25.88962 Y32.23965
G01 X25.87880 Y32.25588
G01 X25.87499 Y32.27500
(Suppressed: G04)
G00 Z5.00000 ( retract )

G00 X33.57881 Y20.22410 ( rapid move to begin. )
G01 F100.00000
( Mill infeed pass 1/1 )
G01 Z-0.20000
(Suppressed: G04)
G01 F150.00000
G01 X33.57881 Y20.22410
G01 X33.61267 Y19.90185
G01 X33.71282 Y19.59367
G01 X33.87482 Y19.31308
G01 X34.08795 Y19.07594
G01 X34.35382 Y18.88176
G01 X34.64495 Y18.75184
G01 X34.97203 Y18.68235
G01 X35.29082 Y18.68260
G01 X35.60779 Y18.74999
G01 X35.90380 Y18.88176
G01 X36.16595 Y19.07224
G01 X36.38279 Y19.31308
G01 X36.54479 Y19.59367
G01 X36.64495 Y19.90185
G01 X36.67880 Y20.22410
G01 X36.64495 Y20.54640
G01 X36.54479 Y20.85458
G01 X36.38279 Y21.13517
G01 X36.16966 Y21.37228
G01 X35.90380 Y21.56646
G01 X35.61266 Y21.69639
G01 X35.28559 Y21.76591
G01 X34.96679 Y21.76563
G01 X34.64983 Y21.69824
G01 X34.35382 Y21.56646
G01 X34.09166 Y21.37599
G01 X33.87482 Y21.13517
G01 X33.71282 Y20.85458
G01 X33.61267 Y20.54640
G01 X33.57881 Y20.22410
(Suppressed: G04)
G00 Z5.00000 ( retract )

G00 X31.07691 Y17.72220 ( rapid move to begin. )
G01 F100.00000
( Mill infeed pass 1/1 )
G01 Z-0.20000
(Suppressed: G04)
G01 F150.00000
G01 X31.07691 Y17.72220
G01 X31.11077 Y17.39995
G01 X31.21092 Y17.09177
G01 X31.37292 Y16.81115
G01 X31.58605 Y16.57404
G01 X31.85192 Y16.37986
G01 X32.14305 Y16.24994
G01 X32.47013 Y16.18042
G01 X32.78892 Y16.18070
G01 X33.10589 Y16.24809
G01 X33.40190 Y16.37986
G01 X33.66405 Y16.57034
G01 X33.88089 Y16.81115
G01 X34.04289 Y17.09177
G01 X34.14305 Y17.39995
G01 X34.17690 Y17.72220
G01 X34.14305 Y18.04448
G01 X34.04289 Y18.35265
G01 X33.88089 Y18.63327
G01 X33.66776 Y18.87038
G01 X33.39725 Y19.06695
G01 X33.10589 Y19.19634
G01 X32.78369 Y19.26403
G01 X32.46489 Y19.26373
G01 X32.14793 Y19.19634
G01 X31.85192 Y19.06456
G01 X31.58976 Y18.87409
G01 X31.37292 Y18.63327
G01 X31.21092 Y18.35265
G01 X31.11077 Y18.04448
G01 X31.07691 Y17.72220
(Suppressed: G04)
G00 Z5.00000 ( retract )

G00 X33.57373 Y7.72730 ( rapid move to begin. )
G01 F100.00000
( Mill infeed pass 1/1 )
G01 Z-0.20000
(Suppressed: G04)
G01 F150.00000
G01 X33.57373 Y7.72730
G01 X33.60759 Y8.04958
G01 X33.70774 Y8.35775
G01 X33.86974 Y8.63837
G01 X34.08287 Y8.87548
G01 X34.34874 Y9.06966
G01 X34.63987 Y9.19959
G01 X34.96695 Y9.26911
G01 X35.28574 Y9.26883
G01 X35.60271 Y9.20144
G01 X35.89872 Y9.06966
G01 X36.16087 Y8.87919
G01 X36.37771 Y8.63837
G01 X36.53971 Y8.35775
G01 X36.63987 Y8.04958
G01 X36.67372 Y7.72730
G01 X36.63987 Y7.40505
G01 X36.53971 Y7.09687
G01 X36.37771 Y6.81625
G01 X36.16458 Y6.57914
G01 X35.89872 Y6.38496
G01 X35.60758 Y6.25504
G01 X35.28051 Y6.18552
G01 X34.96171 Y6.18580
G01 X34.64475 Y6.25319
G01 X34.34874 Y6.38496
G01 X34.08658 Y6.57544
G01 X33.86974 Y6.81625
G01 X33.70774 Y7.09687
G01 X33.60759 Y7.40505
G01 X33.57373 Y7.72730
(Suppressed: G04)
G00 Z5.00000 ( retract )

G00 X38.57499 Y17.72474 ( rapid move to begin. )
G01 F100.00000
( Mill infeed pass 1/1 )
G01 Z-0.20000
(Suppressed: G04)
G01 F150.00000
G01 X38.57499 Y17.72474
G01 X38.60885 Y17.40249
G01 X38.70900 Y17.09431
G01 X38.87100 Y16.81369
G01 X39.08413 Y16.57658
G01 X39.35000 Y16.38240
G01 X39.64113 Y16.25248
G01 X39.96821 Y16.18296
G01 X40.28700 Y16.18324
G01 X40.60397 Y16.25063
G01 X40.89998 Y16.38240
G01 X41.16213 Y16.57288
G01 X41.37897 Y16.81369
G01 X41.54097 Y17.09431
G01 X41.64113 Y17.40249
G01 X41.67498 Y17.72474
G01 X41.64113 Y18.04702
G01 X41.54097 Y18.35519
G01 X41.37897 Y18.63581
G01 X41.16584 Y18.87292
G01 X40.89998 Y19.06710
G01 X40.60884 Y19.19705
G01 X40.28177 Y19.26655
G01 X39.96297 Y19.26627
G01 X39.64601 Y19.19891
G01 X39.35000 Y19.06710
G01 X39.08784 Y18.87663
G01 X38.87100 Y18.63581
G01 X38.70900 Y18.35519
G01 X38.60885 Y18.04702
G01 X38.57499 Y17.72474
(Suppressed: G04)
G00 Z5.00000 ( retract )

G00 X43.57117 Y20.22410 ( rapid move to begin. )
G01 F100.00000
( Mill infeed pass 1/1 )
G01 Z-0.20000
(Suppressed: G04)
G01 F150.00000
G01 X43.57117 Y20.22410
G01 X43.60503 Y19.90185
G01 X43.70518 Y19.59367
G01 X43.86718 Y19.31308
G01 X44.08031 Y19.07594
G01 X44.34618 Y18.88176
G01 X44.63731 Y18.75184
G01 X44.96439 Y18.68235
G01 X45.28318 Y18.68260
G01 X45.60015 Y18.74999
G01 X45.89616 Y18.88176
G01 X46.15831 Y19.07224
G01 X46.37515 Y19.31308
G01 X46.53715 Y19.59367
G01 X46.63731 Y19.90185
G01 X46.67116 Y20.22410
G01 X46.63731 Y20.54640
G01 X46.53715 Y20.85458
G01 X46.37515 Y21.13517
G01 X46.16202 Y21.37228
G01 X45.89616 Y21.56646
G01 X45.60502 Y21.69639
G01 X45.27795 Y21.76591
G01 X44.95915 Y21.76563
G01 X44.64219 Y21.69824
G01 X44.34618 Y21.56646
G01 X44.08402 Y21.37599
G01 X43.86718 Y21.13517
G01 X43.70518 Y20.85458
G01 X43.60503 Y20.54640
G01 X43.57117 Y20.22410
(Suppressed: G04)
G00 Z5.00000 ( retract )

G00 X46.07307 Y17.72220 ( rapid move to begin. )
G01 F100.00000
( Mill infeed pass 1/1 )
G01 Z-0.20000
(Suppressed: G04)
G01 F150.00000
G01 X46.07307 Y17.72220
G01 X46.10693 Y17.39995
G01 X46.20708 Y17.09177
G01 X46.36908 Y16.81115
G01 X46.58221 Y16.57404
G01 X46.84808 Y16.37986
G01 X47.13921 Y16.24994
G01 X47.46629 Y16.18042
G01 X47.78508 Y16.18070
G01 X48.10205 Y16.24809
G01 X48.39806 Y16.37986
G01 X48.66021 Y16.57034
G01 X48.87705 Y16.81115
G01 X49.03905 Y17.09177
G01 X49.13921 Y17.39995
G01 X49.17306 Y17.72220
G01 X49.13921 Y18.04448
G01 X49.03905 Y18.35265
G01 X48.87705 Y18.63327
G01 X48.66392 Y18.87038
G01 X48.39341 Y19.06695
G01 X48.10205 Y19.19634
G01 X47.77985 Y19.26403
G01 X47.46105 Y19.26373
G01 X47.14409 Y19.19634
G01 X46.84808 Y19.06456
G01 X46.58592 Y18.87409
G01 X46.36908 Y18.63327
G01 X46.20708 Y18.35265
G01 X46.10693 Y18.04448
G01 X46.07307 Y17.72220
(Suppressed: G04)
G00 Z5.00000 ( retract )

G00 X43.57625 Y7.72730 ( rapid move to begin. )
G01 F100.00000
( Mill infeed pass 1/1 )
G01 Z-0.20000
(Suppressed: G04)
G01 F150.00000
G01 X43.57625 Y7.72730
G01 X43.61011 Y7.40505
G01 X43.71026 Y7.09687
G01 X43.87226 Y6.81625
G01 X44.08539 Y6.57914
G01 X44.35126 Y6.38496
G01 X44.64239 Y6.25504
G01 X44.96947 Y6.18552
G01 X45.28826 Y6.18580
G01 X45.60523 Y6.25319
G01 X45.90124 Y6.38496
G01 X46.16339 Y6.57544
G01 X46.38023 Y6.81625
G01 X46.54223 Y7.09687
G01 X46.64239 Y7.40505
G01 X46.67624 Y7.72730
G01 X46.64239 Y8.04958
G01 X46.54223 Y8.35775
G01 X46.38023 Y8.63837
G01 X46.16710 Y8.87548
G01 X45.90124 Y9.06966
G01 X45.61010 Y9.19959
G01 X45.28303 Y9.26911
G01 X44.96423 Y9.26883
G01 X44.64727 Y9.20144
G01 X44.35126 Y9.06966
G01 X44.08910 Y8.87919
G01 X43.87226 Y8.63837
G01 X43.71026 Y8.35775
G01 X43.61011 Y8.04958
G01 X43.57625 Y7.72730
(Suppressed: G04)
G00 Z5.00000 ( retract )

G00 X58.97373 Y7.72730 ( rapid move to begin. )
G01 F100.00000
( Mill infeed pass 1/1 )
G01 Z-0.20000
(Suppressed: G04)
G01 F150.00000
G01 X58.97373 Y7.72730
G01 X59.00759 Y8.04958
G01 X59.10774 Y8.35775
G01 X59.26974 Y8.63837
G01 X59.48287 Y8.87548
G01 X59.74874 Y9.06966
G01 X60.03987 Y9.19959
G01 X60.36695 Y9.26911
G01 X60.68574 Y9.26883
G01 X61.00271 Y9.20144
G01 X61.29872 Y9.06966
G01 X61.56087 Y8.87919
G01 X61.77771 Y8.63837
G01 X61.93971 Y8.35775
G01 X62.03987 Y8.04958
G01 X62.07372 Y7.72730
G01 X62.03987 Y7.40505
G01 X61.93971 Y7.09687
G01 X61.77771 Y6.81625
G01 X61.56458 Y6.57914
G01 X61.29872 Y6.38496
G01 X61.00758 Y6.25504
G01 X60.68051 Y6.18552
G01 X60.36171 Y6.18580
G01 X60.04475 Y6.25319
G01 X59.74874 Y6.38496
G01 X59.48658 Y6.57544
G01 X59.26974 Y6.81625
G01 X59.10774 Y7.09687
G01 X59.00759 Y7.40505
G01 X58.97373 Y7.72730
(Suppressed: G04)
G00 Z5.00000 ( retract )

G00 X68.97625 Y7.72730 ( rapid move to begin. )
G01 F100.00000
( Mill infeed pass 1/1 )
G01 Z-0.20000
(Suppressed: G04)
G01 F150.00000
G01 X68.97625 Y7.72730
G01 X69.01011 Y8.04958
G01 X69.11026 Y8.35775
G01 X69.27226 Y8.63837
G01 X69.48539 Y8.87548
G01 X69.75126 Y9.06966
G01 X70.04239 Y9.19959
G01 X70.36947 Y9.26911
G01 X70.68826 Y9.26883
G01 X71.00523 Y9.20144
G01 X71.30124 Y9.06966
G01 X71.56339 Y8.87919
G01 X71.78023 Y8.63837
G01 X71.94223 Y8.35775
G01 X72.04239 Y8.04958
G01 X72.07624 Y7.72730
G01 X72.04239 Y7.40505
G01 X71.94223 Y7.09687
G01 X71.78023 Y6.81625
G01 X71.56710 Y6.57914
G01 X71.30124 Y6.38496
G01 X71.01010 Y6.25504
G01 X70.68303 Y6.18552
G01 X70.36423 Y6.18580
G01 X70.04727 Y6.25319
G01 X69.75126 Y6.38496
G01 X69.48910 Y6.57544
G01 X69.27226 Y6.81625
G01 X69.11026 Y7.09687
G01 X69.01011 Y7.40505
G01 X68.97625 Y7.72730
(Suppressed: G04)
G00 Z5.00000 ( retract )

G00 X71.47307 Y17.72220 ( rapid move to begin. )
G01 F100.00000
( Mill infeed pass 1/1 )
G01 Z-0.20000
(Suppressed: G04)
G01 F150.00000
G01 X71.47307 Y17.72220
G01 X71.50693 Y18.04448
G01 X71.60708 Y18.35265
G01 X71.76908 Y18.63327
G01 X71.98221 Y18.87038
G01 X72.25272 Y19.06695
G01 X72.54409 Y19.19634
G01 X72.86629 Y19.26403
G01 X73.18508 Y19.26373
G01 X73.50205 Y19.19634
G01 X73.79806 Y19.06456
G01 X74.06021 Y18.87409
G01 X74.27705 Y18.63327
G01 X74.43905 Y18.35265
G01 X74.53921 Y18.04448
G01 X74.57306 Y17.72220
G01 X74.53921 Y17.39995
G01 X74.43905 Y17.09177
G01 X74.27705 Y16.81115
G01 X74.06392 Y16.57404
G01 X73.79806 Y16.37986
G01 X73.50692 Y16.24994
G01 X73.17985 Y16.18042
G01 X72.86105 Y16.18070
G01 X72.54409 Y16.24809
G01 X72.24808 Y16.37986
G01 X71.98592 Y16.57034
G01 X71.76908 Y16.81115
G01 X71.60708 Y17.09177
G01 X71.50693 Y17.39995
G01 X71.47307 Y17.72220
(Suppressed: G04)
G00 Z5.00000 ( retract )

G00 X68.97117 Y20.22410 ( rapid move to begin. )
G01 F100.00000
( Mill infeed pass 1/1 )
G01 Z-0.20000
(Suppressed: G04)
G01 F150.00000
G01 X68.97117 Y20.22410
G01 X69.00503 Y20.54640
G01 X69.10518 Y20.85458
G01 X69.26718 Y21.13517
G01 X69.48031 Y21.37228
G01 X69.74618 Y21.56646
G01 X70.03731 Y21.69639
G01 X70.36439 Y21.76591
G01 X70.68318 Y21.76563
G01 X71.00015 Y21.69824
G01 X71.29616 Y21.56646
G01 X71.55831 Y21.37599
G01 X71.77515 Y21.13517
G01 X71.93715 Y20.85458
G01 X72.03731 Y20.54640
G01 X72.07116 Y20.22410
G01 X72.03731 Y19.90185
G01 X71.93715 Y19.59367
G01 X71.77515 Y19.31308
G01 X71.56202 Y19.07594
G01 X71.29616 Y18.88176
G01 X71.00502 Y18.75184
G01 X70.67795 Y18.68235
G01 X70.35915 Y18.68260
G01 X70.04219 Y18.74999
G01 X69.74618 Y18.88176
G01 X69.48402 Y19.07224
G01 X69.26718 Y19.31308
G01 X69.10518 Y19.59367
G01 X69.00503 Y19.90185
G01 X68.97117 Y20.22410
(Suppressed: G04)
G00 Z5.00000 ( retract )

G00 X63.97499 Y17.72474 ( rapid move to begin. )
G01 F100.00000
( Mill infeed pass 1/1 )
G01 Z-0.20000
(Suppressed: G04)
G01 F150.00000
G01 X63.97499 Y17.72474
G01 X64.00885 Y18.04702
G01 X64.10900 Y18.35519
G01 X64.27100 Y18.63581
G01 X64.48413 Y18.87292
G01 X64.75000 Y19.06710
G01 X65.04113 Y19.19705
G01 X65.36821 Y19.26655
G01 X65.68700 Y19.26627
G01 X66.00397 Y19.19891
G01 X66.29998 Y19.06710
G01 X66.56213 Y18.87663
G01 X66.77897 Y18.63581
G01 X66.94097 Y18.35519
G01 X67.04113 Y18.04702
G01 X67.07498 Y17.72474
G01 X67.04113 Y17.40249
G01 X66.94097 Y17.09431
G01 X66.77897 Y16.81369
G01 X66.56584 Y16.57658
G01 X66.29998 Y16.38240
G01 X66.00884 Y16.25248
G01 X65.68177 Y16.18296
G01 X65.36297 Y16.18324
G01 X65.04601 Y16.25063
G01 X64.75000 Y16.38240
G01 X64.48784 Y16.57288
G01 X64.27100 Y16.81369
G01 X64.10900 Y17.09431
G01 X64.00885 Y17.40249
G01 X63.97499 Y17.72474
(Suppressed: G04)
G00 Z5.00000 ( retract )

G00 X58.97881 Y20.22410 ( rapid move to begin. )
G01 F100.00000
( Mill infeed pass 1/1 )
G01 Z-0.20000
(Suppressed: G04)
G01 F150.00000
G01 X58.97881 Y20.22410
G01 X59.01267 Y20.54640
G01 X59.11094 Y20.84968
G01 X59.27482 Y21.13517
G01 X59.49166 Y21.37599
G01 X59.74942 Y21.56359
G01 X60.05488 Y21.69961
G01 X60.37203 Y21.76591
G01 X60.69082 Y21.76563
G01 X61.01386 Y21.69585
G01 X61.11142 Y21.71864
G01 X61.23268 Y21.72803
G01 X65.04659 Y21.72803
G01 X89.42396 Y46.10535
G01 X89.40804 Y46.15793
G01 X89.37499 Y46.47500
G01 X89.41022 Y46.80233
G01 X89.50900 Y47.10545
G01 X89.66816 Y47.38168
G01 X89.88784 Y47.62689
G01 X90.15000 Y47.81736
G01 X90.44601 Y47.94914
G01 X90.76297 Y48.01653
G01 X91.08700 Y48.01653
G01 X91.40397 Y47.94914
G01 X91.69998 Y47.81736
G01 X91.96213 Y47.62689
G01 X92.17567 Y47.39014
G01 X92.34285 Y47.10058
G01 X92.44113 Y46.79728
G01 X92.47470 Y46.46979
G01 X92.44113 Y46.15278
G01 X92.34097 Y45.84457
G01 X92.17897 Y45.56395
G01 X91.96584 Y45.32684
G01 X91.69998 Y45.13266
G01 X91.39891 Y44.99951
G01 X91.08177 Y44.93322
G01 X90.76297 Y44.93350
G01 X90.55812 Y44.97676
G01 X65.94367 Y20.36233
G01 X65.82637 Y20.26581
G01 X65.67951 Y20.18730
G01 X65.52919 Y20.14267
G01 X65.37798 Y20.12801
G01 X62.06897 Y20.12801
G01 X62.04495 Y19.90185
G01 X61.94479 Y19.59367
G01 X61.78279 Y19.31308
G01 X61.56966 Y19.07594
G01 X61.30380 Y18.88176
G01 X61.01266 Y18.75184
G01 X60.68559 Y18.68235
G01 X60.36679 Y18.68260
G01 X60.04983 Y18.74999
G01 X59.75382 Y18.88176
G01 X59.49166 Y19.07224
G01 X59.27482 Y19.31308
G01 X59.11282 Y19.59367
G01 X59.01267 Y19.90185
G01 X58.97881 Y20.22410
(Suppressed: G04)
G00 Z5.00000 ( retract )

G00 X56.47691 Y17.72220 ( rapid move to begin. )
G01 F100.00000
( Mill infeed pass 1/1 )
G01 Z-0.20000
(Suppressed: G04)
G01 F150.00000
G01 X56.47691 Y17.72220
G01 X56.51077 Y18.04448
G01 X56.61092 Y18.35265
G01 X56.77292 Y18.63327
G01 X56.98605 Y18.87038
G01 X57.25656 Y19.06695
G01 X57.54793 Y19.19634
G01 X57.87013 Y19.26403
G01 X58.18892 Y19.26373
G01 X58.50589 Y19.19634
G01 X58.80190 Y19.06456
G01 X59.06405 Y18.87409
G01 X59.28089 Y18.63327
G01 X59.44289 Y18.35265
G01 X59.54305 Y18.04448
G01 X59.57690 Y17.72220
G01 X59.54305 Y17.39995
G01 X59.44289 Y17.09177
G01 X59.28089 Y16.81115
G01 X59.06776 Y16.57404
G01 X58.80190 Y16.37986
G01 X58.51076 Y16.24994
G01 X58.18369 Y16.18042
G01 X57.86489 Y16.18070
G01 X57.54793 Y16.24809
G01 X57.25192 Y16.37986
G01 X56.98976 Y16.57034
G01 X56.77292 Y16.81115
G01 X56.61092 Y17.09177
G01 X56.51077 Y17.39995
G01 X56.47691 Y17.72220
(Suppressed: G04)
G00 Z5.00000 ( retract )

G00 X50.78048 Y28.79955 ( rapid move to begin. )
G01 F100.00000
( Mill infeed pass 1/1 )
G01 Z-0.20000
(Suppressed: G04)
G01 F150.00000
G01 X50.78048 Y28.79955
G01 X50.78073 Y28.58525
G01 X50.82638 Y28.37054
G01 X50.91566 Y28.17001
G01 X51.04469 Y27.99244
G01 X51.20781 Y27.84555
G01 X51.39793 Y27.73579
G01 X51.60669 Y27.66795
G01 X51.82498 Y27.64501
G01 X53.82500 Y27.64501
G01 X54.04834 Y27.66932
G01 X54.25202 Y27.73579
G01 X54.43777 Y27.84270
G01 X54.60529 Y27.99244
G01 X54.73432 Y28.17001
G01 X54.82172 Y28.36566
G01 X54.86924 Y28.58525
G01 X54.86924 Y28.80478
G01 X54.82360 Y29.01948
G01 X54.73432 Y29.22002
G01 X54.60529 Y29.39759
G01 X54.44214 Y29.54448
G01 X54.25202 Y29.65423
G01 X54.04329 Y29.72207
G01 X53.82500 Y29.74501
G01 X51.82498 Y29.74501
G01 X51.60163 Y29.72070
G01 X51.39793 Y29.65423
G01 X51.21220 Y29.54732
G01 X51.04469 Y29.39759
G01 X50.91566 Y29.22002
G01 X50.82826 Y29.02436
G01 X50.78048 Y28.79955
G01 X50.78048 Y31.13048
G01 X50.82826 Y30.90566
G01 X50.91566 Y30.71001
G01 X51.04469 Y30.53244
G01 X51.21220 Y30.38270
G01 X51.39793 Y30.27579
G01 X51.60163 Y30.20932
G01 X51.82498 Y30.18501
G01 X53.82500 Y30.18501
G01 X54.04329 Y30.20795
G01 X54.25202 Y30.27579
G01 X54.43777 Y30.38270
G01 X54.60529 Y30.53244
G01 X54.73668 Y30.71468
G01 X54.82360 Y30.91054
G01 X54.86840 Y31.12009
G01 X54.86924 Y31.34478
G01 X54.82172 Y31.56436
G01 X54.73432 Y31.76002
G01 X54.60859 Y31.93353
G01 X54.43777 Y32.08732
G01 X54.24717 Y32.19611
G01 X54.04329 Y32.26207
G01 X53.83020 Y32.28473
G01 X51.82498 Y32.28501
G01 X51.60669 Y32.26207
G01 X51.39793 Y32.19423
G01 X51.21220 Y32.08732
G01 X51.04139 Y31.93353
G01 X50.91566 Y31.76002
G01 X50.82638 Y31.55948
G01 X50.78073 Y31.34478
G01 X50.78048 Y31.13048
(Suppressed: G04)
G00 Z5.00000 ( retract )

G00 X58.40048 Y31.33955 ( rapid move to begin. )
G01 F100.00000
( Mill infeed pass 1/1 )
G01 Z-0.20000
(Suppressed: G04)
G01 F150.00000
G01 X58.40048 Y31.33955
G01 X58.40073 Y31.12525
G01 X58.44638 Y30.91054
G01 X58.53566 Y30.71001
G01 X58.66469 Y30.53244
G01 X58.82781 Y30.38555
G01 X59.01793 Y30.27579
G01 X59.22669 Y30.20795
G01 X59.44498 Y30.18501
G01 X61.44500 Y30.18501
G01 X61.66834 Y30.20932
G01 X61.87205 Y30.27579
G01 X62.05777 Y30.38270
G01 X62.22529 Y30.53244
G01 X62.35432 Y30.71001
G01 X62.44172 Y30.90566
G01 X62.48924 Y31.12525
G01 X62.48924 Y31.34478
G01 X62.44360 Y31.55948
G01 X62.35432 Y31.76002
G01 X62.22529 Y31.93759
G01 X62.06217 Y32.08448
G01 X61.87205 Y32.19423
G01 X61.66329 Y32.26207
G01 X61.44500 Y32.28501
G01 X59.44498 Y32.28501
G01 X59.22163 Y32.26070
G01 X59.01793 Y32.19423
G01 X58.83220 Y32.08732
G01 X58.66469 Y31.93759
G01 X58.53566 Y31.76002
G01 X58.44826 Y31.56436
G01 X58.40048 Y31.33955
G01 X58.40048 Y33.67048
G01 X58.44826 Y33.44566
G01 X58.53566 Y33.25001
G01 X58.66469 Y33.07244
G01 X58.83220 Y32.92270
G01 X59.01793 Y32.81579
G01 X59.22163 Y32.74932
G01 X59.44498 Y32.72501
G01 X61.44500 Y32.72501
G01 X61.66329 Y32.74795
G01 X61.87672 Y32.81816
G01 X62.06217 Y32.92555
G01 X62.22529 Y33.07244
G01 X62.35668 Y33.25468
G01 X62.44360 Y33.45054
G01 X62.48840 Y33.66009
G01 X62.48924 Y33.88478
G01 X62.44172 Y34.10436
G01 X62.35432 Y34.30002
G01 X62.22859 Y34.47353
G01 X62.05777 Y34.62732
G01 X61.86717 Y34.73611
G01 X61.66329 Y34.80207
G01 X61.45020 Y34.82473
G01 X59.44498 Y34.82501
G01 X59.22669 Y34.80207
G01 X59.01793 Y34.73423
G01 X58.83220 Y34.62732
G01 X58.66139 Y34.47353
G01 X58.53566 Y34.30002
G01 X58.44638 Y34.09949
G01 X58.40073 Y33.88478
G01 X58.40048 Y33.67048
(Suppressed: G04)
G00 Z5.00000 ( retract )

G00 X51.27499 Y44.97500 ( rapid move to begin. )
G01 F100.00000
( Mill infeed pass 1/1 )
G01 Z-0.20000
(Suppressed: G04)
G01 F150.00000
G01 X51.27499 Y44.97500
G01 X51.27499 Y47.97502
G01 X51.27880 Y47.99415
G01 X51.28962 Y48.01038
G01 X51.30585 Y48.02120
G01 X51.32498 Y48.02501
G01 X54.32497 Y48.02501
G01 X54.34410 Y48.02120
G01 X54.36035 Y48.01038
G01 X54.37117 Y47.99415
G01 X54.37498 Y47.97502
G01 X54.37498 Y44.97500
G01 X54.37117 Y44.95588
G01 X54.36035 Y44.93965
G01 X54.34410 Y44.92883
G01 X54.32497 Y44.92502
G01 X51.32498 Y44.92502
G01 X51.30585 Y44.92883
G01 X51.28962 Y44.93965
G01 X51.27880 Y44.95588
G01 X51.27499 Y44.97500
(Suppressed: G04)
G00 Z5.00000 ( retract )

G00 X51.67499 Y59.85148 ( rapid move to begin. )
G01 F100.00000
( Mill infeed pass 1/1 )
G01 Z-0.20000
(Suppressed: G04)
G01 F150.00000
G01 X51.67499 Y59.85148
G01 X51.67499 Y57.49855
G01 X51.68314 Y57.42088
G01 X51.70539 Y57.35151
G01 X51.74961 Y57.27493
G01 X51.79859 Y57.22095
G01 X51.86640 Y57.17269
G01 X51.93813 Y57.14193
G01 X52.00430 Y57.12789
G01 X52.04852 Y57.12502
G01 X53.63790 Y57.12685
G01 X53.72175 Y57.14516
G01 X53.78822 Y57.17505
G01 X53.85139 Y57.22095
G01 X53.90364 Y57.27899
G01 X53.94270 Y57.34661
G01 X53.96683 Y57.42088
G01 X53.97499 Y57.49855
G01 X53.97499 Y59.85148
G01 X53.96683 Y59.92915
G01 X53.94456 Y59.99852
G01 X53.90033 Y60.07510
G01 X53.85139 Y60.12907
G01 X53.78822 Y60.17497
G01 X53.71690 Y60.20672
G01 X53.63790 Y60.22318
G01 X52.01207 Y60.22318
G01 X51.93308 Y60.20672
G01 X51.86640 Y60.17733
G01 X51.79488 Y60.12537
G01 X51.74631 Y60.07104
G01 X51.70727 Y60.00342
G01 X51.68314 Y59.92915
G01 X51.67499 Y59.85148
G01 X51.67499 Y61.81503
G01 X51.70011 Y61.57591
G01 X51.77253 Y61.35216
G01 X51.89462 Y61.13905
G01 X52.05548 Y60.96039
G01 X52.24560 Y60.82194
G01 X52.46963 Y60.72130
G01 X52.71001 Y60.67103
G01 X52.94519 Y60.67131
G01 X53.18035 Y60.72130
G01 X53.39998 Y60.81909
G01 X53.59043 Y60.95711
G01 X53.75820 Y61.14345
G01 X53.87557 Y61.34726
G01 X53.95068 Y61.58109
G01 X53.97499 Y61.81503
G01 X53.97499 Y62.61502
G01 X53.94986 Y62.85411
G01 X53.87745 Y63.07786
G01 X53.75533 Y63.29097
G01 X53.59449 Y63.46963
G01 X53.39998 Y63.61093
G01 X53.18035 Y63.70872
G01 X52.95035 Y63.75790
G01 X52.70478 Y63.75871
G01 X52.47468 Y63.71009
G01 X52.24560 Y63.60809
G01 X52.05548 Y63.46963
G01 X51.89462 Y63.29097
G01 X51.77441 Y63.08276
G01 X51.70148 Y62.85917
G01 X51.67499 Y62.61502
G01 X51.67499 Y61.81503
(Suppressed: G04)
G00 Z5.00000 ( retract )

G00 X54.21499 Y61.81503 ( rapid move to begin. )
G01 F100.00000
( Mill infeed pass 1/1 )
G01 Z-0.20000
(Suppressed: G04)
G01 F150.00000
G01 X54.21499 Y61.81503
G01 X54.24148 Y61.57086
G01 X54.31441 Y61.34726
G01 X54.43178 Y61.14345
G01 X54.59548 Y60.96039
G01 X54.78999 Y60.81909
G01 X55.01468 Y60.71995
G01 X55.24478 Y60.67131
G01 X55.47996 Y60.67103
G01 X55.72035 Y60.72130
G01 X55.94437 Y60.82194
G01 X56.13449 Y60.96039
G01 X56.29535 Y61.13905
G01 X56.41557 Y61.34726
G01 X56.49068 Y61.58109
G01 X56.51498 Y61.81503
G01 X56.51498 Y62.61502
G01 X56.49068 Y62.84893
G01 X56.41557 Y63.08276
G01 X56.29535 Y63.29097
G01 X56.13449 Y63.46963
G01 X55.93998 Y63.61093
G01 X55.72035 Y63.70872
G01 X55.49037 Y63.75790
G01 X55.24478 Y63.75871
G01 X55.01468 Y63.71009
G01 X54.78560 Y63.60809
G01 X54.59548 Y63.46963
G01 X54.43462 Y63.29097
G01 X54.31441 Y63.08276
G01 X54.24148 Y62.85917
G01 X54.21499 Y62.61502
G01 X54.21499 Y61.81503
(Suppressed: G04)
G00 Z5.00000 ( retract )

G00 X56.75499 Y61.81503 ( rapid move to begin. )
G01 F100.00000
( Mill infeed pass 1/1 )
G01 Z-0.20000
(Suppressed: G04)
G01 F150.00000
G01 X56.75499 Y61.81503
G01 X56.75499 Y62.61502
G01 X56.78148 Y62.85917
G01 X56.85441 Y63.08276
G01 X56.97462 Y63.29097
G01 X57.13548 Y63.46963
G01 X57.32560 Y63.60809
G01 X57.55468 Y63.71009
G01 X57.78478 Y63.75871
G01 X58.03037 Y63.75790
G01 X58.26035 Y63.70872
G01 X58.47998 Y63.61093
G01 X58.67449 Y63.46963
G01 X58.83535 Y63.29097
G01 X58.95557 Y63.08276
G01 X59.03068 Y62.84893
G01 X59.05498 Y62.61502
G01 X59.05498 Y61.81503
G01 X59.03068 Y61.58109
G01 X58.95557 Y61.34726
G01 X58.83535 Y61.13905
G01 X58.67449 Y60.96039
G01 X58.48437 Y60.82194
G01 X58.26035 Y60.72130
G01 X58.01996 Y60.67103
G01 X57.78478 Y60.67131
G01 X57.55468 Y60.71995
G01 X57.32999 Y60.81909
G01 X57.13548 Y60.96039
G01 X56.97178 Y61.14345
G01 X56.85441 Y61.34726
G01 X56.78148 Y61.57086
G01 X56.75499 Y61.81503
G01 X56.75499 Y59.07503
G01 X56.78011 Y59.31412
G01 X56.85253 Y59.53786
G01 X56.97790 Y59.75503
G01 X57.13548 Y59.92963
G01 X57.32999 Y60.07093
G01 X57.54963 Y60.16872
G01 X57.77960 Y60.21790
G01 X58.03037 Y60.21790
G01 X58.26035 Y60.16872
G01 X58.47998 Y60.07093
G01 X58.67449 Y59.92963
G01 X58.83207 Y59.75503
G01 X58.95745 Y59.53786
G01 X59.02986 Y59.31412
G01 X59.05471 Y59.08023
G01 X59.05471 Y58.26979
G01 X59.02986 Y58.03591
G01 X58.95557 Y57.80726
G01 X58.83535 Y57.59906
G01 X58.70500 Y57.45387
G01 X58.70500 Y56.47503
G01 X79.47359 Y56.47503
G01 X81.80396 Y58.80538
G01 X81.78804 Y58.85791
G01 X81.75527 Y59.18023
G01 X81.78885 Y59.49728
G01 X81.88900 Y59.80545
G01 X82.05100 Y60.08607
G01 X82.26413 Y60.32318
G01 X82.53464 Y60.51973
G01 X82.82601 Y60.64914
G01 X83.13779 Y60.71571
G01 X83.46177 Y60.71681
G01 X83.78397 Y60.64914
G01 X84.07998 Y60.51736
G01 X84.34584 Y60.32318
G01 X84.55897 Y60.08607
G01 X84.71861 Y59.81013
G01 X84.82113 Y59.49728
G01 X84.85498 Y59.17500
G01 X84.82113 Y58.85275
G01 X84.72097 Y58.54457
G01 X84.55897 Y58.26395
G01 X84.34213 Y58.02314
G01 X84.07998 Y57.83266
G01 X83.77891 Y57.69951
G01 X83.46177 Y57.63322
G01 X83.14297 Y57.63350
G01 X82.93810 Y57.67678
G01 X80.36701 Y55.10605
G01 X80.24521 Y55.00732
G01 X80.10650 Y54.93427
G01 X79.95619 Y54.88966
G01 X79.80498 Y54.87501
G01 X57.90500 Y54.87501
G01 X57.74892 Y54.89040
G01 X57.60345 Y54.93427
G01 X57.46474 Y55.00732
G01 X57.33929 Y55.10932
G01 X57.23728 Y55.23477
G01 X57.16423 Y55.37348
G01 X57.12037 Y55.51895
G01 X57.10498 Y55.67501
G01 X57.10498 Y57.45387
G01 X56.97462 Y57.59906
G01 X56.85679 Y57.80261
G01 X56.78011 Y58.03591
G01 X56.75499 Y58.27500
G01 X56.75499 Y59.07503
(Suppressed: G04)
G00 Z5.00000 ( retract )

G00 X59.29499 Y58.27500 ( rapid move to begin. )
G01 F100.00000
( Mill infeed pass 1/1 )
G01 Z-0.20000
(Suppressed: G04)
G01 F150.00000
G01 X59.29499 Y58.27500
G01 X59.32148 Y58.03086
G01 X59.39441 Y57.80726
G01 X59.51178 Y57.60345
G01 X59.67548 Y57.42039
G01 X59.86999 Y57.27909
G01 X60.09468 Y57.17993
G01 X60.32478 Y57.13132
G01 X60.55996 Y57.13104
G01 X60.80035 Y57.18130
G01 X61.02437 Y57.28194
G01 X61.21449 Y57.42039
G01 X61.37535 Y57.59906
G01 X61.49557 Y57.80726
G01 X61.57068 Y58.04109
G01 X61.59499 Y58.27500
G01 X61.59499 Y59.07503
G01 X61.57068 Y59.30893
G01 X61.49557 Y59.54277
G01 X61.37535 Y59.75097
G01 X61.21449 Y59.92963
G01 X61.01998 Y60.07093
G01 X60.80035 Y60.16872
G01 X60.57037 Y60.21790
G01 X60.31960 Y60.21790
G01 X60.08963 Y60.16872
G01 X59.86560 Y60.06809
G01 X59.67548 Y59.92963
G01 X59.51462 Y59.75097
G01 X59.39441 Y59.54277
G01 X59.32148 Y59.31917
G01 X59.29499 Y59.07503
G01 X59.29499 Y58.27500
(Suppressed: G04)
G00 Z5.00000 ( retract )

G00 X61.83499 Y61.81503 ( rapid move to begin. )
G01 F100.00000
( Mill infeed pass 1/1 )
G01 Z-0.20000
(Suppressed: G04)
G01 F150.00000
G01 X61.83499 Y61.81503
G01 X61.83499 Y62.61502
G01 X61.86148 Y62.85917
G01 X61.93441 Y63.08276
G01 X62.05462 Y63.29097
G01 X62.21548 Y63.46963
G01 X62.40560 Y63.60809
G01 X62.63468 Y63.71009
G01 X62.86478 Y63.75871
G01 X63.11037 Y63.75790
G01 X63.34035 Y63.70872
G01 X63.55998 Y63.61093
G01 X63.75449 Y63.46963
G01 X63.91535 Y63.29097
G01 X64.03557 Y63.08276
G01 X64.11068 Y62.84893
G01 X64.13499 Y62.61502
G01 X64.13499 Y61.81503
G01 X64.11068 Y61.58109
G01 X64.03557 Y61.34726
G01 X63.91535 Y61.13905
G01 X63.75449 Y60.96039
G01 X63.56437 Y60.82194
G01 X63.34035 Y60.72130
G01 X63.09996 Y60.67103
G01 X62.86478 Y60.67131
G01 X62.63468 Y60.71995
G01 X62.40999 Y60.81909
G01 X62.21548 Y60.96039
G01 X62.05178 Y61.14345
G01 X61.93441 Y61.34726
G01 X61.86148 Y61.57086
G01 X61.83499 Y61.81503
G01 X61.83499 Y59.07503
G01 X61.86148 Y59.31917
G01 X61.93441 Y59.54277
G01 X62.05178 Y59.74658
G01 X62.21548 Y59.92963
G01 X62.40999 Y60.07093
G01 X62.63468 Y60.17007
G01 X62.86478 Y60.21871
G01 X63.09996 Y60.21899
G01 X63.34035 Y60.16872
G01 X63.56437 Y60.06809
G01 X63.75449 Y59.92963
G01 X63.91535 Y59.75097
G01 X64.03557 Y59.54277
G01 X64.11068 Y59.30893
G01 X64.13499 Y59.07503
G01 X64.13499 Y58.27500
G01 X64.11068 Y58.04109
G01 X64.03557 Y57.80726
G01 X63.91535 Y57.59906
G01 X63.75449 Y57.42039
G01 X63.55998 Y57.27909
G01 X63.34035 Y57.18130
G01 X63.11037 Y57.13213
G01 X62.86478 Y57.13132
G01 X62.63468 Y57.17993
G01 X62.40560 Y57.28194
G01 X62.21548 Y57.42039
G01 X62.05462 Y57.59906
G01 X61.93441 Y57.80726
G01 X61.86148 Y58.03086
G01 X61.83499 Y58.27500
G01 X61.83499 Y59.07503
(Suppressed: G04)
G00 Z5.00000 ( retract )

G00 X66.27499 Y46.47500 ( rapid move to begin. )
G01 F100.00000
( Mill infeed pass 1/1 )
G01 Z-0.20000
(Suppressed: G04)
G01 F150.00000
G01 X66.27499 Y46.47500
G01 X66.30887 Y46.15278
G01 X66.40900 Y45.84457
G01 X66.57102 Y45.56395
G01 X66.78413 Y45.32684
G01 X67.04999 Y45.13266
G01 X67.34113 Y45.00274
G01 X67.66820 Y44.93322
G01 X67.98700 Y44.93350
G01 X68.30396 Y45.00089
G01 X68.59997 Y45.13266
G01 X68.86213 Y45.32314
G01 X69.07897 Y45.56395
G01 X69.24099 Y45.84457
G01 X69.34112 Y46.15278
G01 X69.37498 Y46.47500
G01 X69.34112 Y46.79728
G01 X69.24099 Y47.10545
G01 X69.07897 Y47.38607
G01 X68.86584 Y47.62318
G01 X68.59997 Y47.81736
G01 X68.30884 Y47.94729
G01 X67.98179 Y48.01681
G01 X67.66297 Y48.01653
G01 X67.34600 Y47.94914
G01 X67.04999 Y47.81736
G01 X66.78784 Y47.62689
G01 X66.57102 Y47.38607
G01 X66.40900 Y47.10545
G01 X66.30887 Y46.79728
G01 X66.27499 Y46.47500
(Suppressed: G04)
G00 Z5.00000 ( retract )

G00 X81.75499 Y46.47500 ( rapid move to begin. )
G01 F100.00000
( Mill infeed pass 1/1 )
G01 Z-0.20000
(Suppressed: G04)
G01 F150.00000
G01 X81.75499 Y46.47500
G01 X81.78885 Y46.15278
G01 X81.88900 Y45.84457
G01 X82.05100 Y45.56395
G01 X82.26413 Y45.32684
G01 X82.53000 Y45.13266
G01 X82.82113 Y45.00274
G01 X83.14821 Y44.93322
G01 X83.46700 Y44.93350
G01 X83.78397 Y45.00089
G01 X84.07998 Y45.13266
G01 X84.34213 Y45.32314
G01 X84.55897 Y45.56395
G01 X84.72097 Y45.84457
G01 X84.82113 Y46.15278
G01 X84.85498 Y46.47500
G01 X84.82113 Y46.79728
G01 X84.72097 Y47.10545
G01 X84.55897 Y47.38607
G01 X84.34584 Y47.62318
G01 X84.07998 Y47.81736
G01 X83.78884 Y47.94729
G01 X83.46177 Y48.01681
G01 X83.14297 Y48.01653
G01 X82.82601 Y47.94914
G01 X82.53000 Y47.81736
G01 X82.26784 Y47.62689
G01 X82.05100 Y47.38607
G01 X81.88900 Y47.10545
G01 X81.78885 Y46.79728
G01 X81.75499 Y46.47500
(Suppressed: G04)
G00 Z5.00000 ( retract )

G00 X89.37499 Y59.17500 ( rapid move to begin. )
G01 F100.00000
( Mill infeed pass 1/1 )
G01 Z-0.20000
(Suppressed: G04)
G01 F150.00000
G01 X89.37499 Y59.17500
G01 X89.40885 Y58.85275
G01 X89.50900 Y58.54457
G01 X89.67100 Y58.26395
G01 X89.88413 Y58.02684
G01 X90.15000 Y57.83266
G01 X90.44113 Y57.70274
G01 X90.76821 Y57.63322
G01 X91.08700 Y57.63350
G01 X91.40397 Y57.70089
G01 X91.69998 Y57.83266
G01 X91.96213 Y58.02314
G01 X92.17897 Y58.26395
G01 X92.34097 Y58.54457
G01 X92.44113 Y58.85275
G01 X92.47498 Y59.17500
G01 X92.44113 Y59.49728
G01 X92.34097 Y59.80545
G01 X92.17897 Y60.08607
G01 X91.96584 Y60.32318
G01 X91.69998 Y60.51736
G01 X91.40884 Y60.64729
G01 X91.08177 Y60.71681
G01 X90.76297 Y60.71653
G01 X90.44601 Y60.64914
G01 X90.15000 Y60.51736
G01 X89.88784 Y60.32689
G01 X89.67100 Y60.08607
G01 X89.50900 Y59.80545
G01 X89.40885 Y59.49728
G01 X89.37499 Y59.17500

(Suppressed: G04)
G00 Z5.000000 ( retract )

M5 ( Spindle off. )
(Suppressed: G04)
M9 ( Coolant off. )
M2 ( Program end. )

