( pcb2gcode 2.5.0 )
( Gcode for custom )

G94 ( Millimeters per minute feed rate. )
G21 ( Units == Millimeters. )

G90 ( Absolute coordinates. )
G00 S5600 ( RPM spindle speed. )
(Suppressed: G64 P0.01016 ( set maximum deviation from commanded toolpath ))
G01 F150.00000 ( Feedrate. )

#118 = 0
#119 = 0

(MSG, Attach the probe tool)
M0 ( Temporary machine stop. )
G0 Z5.000 ( Move Z to safe height )
G0 X25.87499 Y6.18552 ( Move XY to start point )
G0 Z5.000 ( Move Z to probe height )
G31 Z-3 F50.000000 ( Z-probe )
#500 = 0 ( Probe point [0, 0] is our reference )
G92 Z0 ( Set the current Z as zero-value )

( We now start the real probing: move the Z axis to the probing height, move to )
( the probing XY position, probe it and save the result, parameter #2002, )
( in a numbered parameter; we will make 15 probes on the X-axis and )
( 13 probes on the Y-axis, for a grand total of 195 probes )

G0 Z5.000
X25.87499 Y11.17131
G31 Z-3 F50.000000
#501=#2002
G0 Z5.000
X25.87499 Y16.15711
G31 Z-3 F50.000000
#502=#2002
G0 Z5.000
X25.87499 Y21.14290
G31 Z-3 F50.000000
#503=#2002
G0 Z5.000
X25.87499 Y26.12869
G31 Z-3 F50.000000
#504=#2002
G0 Z5.000
X25.87499 Y31.11449
G31 Z-3 F50.000000
#505=#2002
G0 Z5.000
X25.87499 Y36.10028
G31 Z-3 F50.000000
#506=#2002
G0 Z5.000
X25.87499 Y41.08607
G31 Z-3 F50.000000
#507=#2002
G0 Z5.000
X25.87499 Y46.07187
G31 Z-3 F50.000000
#508=#2002
G0 Z5.000
X25.87499 Y51.05766
G31 Z-3 F50.000000
#509=#2002
G0 Z5.000
X25.87499 Y56.04346
G31 Z-3 F50.000000
#510=#2002
G0 Z5.000
X25.87499 Y61.02925
G31 Z-3 F50.000000
#511=#2002
G0 Z5.000
X25.87499 Y66.01504
G31 Z-3 F50.000000
#512=#2002
G0 Z5.000
X30.63213 Y66.01504
G31 Z-3 F50.000000
#525=#2002
G0 Z5.000
X30.63213 Y61.02925
G31 Z-3 F50.000000
#524=#2002
G0 Z5.000
X30.63213 Y56.04346
G31 Z-3 F50.000000
#523=#2002
G0 Z5.000
X30.63213 Y51.05766
G31 Z-3 F50.000000
#522=#2002
G0 Z5.000
X30.63213 Y46.07187
G31 Z-3 F50.000000
#521=#2002
G0 Z5.000
X30.63213 Y41.08607
G31 Z-3 F50.000000
#520=#2002
G0 Z5.000
X30.63213 Y36.10028
G31 Z-3 F50.000000
#519=#2002
G0 Z5.000
X30.63213 Y31.11449
G31 Z-3 F50.000000
#518=#2002
G0 Z5.000
X30.63213 Y26.12869
G31 Z-3 F50.000000
#517=#2002
G0 Z5.000
X30.63213 Y21.14290
G31 Z-3 F50.000000
#516=#2002
G0 Z5.000
X30.63213 Y16.15711
G31 Z-3 F50.000000
#515=#2002
G0 Z5.000
X30.63213 Y11.17131
G31 Z-3 F50.000000
#514=#2002
G0 Z5.000
X30.63213 Y6.18552
G31 Z-3 F50.000000
#513=#2002
G0 Z5.000
X35.38928 Y6.18552
G31 Z-3 F50.000000
#526=#2002
G0 Z5.000
X35.38928 Y11.17131
G31 Z-3 F50.000000
#527=#2002
G0 Z5.000
X35.38928 Y16.15711
G31 Z-3 F50.000000
#528=#2002
G0 Z5.000
X35.38928 Y21.14290
G31 Z-3 F50.000000
#529=#2002
G0 Z5.000
X35.38928 Y26.12869
G31 Z-3 F50.000000
#530=#2002
G0 Z5.000
X35.38928 Y31.11449
G31 Z-3 F50.000000
#531=#2002
G0 Z5.000
X35.38928 Y36.10028
G31 Z-3 F50.000000
#532=#2002
G0 Z5.000
X35.38928 Y41.08607
G31 Z-3 F50.000000
#533=#2002
G0 Z5.000
X35.38928 Y46.07187
G31 Z-3 F50.000000
#534=#2002
G0 Z5.000
X35.38928 Y51.05766
G31 Z-3 F50.000000
#535=#2002
G0 Z5.000
X35.38928 Y56.04346
G31 Z-3 F50.000000
#536=#2002
G0 Z5.000
X35.38928 Y61.02925
G31 Z-3 F50.000000
#537=#2002
G0 Z5.000
X35.38928 Y66.01504
G31 Z-3 F50.000000
#538=#2002
G0 Z5.000
X40.14642 Y66.01504
G31 Z-3 F50.000000
#551=#2002
G0 Z5.000
X40.14642 Y61.02925
G31 Z-3 F50.000000
#550=#2002
G0 Z5.000
X40.14642 Y56.04346
G31 Z-3 F50.000000
#549=#2002
G0 Z5.000
X40.14642 Y51.05766
G31 Z-3 F50.000000
#548=#2002
G0 Z5.000
X40.14642 Y46.07187
G31 Z-3 F50.000000
#547=#2002
G0 Z5.000
X40.14642 Y41.08607
G31 Z-3 F50.000000
#546=#2002
G0 Z5.000
X40.14642 Y36.10028
G31 Z-3 F50.000000
#545=#2002
G0 Z5.000
X40.14642 Y31.11449
G31 Z-3 F50.000000
#544=#2002
G0 Z5.000
X40.14642 Y26.12869
G31 Z-3 F50.000000
#543=#2002
G0 Z5.000
X40.14642 Y21.14290
G31 Z-3 F50.000000
#542=#2002
G0 Z5.000
X40.14642 Y16.15711
G31 Z-3 F50.000000
#541=#2002
G0 Z5.000
X40.14642 Y11.17131
G31 Z-3 F50.000000
#540=#2002
G0 Z5.000
X40.14642 Y6.18552
G31 Z-3 F50.000000
#539=#2002
G0 Z5.000
X44.90356 Y6.18552
G31 Z-3 F50.000000
#552=#2002
G0 Z5.000
X44.90356 Y11.17131
G31 Z-3 F50.000000
#553=#2002
G0 Z5.000
X44.90356 Y16.15711
G31 Z-3 F50.000000
#554=#2002
G0 Z5.000
X44.90356 Y21.14290
G31 Z-3 F50.000000
#555=#2002
G0 Z5.000
X44.90356 Y26.12869
G31 Z-3 F50.000000
#556=#2002
G0 Z5.000
X44.90356 Y31.11449
G31 Z-3 F50.000000
#557=#2002
G0 Z5.000
X44.90356 Y36.10028
G31 Z-3 F50.000000
#558=#2002
G0 Z5.000
X44.90356 Y41.08607
G31 Z-3 F50.000000
#559=#2002
G0 Z5.000
X44.90356 Y46.07187
G31 Z-3 F50.000000
#560=#2002
G0 Z5.000
X44.90356 Y51.05766
G31 Z-3 F50.000000
#561=#2002
G0 Z5.000
X44.90356 Y56.04346
G31 Z-3 F50.000000
#562=#2002
G0 Z5.000
X44.90356 Y61.02925
G31 Z-3 F50.000000
#563=#2002
G0 Z5.000
X44.90356 Y66.01504
G31 Z-3 F50.000000
#564=#2002
G0 Z5.000
X49.66070 Y66.01504
G31 Z-3 F50.000000
#577=#2002
G0 Z5.000
X49.66070 Y61.02925
G31 Z-3 F50.000000
#576=#2002
G0 Z5.000
X49.66070 Y56.04346
G31 Z-3 F50.000000
#575=#2002
G0 Z5.000
X49.66070 Y51.05766
G31 Z-3 F50.000000
#574=#2002
G0 Z5.000
X49.66070 Y46.07187
G31 Z-3 F50.000000
#573=#2002
G0 Z5.000
X49.66070 Y41.08607
G31 Z-3 F50.000000
#572=#2002
G0 Z5.000
X49.66070 Y36.10028
G31 Z-3 F50.000000
#571=#2002
G0 Z5.000
X49.66070 Y31.11449
G31 Z-3 F50.000000
#570=#2002
G0 Z5.000
X49.66070 Y26.12869
G31 Z-3 F50.000000
#569=#2002
G0 Z5.000
X49.66070 Y21.14290
G31 Z-3 F50.000000
#568=#2002
G0 Z5.000
X49.66070 Y16.15711
G31 Z-3 F50.000000
#567=#2002
G0 Z5.000
X49.66070 Y11.17131
G31 Z-3 F50.000000
#566=#2002
G0 Z5.000
X49.66070 Y6.18552
G31 Z-3 F50.000000
#565=#2002
G0 Z5.000
X54.41784 Y6.18552
G31 Z-3 F50.000000
#578=#2002
G0 Z5.000
X54.41784 Y11.17131
G31 Z-3 F50.000000
#579=#2002
G0 Z5.000
X54.41784 Y16.15711
G31 Z-3 F50.000000
#580=#2002
G0 Z5.000
X54.41784 Y21.14290
G31 Z-3 F50.000000
#581=#2002
G0 Z5.000
X54.41784 Y26.12869
G31 Z-3 F50.000000
#582=#2002
G0 Z5.000
X54.41784 Y31.11449
G31 Z-3 F50.000000
#583=#2002
G0 Z5.000
X54.41784 Y36.10028
G31 Z-3 F50.000000
#584=#2002
G0 Z5.000
X54.41784 Y41.08607
G31 Z-3 F50.000000
#585=#2002
G0 Z5.000
X54.41784 Y46.07187
G31 Z-3 F50.000000
#586=#2002
G0 Z5.000
X54.41784 Y51.05766
G31 Z-3 F50.000000
#587=#2002
G0 Z5.000
X54.41784 Y56.04346
G31 Z-3 F50.000000
#588=#2002
G0 Z5.000
X54.41784 Y61.02925
G31 Z-3 F50.000000
#589=#2002
G0 Z5.000
X54.41784 Y66.01504
G31 Z-3 F50.000000
#590=#2002
G0 Z5.000
X59.17499 Y66.01504
G31 Z-3 F50.000000
#603=#2002
G0 Z5.000
X59.17499 Y61.02925
G31 Z-3 F50.000000
#602=#2002
G0 Z5.000
X59.17499 Y56.04346
G31 Z-3 F50.000000
#601=#2002
G0 Z5.000
X59.17499 Y51.05766
G31 Z-3 F50.000000
#600=#2002
G0 Z5.000
X59.17499 Y46.07187
G31 Z-3 F50.000000
#599=#2002
G0 Z5.000
X59.17499 Y41.08607
G31 Z-3 F50.000000
#598=#2002
G0 Z5.000
X59.17499 Y36.10028
G31 Z-3 F50.000000
#597=#2002
G0 Z5.000
X59.17499 Y31.11449
G31 Z-3 F50.000000
#596=#2002
G0 Z5.000
X59.17499 Y26.12869
G31 Z-3 F50.000000
#595=#2002
G0 Z5.000
X59.17499 Y21.14290
G31 Z-3 F50.000000
#594=#2002
G0 Z5.000
X59.17499 Y16.15711
G31 Z-3 F50.000000
#593=#2002
G0 Z5.000
X59.17499 Y11.17131
G31 Z-3 F50.000000
#592=#2002
G0 Z5.000
X59.17499 Y6.18552
G31 Z-3 F50.000000
#591=#2002
G0 Z5.000
X63.93213 Y6.18552
G31 Z-3 F50.000000
#604=#2002
G0 Z5.000
X63.93213 Y11.17131
G31 Z-3 F50.000000
#605=#2002
G0 Z5.000
X63.93213 Y16.15711
G31 Z-3 F50.000000
#606=#2002
G0 Z5.000
X63.93213 Y21.14290
G31 Z-3 F50.000000
#607=#2002
G0 Z5.000
X63.93213 Y26.12869
G31 Z-3 F50.000000
#608=#2002
G0 Z5.000
X63.93213 Y31.11449
G31 Z-3 F50.000000
#609=#2002
G0 Z5.000
X63.93213 Y36.10028
G31 Z-3 F50.000000
#610=#2002
G0 Z5.000
X63.93213 Y41.08607
G31 Z-3 F50.000000
#611=#2002
G0 Z5.000
X63.93213 Y46.07187
G31 Z-3 F50.000000
#612=#2002
G0 Z5.000
X63.93213 Y51.05766
G31 Z-3 F50.000000
#613=#2002
G0 Z5.000
X63.93213 Y56.04346
G31 Z-3 F50.000000
#614=#2002
G0 Z5.000
X63.93213 Y61.02925
G31 Z-3 F50.000000
#615=#2002
G0 Z5.000
X63.93213 Y66.01504
G31 Z-3 F50.000000
#616=#2002
G0 Z5.000
X68.68927 Y66.01504
G31 Z-3 F50.000000
#629=#2002
G0 Z5.000
X68.68927 Y61.02925
G31 Z-3 F50.000000
#628=#2002
G0 Z5.000
X68.68927 Y56.04346
G31 Z-3 F50.000000
#627=#2002
G0 Z5.000
X68.68927 Y51.05766
G31 Z-3 F50.000000
#626=#2002
G0 Z5.000
X68.68927 Y46.07187
G31 Z-3 F50.000000
#625=#2002
G0 Z5.000
X68.68927 Y41.08607
G31 Z-3 F50.000000
#624=#2002
G0 Z5.000
X68.68927 Y36.10028
G31 Z-3 F50.000000
#623=#2002
G0 Z5.000
X68.68927 Y31.11449
G31 Z-3 F50.000000
#622=#2002
G0 Z5.000
X68.68927 Y26.12869
G31 Z-3 F50.000000
#621=#2002
G0 Z5.000
X68.68927 Y21.14290
G31 Z-3 F50.000000
#620=#2002
G0 Z5.000
X68.68927 Y16.15711
G31 Z-3 F50.000000
#619=#2002
G0 Z5.000
X68.68927 Y11.17131
G31 Z-3 F50.000000
#618=#2002
G0 Z5.000
X68.68927 Y6.18552
G31 Z-3 F50.000000
#617=#2002
G0 Z5.000
X73.44641 Y6.18552
G31 Z-3 F50.000000
#630=#2002
G0 Z5.000
X73.44641 Y11.17131
G31 Z-3 F50.000000
#631=#2002
G0 Z5.000
X73.44641 Y16.15711
G31 Z-3 F50.000000
#632=#2002
G0 Z5.000
X73.44641 Y21.14290
G31 Z-3 F50.000000
#633=#2002
G0 Z5.000
X73.44641 Y26.12869
G31 Z-3 F50.000000
#634=#2002
G0 Z5.000
X73.44641 Y31.11449
G31 Z-3 F50.000000
#635=#2002
G0 Z5.000
X73.44641 Y36.10028
G31 Z-3 F50.000000
#636=#2002
G0 Z5.000
X73.44641 Y41.08607
G31 Z-3 F50.000000
#637=#2002
G0 Z5.000
X73.44641 Y46.07187
G31 Z-3 F50.000000
#638=#2002
G0 Z5.000
X73.44641 Y51.05766
G31 Z-3 F50.000000
#639=#2002
G0 Z5.000
X73.44641 Y56.04346
G31 Z-3 F50.000000
#640=#2002
G0 Z5.000
X73.44641 Y61.02925
G31 Z-3 F50.000000
#641=#2002
G0 Z5.000
X73.44641 Y66.01504
G31 Z-3 F50.000000
#642=#2002
G0 Z5.000
X78.20356 Y66.01504
G31 Z-3 F50.000000
#655=#2002
G0 Z5.000
X78.20356 Y61.02925
G31 Z-3 F50.000000
#654=#2002
G0 Z5.000
X78.20356 Y56.04346
G31 Z-3 F50.000000
#653=#2002
G0 Z5.000
X78.20356 Y51.05766
G31 Z-3 F50.000000
#652=#2002
G0 Z5.000
X78.20356 Y46.07187
G31 Z-3 F50.000000
#651=#2002
G0 Z5.000
X78.20356 Y41.08607
G31 Z-3 F50.000000
#650=#2002
G0 Z5.000
X78.20356 Y36.10028
G31 Z-3 F50.000000
#649=#2002
G0 Z5.000
X78.20356 Y31.11449
G31 Z-3 F50.000000
#648=#2002
G0 Z5.000
X78.20356 Y26.12869
G31 Z-3 F50.000000
#647=#2002
G0 Z5.000
X78.20356 Y21.14290
G31 Z-3 F50.000000
#646=#2002
G0 Z5.000
X78.20356 Y16.15711
G31 Z-3 F50.000000
#645=#2002
G0 Z5.000
X78.20356 Y11.17131
G31 Z-3 F50.000000
#644=#2002
G0 Z5.000
X78.20356 Y6.18552
G31 Z-3 F50.000000
#643=#2002
G0 Z5.000
X82.96070 Y6.18552
G31 Z-3 F50.000000
#656=#2002
G0 Z5.000
X82.96070 Y11.17131
G31 Z-3 F50.000000
#657=#2002
G0 Z5.000
X82.96070 Y16.15711
G31 Z-3 F50.000000
#658=#2002
G0 Z5.000
X82.96070 Y21.14290
G31 Z-3 F50.000000
#659=#2002
G0 Z5.000
X82.96070 Y26.12869
G31 Z-3 F50.000000
#660=#2002
G0 Z5.000
X82.96070 Y31.11449
G31 Z-3 F50.000000
#661=#2002
G0 Z5.000
X82.96070 Y36.10028
G31 Z-3 F50.000000
#662=#2002
G0 Z5.000
X82.96070 Y41.08607
G31 Z-3 F50.000000
#663=#2002
G0 Z5.000
X82.96070 Y46.07187
G31 Z-3 F50.000000
#664=#2002
G0 Z5.000
X82.96070 Y51.05766
G31 Z-3 F50.000000
#665=#2002
G0 Z5.000
X82.96070 Y56.04346
G31 Z-3 F50.000000
#666=#2002
G0 Z5.000
X82.96070 Y61.02925
G31 Z-3 F50.000000
#667=#2002
G0 Z5.000
X82.96070 Y66.01504
G31 Z-3 F50.000000
#668=#2002
G0 Z5.000
X87.71784 Y66.01504
G31 Z-3 F50.000000
#681=#2002
G0 Z5.000
X87.71784 Y61.02925
G31 Z-3 F50.000000
#680=#2002
G0 Z5.000
X87.71784 Y56.04346
G31 Z-3 F50.000000
#679=#2002
G0 Z5.000
X87.71784 Y51.05766
G31 Z-3 F50.000000
#678=#2002
G0 Z5.000
X87.71784 Y46.07187
G31 Z-3 F50.000000
#677=#2002
G0 Z5.000
X87.71784 Y41.08607
G31 Z-3 F50.000000
#676=#2002
G0 Z5.000
X87.71784 Y36.10028
G31 Z-3 F50.000000
#675=#2002
G0 Z5.000
X87.71784 Y31.11449
G31 Z-3 F50.000000
#674=#2002
G0 Z5.000
X87.71784 Y26.12869
G31 Z-3 F50.000000
#673=#2002
G0 Z5.000
X87.71784 Y21.14290
G31 Z-3 F50.000000
#672=#2002
G0 Z5.000
X87.71784 Y16.15711
G31 Z-3 F50.000000
#671=#2002
G0 Z5.000
X87.71784 Y11.17131
G31 Z-3 F50.000000
#670=#2002
G0 Z5.000
X87.71784 Y6.18552
G31 Z-3 F50.000000
#669=#2002
G0 Z5.000
X92.47498 Y6.18552
G31 Z-3 F50.000000
#682=#2002
G0 Z5.000
X92.47498 Y11.17131
G31 Z-3 F50.000000
#683=#2002
G0 Z5.000
X92.47498 Y16.15711
G31 Z-3 F50.000000
#684=#2002
G0 Z5.000
X92.47498 Y21.14290
G31 Z-3 F50.000000
#685=#2002
G0 Z5.000
X92.47498 Y26.12869
G31 Z-3 F50.000000
#686=#2002
G0 Z5.000
X92.47498 Y31.11449
G31 Z-3 F50.000000
#687=#2002
G0 Z5.000
X92.47498 Y36.10028
G31 Z-3 F50.000000
#688=#2002
G0 Z5.000
X92.47498 Y41.08607
G31 Z-3 F50.000000
#689=#2002
G0 Z5.000
X92.47498 Y46.07187
G31 Z-3 F50.000000
#690=#2002
G0 Z5.000
X92.47498 Y51.05766
G31 Z-3 F50.000000
#691=#2002
G0 Z5.000
X92.47498 Y56.04346
G31 Z-3 F50.000000
#692=#2002
G0 Z5.000
X92.47498 Y61.02925
G31 Z-3 F50.000000
#693=#2002
G0 Z5.000
X92.47498 Y66.01504
G31 Z-3 F50.000000
#694=#2002

G0 Z5.000 ( Move Z to safe height )
( Probing has ended, each Z-coordinate will be corrected with a bilinear interpolation )
(MSG, Detach the probe tool)
M0 ( Temporary machine stop. )


G00 Z5.00000 (Retract to tool change height)
T0
M5      (Spindle stop.)
(Suppressed: G04 P1.00000 (Wait for spindle to stop))
(MSG, Change tool bit to mill diameter 0.10000mm)
M0      (Temporary machine stop.)
M3 ( Spindle on clockwise. )
(Suppressed: G04 P1.00000 (Wait for spindle to get up to speed))
(Suppressed: G04 P0 ( dwell for no time -- G64 should not smooth over this point ))
G00 Z5.00000 ( retract )

G00 X25.87499 Y59.17500 ( rapid move to begin. )
G01 F100.00000
( Mill infeed pass 1/1 )
#111=[#510+[#511-#510]*0.62809]
G01 Z[-0.20000+#111]
(Suppressed: G04 P0 ( dwell for no time -- G64 should not smooth over this point ))
G01 F150.00000
#116=[#510+[#511-#510]*0.56346]
#117=[#523+[#524-#523]*0.56346]
#111=[#116+[#117-#116]*0.00712]
X25.90885 Y58.85275 Z[#111+-0.20000]
#116=[#510+[#511-#510]*0.50165]
#117=[#523+[#524-#523]*0.50165]
#111=[#116+[#117-#116]*0.02817]
X26.00900 Y58.54457 Z[#111+-0.20000]
#116=[#510+[#511-#510]*0.44536]
#117=[#523+[#524-#523]*0.44536]
#111=[#116+[#117-#116]*0.06222]
X26.17100 Y58.26395 Z[#111+-0.20000]
#116=[#510+[#511-#510]*0.39781]
#117=[#523+[#524-#523]*0.39781]
#111=[#116+[#117-#116]*0.10703]
X26.38413 Y58.02684 Z[#111+-0.20000]
#116=[#510+[#511-#510]*0.35886]
#117=[#523+[#524-#523]*0.35886]
#111=[#116+[#117-#116]*0.16291]
X26.65000 Y57.83266 Z[#111+-0.20000]
#116=[#510+[#511-#510]*0.33280]
#117=[#523+[#524-#523]*0.33280]
#111=[#116+[#117-#116]*0.22411]
X26.94113 Y57.70274 Z[#111+-0.20000]
#116=[#510+[#511-#510]*0.31886]
#117=[#523+[#524-#523]*0.31886]
#111=[#116+[#117-#116]*0.29287]
X27.26821 Y57.63322 Z[#111+-0.20000]
#116=[#510+[#511-#510]*0.31891]
#117=[#523+[#524-#523]*0.31891]
#111=[#116+[#117-#116]*0.35988]
X27.58700 Y57.63350 Z[#111+-0.20000]
#116=[#510+[#511-#510]*0.33243]
#117=[#523+[#524-#523]*0.33243]
#111=[#116+[#117-#116]*0.42651]
X27.90394 Y57.70089 Z[#111+-0.20000]
#116=[#510+[#511-#510]*0.35886]
#117=[#523+[#524-#523]*0.35886]
#111=[#116+[#117-#116]*0.48874]
X28.19998 Y57.83266 Z[#111+-0.20000]
#116=[#510+[#511-#510]*0.39706]
#117=[#523+[#524-#523]*0.39706]
#111=[#116+[#117-#116]*0.54384]
X28.46213 Y58.02314 Z[#111+-0.20000]
#116=[#510+[#511-#510]*0.44536]
#117=[#523+[#524-#523]*0.44536]
#111=[#116+[#117-#116]*0.58943]
X28.67897 Y58.26395 Z[#111+-0.20000]
#116=[#510+[#511-#510]*0.50165]
#117=[#523+[#524-#523]*0.50165]
#111=[#116+[#117-#116]*0.62348]
X28.84097 Y58.54457 Z[#111+-0.20000]
#116=[#510+[#511-#510]*0.56346]
#117=[#523+[#524-#523]*0.56346]
#111=[#116+[#117-#116]*0.64453]
X28.94113 Y58.85275 Z[#111+-0.20000]
#116=[#510+[#511-#510]*0.62809]
#117=[#523+[#524-#523]*0.62809]
#111=[#116+[#117-#116]*0.65165]
X28.97498 Y59.17500 Z[#111+-0.20000]
#116=[#510+[#511-#510]*0.69273]
#117=[#523+[#524-#523]*0.69273]
#111=[#116+[#117-#116]*0.64453]
X28.94113 Y59.49728 Z[#111+-0.20000]
#116=[#510+[#511-#510]*0.75454]
#117=[#523+[#524-#523]*0.75454]
#111=[#116+[#117-#116]*0.62348]
X28.84097 Y59.80545 Z[#111+-0.20000]
#116=[#510+[#511-#510]*0.81083]
#117=[#523+[#524-#523]*0.81083]
#111=[#116+[#117-#116]*0.58943]
X28.67897 Y60.08607 Z[#111+-0.20000]
#116=[#510+[#511-#510]*0.85838]
#117=[#523+[#524-#523]*0.85838]
#111=[#116+[#117-#116]*0.54462]
X28.46584 Y60.32318 Z[#111+-0.20000]
#116=[#510+[#511-#510]*0.89733]
#117=[#523+[#524-#523]*0.89733]
#111=[#116+[#117-#116]*0.48874]
X28.19998 Y60.51736 Z[#111+-0.20000]
#116=[#510+[#511-#510]*0.92339]
#117=[#523+[#524-#523]*0.92339]
#111=[#116+[#117-#116]*0.42754]
X27.90884 Y60.64729 Z[#111+-0.20000]
#116=[#510+[#511-#510]*0.93733]
#117=[#523+[#524-#523]*0.93733]
#111=[#116+[#117-#116]*0.35878]
X27.58177 Y60.71681 Z[#111+-0.20000]
#116=[#510+[#511-#510]*0.93728]
#117=[#523+[#524-#523]*0.93728]
#111=[#116+[#117-#116]*0.29177]
X27.26297 Y60.71653 Z[#111+-0.20000]
#116=[#510+[#511-#510]*0.92376]
#117=[#523+[#524-#523]*0.92376]
#111=[#116+[#117-#116]*0.22514]
X26.94601 Y60.64914 Z[#111+-0.20000]
#116=[#510+[#511-#510]*0.89733]
#117=[#523+[#524-#523]*0.89733]
#111=[#116+[#117-#116]*0.16291]
X26.65000 Y60.51736 Z[#111+-0.20000]
#116=[#510+[#511-#510]*0.85913]
#117=[#523+[#524-#523]*0.85913]
#111=[#116+[#117-#116]*0.10781]
X26.38784 Y60.32689 Z[#111+-0.20000]
#116=[#510+[#511-#510]*0.81083]
#117=[#523+[#524-#523]*0.81083]
#111=[#116+[#117-#116]*0.06222]
X26.17100 Y60.08607 Z[#111+-0.20000]
#116=[#510+[#511-#510]*0.75454]
#117=[#523+[#524-#523]*0.75454]
#111=[#116+[#117-#116]*0.02817]
X26.00900 Y59.80545 Z[#111+-0.20000]
#116=[#510+[#511-#510]*0.69273]
#117=[#523+[#524-#523]*0.69273]
#111=[#116+[#117-#116]*0.00712]
X25.90885 Y59.49728 Z[#111+-0.20000]
#111=[#510+[#511-#510]*0.62809]
X25.87499 Y59.17500 Z[#111+-0.20000]
(Suppressed: G04 P0 ( dwell for no time -- G64 should not smooth over this point ))
G00 Z5.00000 ( retract )

G00 X33.49499 Y59.17500 ( rapid move to begin. )
G01 F100.00000
( Mill infeed pass 1/1 )
#116=[#523+[#524-#523]*0.62809]
#117=[#536+[#537-#536]*0.62809]
#111=[#116+[#117-#116]*0.60180]
G01 Z[-0.20000+#111]
(Suppressed: G04 P0 ( dwell for no time -- G64 should not smooth over this point ))
G01 F150.00000
#116=[#523+[#524-#523]*0.56346]
#117=[#536+[#537-#536]*0.56346]
#111=[#116+[#117-#116]*0.60892]
X33.52885 Y58.85275 Z[#111+-0.20000]
#116=[#523+[#524-#523]*0.50165]
#117=[#536+[#537-#536]*0.50165]
#111=[#116+[#117-#116]*0.62997]
X33.62900 Y58.54457 Z[#111+-0.20000]
#116=[#523+[#524-#523]*0.44536]
#117=[#536+[#537-#536]*0.44536]
#111=[#116+[#117-#116]*0.66403]
X33.79100 Y58.26395 Z[#111+-0.20000]
#116=[#523+[#524-#523]*0.39781]
#117=[#536+[#537-#536]*0.39781]
#111=[#116+[#117-#116]*0.70883]
X34.00413 Y58.02684 Z[#111+-0.20000]
#116=[#523+[#524-#523]*0.35886]
#117=[#536+[#537-#536]*0.35886]
#111=[#116+[#117-#116]*0.76472]
X34.27000 Y57.83266 Z[#111+-0.20000]
#116=[#523+[#524-#523]*0.33280]
#117=[#536+[#537-#536]*0.33280]
#111=[#116+[#117-#116]*0.82592]
X34.56113 Y57.70274 Z[#111+-0.20000]
#116=[#523+[#524-#523]*0.31886]
#117=[#536+[#537-#536]*0.31886]
#111=[#116+[#117-#116]*0.89467]
X34.88821 Y57.63322 Z[#111+-0.20000]
#116=[#523+[#524-#523]*0.31908]
#117=[#536+[#537-#536]*0.31908]
#111=[#116+[#117-#116]*0.96277]
X35.21218 Y57.63431 Z[#111+-0.20000]
#116=[#536+[#537-#536]*0.32666]
#117=[#549+[#550-#549]*0.32666]
#111=[#116+[#117-#116]*0.00000]
X35.38928 Y57.67213 Z[#111+-0.20000]
#116=[#536+[#537-#536]*0.33243]
#117=[#549+[#550-#549]*0.33243]
#111=[#116+[#117-#116]*0.02831]
X35.52397 Y57.70089 Z[#111+-0.20000]
#116=[#536+[#537-#536]*0.35839]
#117=[#549+[#550-#549]*0.35839]
#111=[#116+[#117-#116]*0.08956]
X35.81533 Y57.83030 Z[#111+-0.20000]
#116=[#536+[#537-#536]*0.39706]
#117=[#549+[#550-#549]*0.39706]
#111=[#116+[#117-#116]*0.14565]
X36.08213 Y58.02314 Z[#111+-0.20000]
#116=[#536+[#537-#536]*0.44536]
#117=[#549+[#550-#549]*0.44536]
#111=[#116+[#117-#116]*0.19123]
X36.29897 Y58.26395 Z[#111+-0.20000]
#116=[#536+[#537-#536]*0.46764]
#117=[#549+[#550-#549]*0.46764]
#111=[#116+[#117-#116]*0.20477]
X36.36341 Y58.37500 Z[#111+-0.20000]
#116=[#536+[#537-#536]*0.46764]
#117=[#549+[#550-#549]*0.46764]
#111=[#116+[#117-#116]*1.00000]
X40.14642 Y58.37500 Z[#111+-0.20000]
#111=[#562+[#563-#562]*0.46764]
X44.90356 Y58.37500 Z[#111+-0.20000]
#111=[#575+[#576-#575]*0.46764]
X49.66070 Y58.37500 Z[#111+-0.20000]
#116=[#575+[#576-#575]*0.46764]
#117=[#588+[#589-#588]*0.46764]
#111=[#116+[#117-#116]*0.00235]
X49.67187 Y58.37500 Z[#111+-0.20000]
#116=[#575+[#576-#575]*0.16113]
#117=[#588+[#589-#588]*0.16113]
#111=[#116+[#117-#116]*0.00235]
X49.67187 Y56.84681 Z[#111+-0.20000]
#116=[#575+[#576-#575]*0.12983]
#117=[#588+[#589-#588]*0.12983]
#111=[#116+[#117-#116]*0.00558]
X49.68726 Y56.69075 Z[#111+-0.20000]
#116=[#575+[#576-#575]*0.09884]
#117=[#588+[#589-#588]*0.09884]
#111=[#116+[#117-#116]*0.01559]
X49.73489 Y56.53624 Z[#111+-0.20000]
#116=[#575+[#576-#575]*0.07199]
#117=[#588+[#589-#588]*0.07199]
#111=[#116+[#117-#116]*0.03069]
X49.80669 Y56.40236 Z[#111+-0.20000]
#116=[#575+[#576-#575]*0.04767]
#117=[#588+[#589-#588]*0.04767]
#111=[#116+[#117-#116]*0.05160]
X49.90618 Y56.28113 Z[#111+-0.20000]
#111=[#575+[#588-#575]*0.10156]
X50.14386 Y56.04346 Z[#111+-0.20000]
#116=[#574+[#575-#574]*0.81264]
#117=[#587+[#588-#587]*0.81264]
#111=[#116+[#117-#116]*0.29793]
X51.07799 Y55.10932 Z[#111+-0.20000]
#116=[#574+[#575-#574]*0.79586]
#117=[#587+[#588-#587]*0.79586]
#111=[#116+[#117-#116]*0.31868]
X51.17672 Y55.02563 Z[#111+-0.20000]
#116=[#574+[#575-#574]*0.78281]
#117=[#587+[#588-#587]*0.78281]
#111=[#116+[#117-#116]*0.34125]
X51.28406 Y54.96058 Z[#111+-0.20000]
#116=[#574+[#575-#574]*0.77329]
#117=[#587+[#588-#587]*0.77329]
#111=[#116+[#117-#116]*0.36567]
X51.40024 Y54.91311 Z[#111+-0.20000]
#116=[#574+[#575-#574]*0.76753]
#117=[#587+[#588-#587]*0.76753]
#111=[#116+[#117-#116]*0.39136]
X51.52244 Y54.88441 Z[#111+-0.20000]
#116=[#574+[#575-#574]*0.76564]
#117=[#587+[#588-#587]*0.76564]
#111=[#116+[#117-#116]*0.41685]
X51.64370 Y54.87501 Z[#111+-0.20000]
#116=[#574+[#575-#574]*0.76564]
#117=[#587+[#588-#587]*0.76564]
#111=[#116+[#117-#116]*1.00000]
X54.41784 Y54.87501 Z[#111+-0.20000]
#116=[#587+[#588-#587]*0.76564]
#117=[#600+[#601-#600]*0.76564]
#111=[#116+[#117-#116]*0.03093]
X54.56498 Y54.87501 Z[#111+-0.20000]
#116=[#587+[#588-#587]*0.66737]
#117=[#600+[#601-#600]*0.66737]
#111=[#116+[#117-#116]*0.03093]
X54.56498 Y54.38502 Z[#111+-0.20000]
#116=[#587+[#588-#587]*0.63704]
#117=[#600+[#601-#600]*0.63704]
#111=[#116+[#117-#116]*0.03401]
X54.57963 Y54.23381 Z[#111+-0.20000]
#116=[#587+[#588-#587]*0.60689]
#117=[#600+[#601-#600]*0.60689]
#111=[#116+[#117-#116]*0.04339]
X54.62423 Y54.08349 Z[#111+-0.20000]
#116=[#587+[#588-#587]*0.57907]
#117=[#600+[#601-#600]*0.57907]
#111=[#116+[#117-#116]*0.05874]
X54.69728 Y53.94478 Z[#111+-0.20000]
#116=[#587+[#588-#587]*0.55391]
#117=[#600+[#601-#600]*0.55391]
#111=[#116+[#117-#116]*0.08018]
X54.79929 Y53.81936 Z[#111+-0.20000]
#116=[#587+[#588-#587]*0.28401]
#117=[#600+[#601-#600]*0.28401]
#111=[#116+[#117-#116]*0.36306]
X56.14496 Y52.47367 Z[#111+-0.20000]
#111=[#587+[#600-#587]*0.36306]
X56.14496 Y51.05766 Z[#111+-0.20000]
#111=[#586+[#599-#586]*0.36306]
X56.14496 Y46.07187 Z[#111+-0.20000]
#116=[#584+[#585-#584]*1.00000]
#117=[#597+[#598-#597]*1.00000]
#111=[#116+[#117-#116]*0.36306]
X56.14496 Y41.08607 Z[#111+-0.20000]
#111=[#584+[#597-#584]*0.36306]
X56.14496 Y36.10028 Z[#111+-0.20000]
#111=[#583+[#596-#583]*0.36306]
X56.14496 Y31.11449 Z[#111+-0.20000]
#116=[#582+[#583-#582]*0.51472]
#117=[#595+[#596-#595]*0.51472]
#111=[#116+[#117-#116]*0.36306]
X56.14496 Y28.69500 Z[#111+-0.20000]
#116=[#582+[#583-#582]*0.48247]
#117=[#595+[#596-#595]*0.48247]
#111=[#116+[#117-#116]*0.36654]
X56.16154 Y28.53419 Z[#111+-0.20000]
#116=[#582+[#583-#582]*0.45425]
#117=[#595+[#596-#595]*0.45425]
#111=[#116+[#117-#116]*0.37551]
X56.20422 Y28.39348 Z[#111+-0.20000]
#116=[#582+[#583-#582]*0.42643]
#117=[#595+[#596-#595]*0.42643]
#111=[#116+[#117-#116]*0.39087]
X56.27727 Y28.25477 Z[#111+-0.20000]
#116=[#582+[#583-#582]*0.40200]
#117=[#595+[#596-#595]*0.40200]
#111=[#116+[#117-#116]*0.41162]
X56.37600 Y28.13297 Z[#111+-0.20000]
#116=[#582+[#583-#582]*0.38081]
#117=[#595+[#596-#595]*0.38081]
#111=[#116+[#117-#116]*0.43868]
X56.50472 Y28.02731 Z[#111+-0.20000]
#116=[#582+[#583-#582]*0.36615]
#117=[#595+[#596-#595]*0.36615]
#111=[#116+[#117-#116]*0.46784]
X56.64343 Y27.95426 Z[#111+-0.20000]
#116=[#582+[#583-#582]*0.35759]
#117=[#595+[#596-#595]*0.35759]
#111=[#116+[#117-#116]*0.49742]
X56.78415 Y27.91159 Z[#111+-0.20000]
#116=[#582+[#583-#582]*0.35427]
#117=[#595+[#596-#595]*0.35427]
#111=[#116+[#117-#116]*0.53123]
X56.94498 Y27.89500 Z[#111+-0.20000]
#116=[#582+[#583-#582]*0.35427]
#117=[#595+[#596-#595]*0.35427]
#111=[#116+[#117-#116]*0.91538]
X58.77246 Y27.89500 Z[#111+-0.20000]
#116=[#582+[#583-#582]*0.34378]
#117=[#595+[#596-#595]*0.34378]
#111=[#116+[#117-#116]*0.92794]
X58.83220 Y27.84270 Z[#111+-0.20000]
#116=[#582+[#583-#582]*0.32196]
#117=[#595+[#596-#595]*0.32196]
#111=[#116+[#117-#116]*0.96801]
X59.02280 Y27.73391 Z[#111+-0.20000]
#111=[#595+[#596-#595]*0.31208]
X59.17499 Y27.68468 Z[#111+-0.20000]
#116=[#595+[#596-#595]*0.30873]
#117=[#608+[#609-#608]*0.30873]
#111=[#116+[#117-#116]*0.01087]
X59.22669 Y27.66795 Z[#111+-0.20000]
#116=[#595+[#596-#595]*0.30418]
#117=[#608+[#609-#608]*0.30418]
#111=[#116+[#117-#116]*0.05566]
X59.43977 Y27.64529 Z[#111+-0.20000]
#116=[#595+[#596-#595]*0.30413]
#117=[#608+[#609-#608]*0.30413]
#111=[#116+[#117-#116]*0.47718]
X61.44500 Y27.64501 Z[#111+-0.20000]
#116=[#595+[#596-#595]*0.30857]
#117=[#608+[#609-#608]*0.30857]
#111=[#116+[#117-#116]*0.52198]
X61.65813 Y27.66714 Z[#111+-0.20000]
#116=[#595+[#596-#595]*0.32281]
#117=[#608+[#609-#608]*0.32281]
#111=[#116+[#117-#116]*0.56793]
X61.87672 Y27.73816 Z[#111+-0.20000]
#116=[#595+[#596-#595]*0.34435]
#117=[#608+[#609-#608]*0.34435]
#111=[#116+[#117-#116]*0.60691]
X62.06217 Y27.84555 Z[#111+-0.20000]
#116=[#595+[#596-#595]*0.37307]
#117=[#608+[#609-#608]*0.37307]
#111=[#116+[#117-#116]*0.64042]
X62.22158 Y27.98873 Z[#111+-0.20000]
#116=[#595+[#596-#595]*0.40943]
#117=[#608+[#609-#608]*0.40943]
#111=[#116+[#117-#116]*0.66833]
X62.35432 Y28.17001 Z[#111+-0.20000]
#116=[#595+[#596-#595]*0.45066]
#117=[#608+[#609-#608]*0.45066]
#111=[#116+[#117-#116]*0.68738]
X62.44495 Y28.37560 Z[#111+-0.20000]
#116=[#595+[#596-#595]*0.49376]
#117=[#608+[#609-#608]*0.49376]
#111=[#116+[#117-#116]*0.69674]
X62.48950 Y28.59048 Z[#111+-0.20000]
#116=[#595+[#596-#595]*0.53674]
#117=[#608+[#609-#608]*0.53674]
#111=[#116+[#117-#116]*0.69669]
X62.48924 Y28.80478 Z[#111+-0.20000]
#116=[#595+[#596-#595]*0.57879]
#117=[#608+[#609-#608]*0.57879]
#111=[#116+[#117-#116]*0.68738]
X62.44495 Y29.01443 Z[#111+-0.20000]
#116=[#595+[#596-#595]*0.62003]
#117=[#608+[#609-#608]*0.62003]
#111=[#116+[#117-#116]*0.66833]
X62.35432 Y29.22002 Z[#111+-0.20000]
#116=[#595+[#596-#595]*0.65564]
#117=[#608+[#609-#608]*0.65564]
#111=[#116+[#117-#116]*0.64120]
X62.22529 Y29.39759 Z[#111+-0.20000]
#116=[#595+[#596-#595]*0.68510]
#117=[#608+[#609-#608]*0.68510]
#111=[#116+[#117-#116]*0.60691]
X62.06217 Y29.54448 Z[#111+-0.20000]
#116=[#595+[#596-#595]*0.70749]
#117=[#608+[#609-#608]*0.70749]
#111=[#116+[#117-#116]*0.56592]
X61.86717 Y29.65611 Z[#111+-0.20000]
#116=[#595+[#596-#595]*0.72072]
#117=[#608+[#609-#608]*0.72072]
#111=[#116+[#117-#116]*0.52307]
X61.66329 Y29.72207 Z[#111+-0.20000]
#116=[#595+[#596-#595]*0.72532]
#117=[#608+[#609-#608]*0.72532]
#111=[#116+[#117-#116]*0.47718]
X61.44500 Y29.74501 Z[#111+-0.20000]
#116=[#595+[#596-#595]*0.72532]
#117=[#608+[#609-#608]*0.72532]
#111=[#116+[#117-#116]*0.05675]
X59.44498 Y29.74501 Z[#111+-0.20000]
#116=[#595+[#596-#595]*0.72072]
#117=[#608+[#609-#608]*0.72072]
#111=[#116+[#117-#116]*0.01087]
X59.22669 Y29.72207 Z[#111+-0.20000]
#111=[#595+[#596-#595]*0.71737]
X59.17499 Y29.70535 Z[#111+-0.20000]
#116=[#582+[#583-#582]*0.70749]
#117=[#595+[#596-#595]*0.70749]
#111=[#116+[#117-#116]*0.96801]
X59.02280 Y29.65611 Z[#111+-0.20000]
#116=[#582+[#583-#582]*0.68567]
#117=[#595+[#596-#595]*0.68567]
#111=[#116+[#117-#116]*0.92794]
X58.83220 Y29.54732 Z[#111+-0.20000]
#116=[#582+[#583-#582]*0.67518]
#117=[#595+[#596-#595]*0.67518]
#111=[#116+[#117-#116]*0.91538]
X58.77246 Y29.49502 Z[#111+-0.20000]
#116=[#582+[#583-#582]*0.67518]
#117=[#595+[#596-#595]*0.67518]
#111=[#116+[#117-#116]*0.69940]
X57.74498 Y29.49502 Z[#111+-0.20000]
#111=[#583+[#596-#583]*0.69940]
X57.74498 Y31.11449 Z[#111+-0.20000]
#111=[#584+[#597-#584]*0.69940]
X57.74498 Y36.10028 Z[#111+-0.20000]
#116=[#584+[#585-#584]*1.00000]
#117=[#597+[#598-#597]*1.00000]
#111=[#116+[#117-#116]*0.69940]
X57.74498 Y41.08607 Z[#111+-0.20000]
#111=[#586+[#599-#586]*0.69940]
X57.74498 Y46.07187 Z[#111+-0.20000]
#111=[#587+[#600-#587]*0.69940]
X57.74498 Y51.05766 Z[#111+-0.20000]
#116=[#587+[#588-#587]*0.35047]
#117=[#600+[#601-#600]*0.35047]
#111=[#116+[#117-#116]*0.69940]
X57.74498 Y52.80501 Z[#111+-0.20000]
#116=[#587+[#588-#587]*0.38080]
#117=[#600+[#601-#600]*0.38080]
#111=[#116+[#117-#116]*0.69632]
X57.73032 Y52.95624 Z[#111+-0.20000]
#116=[#587+[#588-#587]*0.41095]
#117=[#600+[#601-#600]*0.41095]
#111=[#116+[#117-#116]*0.68694]
X57.68572 Y53.10656 Z[#111+-0.20000]
#116=[#587+[#588-#587]*0.43877]
#117=[#600+[#601-#600]*0.43877]
#111=[#116+[#117-#116]*0.67159]
X57.61267 Y53.24527 Z[#111+-0.20000]
#116=[#587+[#588-#587]*0.46320]
#117=[#600+[#601-#600]*0.46320]
#111=[#116+[#117-#116]*0.65083]
X57.51394 Y53.36706 Z[#111+-0.20000]
#116=[#587+[#588-#587]*0.73383]
#117=[#600+[#601-#600]*0.73383]
#111=[#116+[#117-#116]*0.36727]
X56.16500 Y54.71639 Z[#111+-0.20000]
#111=[#588+[#601-#588]*0.36727]
X56.16500 Y56.04346 Z[#111+-0.20000]
#116=[#588+[#589-#588]*0.28289]
#117=[#601+[#602-#601]*0.28289]
#111=[#116+[#117-#116]*0.36727]
X56.16500 Y57.45387 Z[#111+-0.20000]
#116=[#588+[#589-#588]*0.31201]
#117=[#601+[#602-#601]*0.31201]
#111=[#116+[#117-#116]*0.39467]
X56.29535 Y57.59906 Z[#111+-0.20000]
#116=[#588+[#589-#588]*0.35377]
#117=[#601+[#602-#601]*0.35377]
#111=[#116+[#117-#116]*0.41994]
X56.41557 Y57.80726 Z[#111+-0.20000]
#116=[#588+[#589-#588]*0.39963]
#117=[#601+[#602-#601]*0.39963]
#111=[#116+[#117-#116]*0.43556]
X56.48986 Y58.03591 Z[#111+-0.20000]
#116=[#588+[#589-#588]*0.44758]
#117=[#601+[#602-#601]*0.44758]
#111=[#116+[#117-#116]*0.44084]
X56.51498 Y58.27500 Z[#111+-0.20000]
#116=[#588+[#589-#588]*0.60909]
#117=[#601+[#602-#601]*0.60909]
#111=[#116+[#117-#116]*0.44078]
X56.51471 Y59.08023 Z[#111+-0.20000]
#116=[#588+[#589-#588]*0.65600]
#117=[#601+[#602-#601]*0.65600]
#111=[#116+[#117-#116]*0.43556]
X56.48986 Y59.31412 Z[#111+-0.20000]
#116=[#588+[#589-#588]*0.70186]
#117=[#601+[#602-#601]*0.70186]
#111=[#116+[#117-#116]*0.41994]
X56.41557 Y59.54277 Z[#111+-0.20000]
#116=[#588+[#589-#588]*0.74443]
#117=[#601+[#602-#601]*0.74443]
#111=[#116+[#117-#116]*0.39398]
X56.29207 Y59.75503 Z[#111+-0.20000]
#116=[#588+[#589-#588]*0.77945]
#117=[#601+[#602-#601]*0.77945]
#111=[#116+[#117-#116]*0.36086]
X56.13449 Y59.92963 Z[#111+-0.20000]
#116=[#588+[#589-#588]*0.80722]
#117=[#601+[#602-#601]*0.80722]
#111=[#116+[#117-#116]*0.32089]
X55.94437 Y60.06809 Z[#111+-0.20000]
#116=[#588+[#589-#588]*0.82740]
#117=[#601+[#602-#601]*0.82740]
#111=[#116+[#117-#116]*0.27380]
X55.72035 Y60.16872 Z[#111+-0.20000]
#116=[#588+[#589-#588]*0.83743]
#117=[#601+[#602-#601]*0.83743]
#111=[#116+[#117-#116]*0.22437]
X55.48519 Y60.21871 Z[#111+-0.20000]
#116=[#588+[#589-#588]*0.83727]
#117=[#601+[#602-#601]*0.83727]
#111=[#116+[#117-#116]*0.17274]
X55.23960 Y60.21790 Z[#111+-0.20000]
#116=[#588+[#589-#588]*0.82740]
#117=[#601+[#602-#601]*0.82740]
#111=[#116+[#117-#116]*0.12439]
X55.00960 Y60.16872 Z[#111+-0.20000]
#116=[#588+[#589-#588]*0.80827]
#117=[#601+[#602-#601]*0.80827]
#111=[#116+[#117-#116]*0.07921]
X54.79464 Y60.07332 Z[#111+-0.20000]
#116=[#588+[#589-#588]*0.77945]
#117=[#601+[#602-#601]*0.77945]
#111=[#116+[#117-#116]*0.03734]
X54.59548 Y59.92963 Z[#111+-0.20000]
#116=[#588+[#589-#588]*0.74273]
#117=[#601+[#602-#601]*0.74273]
#111=[#116+[#117-#116]*0.00293]
X54.43178 Y59.74658 Z[#111+-0.20000]
#116=[#575+[#576-#575]*0.73788]
#117=[#588+[#589-#588]*0.73788]
#111=[#116+[#117-#116]*1.00000]
X54.41784 Y59.72238 Z[#111+-0.20000]
#116=[#575+[#576-#575]*0.70186]
#117=[#588+[#589-#588]*0.70186]
#111=[#116+[#117-#116]*0.97826]
X54.31441 Y59.54277 Z[#111+-0.20000]
#116=[#575+[#576-#575]*0.65496]
#117=[#588+[#589-#588]*0.65496]
#111=[#116+[#117-#116]*0.96246]
X54.23927 Y59.30893 Z[#111+-0.20000]
#116=[#575+[#576-#575]*0.60804]
#117=[#588+[#589-#588]*0.60804]
#111=[#116+[#117-#116]*0.95736]
X54.21499 Y59.07503 Z[#111+-0.20000]
#116=[#575+[#576-#575]*0.44758]
#117=[#588+[#589-#588]*0.44758]
#111=[#116+[#117-#116]*0.95736]
X54.21499 Y58.27500 Z[#111+-0.20000]
#116=[#575+[#576-#575]*0.39963]
#117=[#588+[#589-#588]*0.39963]
#111=[#116+[#117-#116]*0.96264]
X54.24011 Y58.03591 Z[#111+-0.20000]
#116=[#575+[#576-#575]*0.35377]
#117=[#588+[#589-#588]*0.35377]
#111=[#116+[#117-#116]*0.97826]
X54.31441 Y57.80726 Z[#111+-0.20000]
#116=[#575+[#576-#575]*0.31784]
#117=[#588+[#589-#588]*0.31784]
#111=[#116+[#117-#116]*1.00000]
X54.41784 Y57.62812 Z[#111+-0.20000]
#116=[#588+[#589-#588]*0.31201]
#117=[#601+[#602-#601]*0.31201]
#111=[#116+[#117-#116]*0.00353]
X54.43462 Y57.59906 Z[#111+-0.20000]
#116=[#588+[#589-#588]*0.28289]
#117=[#601+[#602-#601]*0.28289]
#111=[#116+[#117-#116]*0.03093]
X54.56498 Y57.45387 Z[#111+-0.20000]
#116=[#588+[#589-#588]*0.08656]
#117=[#601+[#602-#601]*0.08656]
#111=[#116+[#117-#116]*0.03093]
X54.56498 Y56.47503 Z[#111+-0.20000]
#116=[#575+[#576-#575]*0.08656]
#117=[#588+[#589-#588]*0.08656]
#111=[#116+[#117-#116]*1.00000]
X54.41784 Y56.47503 Z[#111+-0.20000]
#116=[#575+[#576-#575]*0.08656]
#117=[#588+[#589-#588]*0.08656]
#111=[#116+[#117-#116]*0.48650]
X51.97507 Y56.47503 Z[#111+-0.20000]
#116=[#575+[#576-#575]*0.22760]
#117=[#588+[#589-#588]*0.22760]
#111=[#116+[#117-#116]*0.33869]
X51.27189 Y57.17820 Z[#111+-0.20000]
#111=[#576+[#589-#576]*0.33869]
X51.27189 Y61.02925 Z[#111+-0.20000]
#116=[#576+[#577-#576]*0.45130]
#117=[#589+[#590-#589]*0.45130]
#111=[#116+[#117-#116]*0.33869]
X51.27189 Y63.27936 Z[#111+-0.20000]
#116=[#576+[#577-#576]*0.67908]
#117=[#589+[#590-#589]*0.67908]
#111=[#116+[#117-#116]*0.57742]
X52.40755 Y64.41502 Z[#111+-0.20000]
#116=[#576+[#577-#576]*0.67908]
#117=[#589+[#590-#589]*0.67908]
#111=[#116+[#117-#116]*1.00000]
X54.41784 Y64.41502 Z[#111+-0.20000]
#111=[#602+[#603-#602]*0.67908]
X59.17499 Y64.41502 Z[#111+-0.20000]
#116=[#602+[#603-#602]*0.67908]
#117=[#615+[#616-#615]*0.67908]
#111=[#116+[#117-#116]*0.09880]
X59.64498 Y64.41502 Z[#111+-0.20000]
#116=[#602+[#603-#602]*0.48275]
#117=[#615+[#616-#615]*0.48275]
#111=[#116+[#117-#116]*0.09880]
X59.64498 Y63.43615 Z[#111+-0.20000]
#116=[#602+[#603-#602]*0.45363]
#117=[#615+[#616-#615]*0.45363]
#111=[#116+[#117-#116]*0.07139]
X59.51462 Y63.29097 Z[#111+-0.20000]
#116=[#602+[#603-#602]*0.41281]
#117=[#615+[#616-#615]*0.41281]
#111=[#116+[#117-#116]*0.04663]
X59.39679 Y63.08741 Z[#111+-0.20000]
#116=[#602+[#603-#602]*0.36497]
#117=[#615+[#616-#615]*0.36497]
#111=[#116+[#117-#116]*0.03034]
X59.31930 Y62.84893 Z[#111+-0.20000]
#116=[#602+[#603-#602]*0.31806]
#117=[#615+[#616-#615]*0.31806]
#111=[#116+[#117-#116]*0.02523]
X59.29499 Y62.61502 Z[#111+-0.20000]
#116=[#602+[#603-#602]*0.15760]
#117=[#615+[#616-#615]*0.15760]
#111=[#116+[#117-#116]*0.02523]
X59.29499 Y61.81503 Z[#111+-0.20000]
#116=[#602+[#603-#602]*0.10964]
#117=[#615+[#616-#615]*0.10964]
#111=[#116+[#117-#116]*0.03051]
X59.32011 Y61.57591 Z[#111+-0.20000]
#116=[#602+[#603-#602]*0.06378]
#117=[#615+[#616-#615]*0.06378]
#111=[#116+[#117-#116]*0.04612]
X59.39441 Y61.34726 Z[#111+-0.20000]
#116=[#602+[#603-#602]*0.02202]
#117=[#615+[#616-#615]*0.02202]
#111=[#116+[#117-#116]*0.07139]
X59.51462 Y61.13905 Z[#111+-0.20000]
#111=[#602+[#615-#602]*0.09218]
X59.61349 Y61.02925 Z[#111+-0.20000]
#116=[#601+[#602-#601]*0.98619]
#117=[#614+[#615-#614]*0.98619]
#111=[#116+[#117-#116]*0.10521]
X59.67548 Y60.96039 Z[#111+-0.20000]
#116=[#601+[#602-#601]*0.95842]
#117=[#614+[#615-#614]*0.95842]
#111=[#116+[#117-#116]*0.14517]
X59.86560 Y60.82194 Z[#111+-0.20000]
#116=[#601+[#602-#601]*0.93824]
#117=[#614+[#615-#614]*0.93824]
#111=[#116+[#117-#116]*0.19227]
X60.08963 Y60.72130 Z[#111+-0.20000]
#116=[#601+[#602-#601]*0.92837]
#117=[#614+[#615-#614]*0.92837]
#111=[#116+[#117-#116]*0.24061]
X60.31960 Y60.67213 Z[#111+-0.20000]
#116=[#601+[#602-#601]*0.92837]
#117=[#614+[#615-#614]*0.92837]
#111=[#116+[#117-#116]*0.29332]
X60.57037 Y60.67213 Z[#111+-0.20000]
#116=[#601+[#602-#601]*0.93824]
#117=[#614+[#615-#614]*0.93824]
#111=[#116+[#117-#116]*0.34167]
X60.80035 Y60.72130 Z[#111+-0.20000]
#116=[#601+[#602-#601]*0.95785]
#117=[#614+[#615-#614]*0.95785]
#111=[#116+[#117-#116]*0.38784]
X61.01998 Y60.81909 Z[#111+-0.20000]
#116=[#601+[#602-#601]*0.98619]
#117=[#614+[#615-#614]*0.98619]
#111=[#116+[#117-#116]*0.42872]
X61.21449 Y60.96039 Z[#111+-0.20000]
#111=[#602+[#615-#602]*0.44179]
X61.27664 Y61.02925 Z[#111+-0.20000]
#116=[#602+[#603-#602]*0.02121]
#117=[#615+[#616-#615]*0.02121]
#111=[#116+[#117-#116]*0.46185]
X61.37207 Y61.13499 Z[#111+-0.20000]
#116=[#602+[#603-#602]*0.06477]
#117=[#615+[#616-#615]*0.06477]
#111=[#116+[#117-#116]*0.48821]
X61.49745 Y61.35216 Z[#111+-0.20000]
#116=[#602+[#603-#602]*0.10964]
#117=[#615+[#616-#615]*0.10964]
#111=[#116+[#117-#116]*0.50343]
X61.56986 Y61.57591 Z[#111+-0.20000]
#116=[#602+[#603-#602]*0.15655]
#117=[#615+[#616-#615]*0.15655]
#111=[#116+[#117-#116]*0.50865]
X61.59471 Y61.80979 Z[#111+-0.20000]
#116=[#602+[#603-#602]*0.31806]
#117=[#615+[#616-#615]*0.31806]
#111=[#116+[#117-#116]*0.50871]
X61.59499 Y62.61502 Z[#111+-0.20000]
#116=[#602+[#603-#602]*0.36601]
#117=[#615+[#616-#615]*0.36601]
#111=[#116+[#117-#116]*0.50343]
X61.56986 Y62.85411 Z[#111+-0.20000]
#116=[#602+[#603-#602]*0.41281]
#117=[#615+[#616-#615]*0.41281]
#111=[#116+[#117-#116]*0.48731]
X61.49318 Y63.08741 Z[#111+-0.20000]
#116=[#602+[#603-#602]*0.45363]
#117=[#615+[#616-#615]*0.45363]
#111=[#116+[#117-#116]*0.46254]
X61.37535 Y63.29097 Z[#111+-0.20000]
#116=[#602+[#603-#602]*0.48275]
#117=[#615+[#616-#615]*0.48275]
#111=[#116+[#117-#116]*0.43514]
X61.24500 Y63.43615 Z[#111+-0.20000]
#116=[#602+[#603-#602]*0.83954]
#117=[#615+[#616-#615]*0.83954]
#111=[#116+[#117-#116]*0.43514]
X61.24500 Y65.21502 Z[#111+-0.20000]
#116=[#602+[#603-#602]*0.86988]
#117=[#615+[#616-#615]*0.86988]
#111=[#116+[#117-#116]*0.43206]
X61.23034 Y65.36628 Z[#111+-0.20000]
#116=[#602+[#603-#602]*0.90183]
#117=[#615+[#616-#615]*0.90183]
#111=[#116+[#117-#116]*0.42189]
X61.18198 Y65.52561 Z[#111+-0.20000]
#116=[#602+[#603-#602]*0.92948]
#117=[#615+[#616-#615]*0.92948]
#111=[#116+[#117-#116]*0.40618]
X61.10723 Y65.66343 Z[#111+-0.20000]
#116=[#602+[#603-#602]*0.95300]
#117=[#615+[#616-#615]*0.95300]
#111=[#116+[#117-#116]*0.38588]
X61.01068 Y65.78073 Z[#111+-0.20000]
#116=[#602+[#603-#602]*0.97346]
#117=[#615+[#616-#615]*0.97346]
#111=[#116+[#117-#116]*0.35951]
X60.88523 Y65.88273 Z[#111+-0.20000]
#116=[#602+[#603-#602]*0.98811]
#117=[#615+[#616-#615]*0.98811]
#111=[#116+[#117-#116]*0.33035]
X60.74652 Y65.95578 Z[#111+-0.20000]
#116=[#602+[#603-#602]*0.99691]
#117=[#615+[#616-#615]*0.99691]
#111=[#116+[#117-#116]*0.29977]
X60.60106 Y65.99965 Z[#111+-0.20000]
#111=[#603+[#616-#603]*0.26697]
X60.44500 Y66.01504 Z[#111+-0.20000]
#111=#603
X59.17499 Y66.01504 Z[#111+-0.20000]
#111=[#577+[#590-#577]*1.00000]
X54.41784 Y66.01504 Z[#111+-0.20000]
#111=[#577+[#590-#577]*0.50776]
X52.07618 Y66.01504 Z[#111+-0.20000]
#116=[#576+[#577-#576]*0.99812]
#117=[#589+[#590-#589]*0.99812]
#111=[#116+[#117-#116]*0.48227]
X51.95492 Y66.00564 Z[#111+-0.20000]
#116=[#576+[#577-#576]*0.99236]
#117=[#589+[#590-#589]*0.99236]
#111=[#116+[#117-#116]*0.45658]
X51.83272 Y65.97694 Z[#111+-0.20000]
#116=[#576+[#577-#576]*0.98212]
#117=[#589+[#590-#589]*0.98212]
#111=[#116+[#117-#116]*0.43069]
X51.70956 Y65.92591 Z[#111+-0.20000]
#116=[#576+[#577-#576]*0.96887]
#117=[#589+[#590-#589]*0.96887]
#111=[#116+[#117-#116]*0.40826]
X51.60285 Y65.85982 Z[#111+-0.20000]
#116=[#576+[#577-#576]*0.95300]
#117=[#589+[#590-#589]*0.95300]
#111=[#116+[#117-#116]*0.38884]
X51.51047 Y65.78070 Z[#111+-0.20000]
#116=[#576+[#577-#576]*0.63122]
#117=[#589+[#590-#589]*0.63122]
#111=[#116+[#117-#116]*0.05160]
X49.90618 Y64.17639 Z[#111+-0.20000]
#116=[#576+[#577-#576]*0.60606]
#117=[#589+[#590-#589]*0.60606]
#111=[#116+[#117-#116]*0.03016]
X49.80418 Y64.05096 Z[#111+-0.20000]
#116=[#576+[#577-#576]*0.57824]
#117=[#589+[#590-#589]*0.57824]
#111=[#116+[#117-#116]*0.01480]
X49.73113 Y63.91225 Z[#111+-0.20000]
#116=[#576+[#577-#576]*0.54809]
#117=[#589+[#590-#589]*0.54809]
#111=[#116+[#117-#116]*0.00543]
X49.68653 Y63.76194 Z[#111+-0.20000]
#116=[#576+[#577-#576]*0.51776]
#117=[#589+[#590-#589]*0.51776]
#111=[#116+[#117-#116]*0.00235]
X49.67187 Y63.61070 Z[#111+-0.20000]
#111=[#576+[#589-#576]*0.00235]
X49.67187 Y61.02925 Z[#111+-0.20000]
#116=[#575+[#576-#575]*0.78855]
#117=[#588+[#589-#588]*0.78855]
#111=[#116+[#117-#116]*0.00235]
X49.67187 Y59.97502 Z[#111+-0.20000]
#111=[#575+[#576-#575]*0.78855]
X49.66070 Y59.97502 Z[#111+-0.20000]
#111=[#562+[#563-#562]*0.78855]
X44.90356 Y59.97502 Z[#111+-0.20000]
#116=[#536+[#537-#536]*0.78855]
#117=[#549+[#550-#549]*0.78855]
#111=[#116+[#117-#116]*1.00000]
X40.14642 Y59.97502 Z[#111+-0.20000]
#116=[#536+[#537-#536]*0.78855]
#117=[#549+[#550-#549]*0.78855]
#111=[#116+[#117-#116]*0.20477]
X36.36341 Y59.97502 Z[#111+-0.20000]
#116=[#536+[#537-#536]*0.81083]
#117=[#549+[#550-#549]*0.81083]
#111=[#116+[#117-#116]*0.19123]
X36.29897 Y60.08607 Z[#111+-0.20000]
#116=[#536+[#537-#536]*0.85913]
#117=[#549+[#550-#549]*0.85913]
#111=[#116+[#117-#116]*0.14565]
X36.08213 Y60.32689 Z[#111+-0.20000]
#116=[#536+[#537-#536]*0.89781]
#117=[#549+[#550-#549]*0.89781]
#111=[#116+[#117-#116]*0.08956]
X35.81533 Y60.51973 Z[#111+-0.20000]
#116=[#536+[#537-#536]*0.92376]
#117=[#549+[#550-#549]*0.92376]
#111=[#116+[#117-#116]*0.02831]
X35.52397 Y60.64914 Z[#111+-0.20000]
#116=[#536+[#537-#536]*0.92953]
#117=[#549+[#550-#549]*0.92953]
#111=[#116+[#117-#116]*0.00000]
X35.38928 Y60.67790 Z[#111+-0.20000]
#116=[#523+[#524-#523]*0.93711]
#117=[#536+[#537-#536]*0.93711]
#111=[#116+[#117-#116]*0.96277]
X35.21218 Y60.71571 Z[#111+-0.20000]
#116=[#523+[#524-#523]*0.93733]
#117=[#536+[#537-#536]*0.93733]
#111=[#116+[#117-#116]*0.89467]
X34.88821 Y60.71681 Z[#111+-0.20000]
#116=[#523+[#524-#523]*0.92339]
#117=[#536+[#537-#536]*0.92339]
#111=[#116+[#117-#116]*0.82592]
X34.56113 Y60.64729 Z[#111+-0.20000]
#116=[#523+[#524-#523]*0.89733]
#117=[#536+[#537-#536]*0.89733]
#111=[#116+[#117-#116]*0.76472]
X34.27000 Y60.51736 Z[#111+-0.20000]
#116=[#523+[#524-#523]*0.85838]
#117=[#536+[#537-#536]*0.85838]
#111=[#116+[#117-#116]*0.70883]
X34.00413 Y60.32318 Z[#111+-0.20000]
#116=[#523+[#524-#523]*0.81083]
#117=[#536+[#537-#536]*0.81083]
#111=[#116+[#117-#116]*0.66403]
X33.79100 Y60.08607 Z[#111+-0.20000]
#116=[#523+[#524-#523]*0.75454]
#117=[#536+[#537-#536]*0.75454]
#111=[#116+[#117-#116]*0.62997]
X33.62900 Y59.80545 Z[#111+-0.20000]
#116=[#523+[#524-#523]*0.69273]
#117=[#536+[#537-#536]*0.69273]
#111=[#116+[#117-#116]*0.60892]
X33.52885 Y59.49728 Z[#111+-0.20000]
#116=[#523+[#524-#523]*0.62809]
#117=[#536+[#537-#536]*0.62809]
#111=[#116+[#117-#116]*0.60180]
X33.49499 Y59.17500 Z[#111+-0.20000]
(Suppressed: G04 P0 ( dwell for no time -- G64 should not smooth over this point ))
G00 Z5.00000 ( retract )

G00 X25.87499 Y46.47500 ( rapid move to begin. )
G01 F100.00000
( Mill infeed pass 1/1 )
#111=[#508+[#509-#508]*0.08086]
G01 Z[-0.20000+#111]
(Suppressed: G04 P0 ( dwell for no time -- G64 should not smooth over this point ))
G01 F150.00000
#116=[#508+[#509-#508]*0.01623]
#117=[#521+[#522-#521]*0.01623]
#111=[#116+[#117-#116]*0.00712]
X25.90885 Y46.15278 Z[#111+-0.20000]
#111=[#508+[#521-#508]*0.01264]
X25.93514 Y46.07187 Z[#111+-0.20000]
#116=[#507+[#508-#507]*0.95441]
#117=[#520+[#521-#520]*0.95441]
#111=[#116+[#117-#116]*0.02817]
X26.00900 Y45.84457 Z[#111+-0.20000]
#116=[#507+[#508-#507]*0.89813]
#117=[#520+[#521-#520]*0.89813]
#111=[#116+[#117-#116]*0.06222]
X26.17100 Y45.56395 Z[#111+-0.20000]
#116=[#507+[#508-#507]*0.85057]
#117=[#520+[#521-#520]*0.85057]
#111=[#116+[#117-#116]*0.10703]
X26.38413 Y45.32684 Z[#111+-0.20000]
#116=[#507+[#508-#507]*0.81162]
#117=[#520+[#521-#520]*0.81162]
#111=[#116+[#117-#116]*0.16291]
X26.65000 Y45.13266 Z[#111+-0.20000]
#116=[#507+[#508-#507]*0.78557]
#117=[#520+[#521-#520]*0.78557]
#111=[#116+[#117-#116]*0.22411]
X26.94113 Y45.00274 Z[#111+-0.20000]
#116=[#507+[#508-#507]*0.77162]
#117=[#520+[#521-#520]*0.77162]
#111=[#116+[#117-#116]*0.29287]
X27.26821 Y44.93322 Z[#111+-0.20000]
#116=[#507+[#508-#507]*0.77168]
#117=[#520+[#521-#520]*0.77168]
#111=[#116+[#117-#116]*0.35988]
X27.58700 Y44.93350 Z[#111+-0.20000]
#116=[#507+[#508-#507]*0.78519]
#117=[#520+[#521-#520]*0.78519]
#111=[#116+[#117-#116]*0.42651]
X27.90394 Y45.00089 Z[#111+-0.20000]
#116=[#507+[#508-#507]*0.81162]
#117=[#520+[#521-#520]*0.81162]
#111=[#116+[#117-#116]*0.48874]
X28.19998 Y45.13266 Z[#111+-0.20000]
#116=[#507+[#508-#507]*0.84983]
#117=[#520+[#521-#520]*0.84983]
#111=[#116+[#117-#116]*0.54384]
X28.46213 Y45.32314 Z[#111+-0.20000]
#116=[#507+[#508-#507]*0.89813]
#117=[#520+[#521-#520]*0.89813]
#111=[#116+[#117-#116]*0.58943]
X28.67897 Y45.56395 Z[#111+-0.20000]
#116=[#507+[#508-#507]*0.95441]
#117=[#520+[#521-#520]*0.95441]
#111=[#116+[#117-#116]*0.62348]
X28.84097 Y45.84457 Z[#111+-0.20000]
#111=[#508+[#521-#508]*0.63901]
X28.91483 Y46.07187 Z[#111+-0.20000]
#116=[#508+[#509-#508]*0.01623]
#117=[#521+[#522-#521]*0.01623]
#111=[#116+[#117-#116]*0.64453]
X28.94113 Y46.15278 Z[#111+-0.20000]
#116=[#508+[#509-#508]*0.08086]
#117=[#521+[#522-#521]*0.08086]
#111=[#116+[#117-#116]*0.65165]
X28.97498 Y46.47500 Z[#111+-0.20000]
#116=[#508+[#509-#508]*0.14549]
#117=[#521+[#522-#521]*0.14549]
#111=[#116+[#117-#116]*0.64453]
X28.94113 Y46.79728 Z[#111+-0.20000]
#116=[#508+[#509-#508]*0.20731]
#117=[#521+[#522-#521]*0.20731]
#111=[#116+[#117-#116]*0.62348]
X28.84097 Y47.10545 Z[#111+-0.20000]
#116=[#508+[#509-#508]*0.26359]
#117=[#521+[#522-#521]*0.26359]
#111=[#116+[#117-#116]*0.58943]
X28.67897 Y47.38607 Z[#111+-0.20000]
#116=[#508+[#509-#508]*0.31115]
#117=[#521+[#522-#521]*0.31115]
#111=[#116+[#117-#116]*0.54462]
X28.46584 Y47.62318 Z[#111+-0.20000]
#116=[#508+[#509-#508]*0.35009]
#117=[#521+[#522-#521]*0.35009]
#111=[#116+[#117-#116]*0.48874]
X28.19998 Y47.81736 Z[#111+-0.20000]
#116=[#508+[#509-#508]*0.37615]
#117=[#521+[#522-#521]*0.37615]
#111=[#116+[#117-#116]*0.42754]
X27.90884 Y47.94729 Z[#111+-0.20000]
#116=[#508+[#509-#508]*0.39010]
#117=[#521+[#522-#521]*0.39010]
#111=[#116+[#117-#116]*0.35878]
X27.58177 Y48.01681 Z[#111+-0.20000]
#116=[#508+[#509-#508]*0.39004]
#117=[#521+[#522-#521]*0.39004]
#111=[#116+[#117-#116]*0.29177]
X27.26297 Y48.01653 Z[#111+-0.20000]
#116=[#508+[#509-#508]*0.37652]
#117=[#521+[#522-#521]*0.37652]
#111=[#116+[#117-#116]*0.22514]
X26.94601 Y47.94914 Z[#111+-0.20000]
#116=[#508+[#509-#508]*0.35009]
#117=[#521+[#522-#521]*0.35009]
#111=[#116+[#117-#116]*0.16291]
X26.65000 Y47.81736 Z[#111+-0.20000]
#116=[#508+[#509-#508]*0.31189]
#117=[#521+[#522-#521]*0.31189]
#111=[#116+[#117-#116]*0.10781]
X26.38784 Y47.62689 Z[#111+-0.20000]
#116=[#508+[#509-#508]*0.26359]
#117=[#521+[#522-#521]*0.26359]
#111=[#116+[#117-#116]*0.06222]
X26.17100 Y47.38607 Z[#111+-0.20000]
#116=[#508+[#509-#508]*0.20731]
#117=[#521+[#522-#521]*0.20731]
#111=[#116+[#117-#116]*0.02817]
X26.00900 Y47.10545 Z[#111+-0.20000]
#116=[#508+[#509-#508]*0.14549]
#117=[#521+[#522-#521]*0.14549]
#111=[#116+[#117-#116]*0.00712]
X25.90885 Y46.79728 Z[#111+-0.20000]
#111=[#508+[#509-#508]*0.08086]
X25.87499 Y46.47500 Z[#111+-0.20000]
(Suppressed: G04 P0 ( dwell for no time -- G64 should not smooth over this point ))
G00 Z5.00000 ( retract )

G00 X33.49499 Y33.77500 ( rapid move to begin. )
G01 F100.00000
( Mill infeed pass 1/1 )
#116=[#518+[#519-#518]*0.53362]
#117=[#531+[#532-#531]*0.53362]
#111=[#116+[#117-#116]*0.60180]
G01 Z[-0.20000+#111]
(Suppressed: G04 P0 ( dwell for no time -- G64 should not smooth over this point ))
G01 F150.00000
#116=[#518+[#519-#518]*0.46899]
#117=[#531+[#532-#531]*0.46899]
#111=[#116+[#117-#116]*0.60892]
X33.52885 Y33.45275 Z[#111+-0.20000]
#116=[#518+[#519-#518]*0.40717]
#117=[#531+[#532-#531]*0.40717]
#111=[#116+[#117-#116]*0.62997]
X33.62900 Y33.14457 Z[#111+-0.20000]
#116=[#518+[#519-#518]*0.35089]
#117=[#531+[#532-#531]*0.35089]
#111=[#116+[#117-#116]*0.66403]
X33.79100 Y32.86395 Z[#111+-0.20000]
#116=[#518+[#519-#518]*0.30333]
#117=[#531+[#532-#531]*0.30333]
#111=[#116+[#117-#116]*0.70883]
X34.00413 Y32.62684 Z[#111+-0.20000]
#116=[#518+[#519-#518]*0.26439]
#117=[#531+[#532-#531]*0.26439]
#111=[#116+[#117-#116]*0.76472]
X34.27000 Y32.43266 Z[#111+-0.20000]
#116=[#518+[#519-#518]*0.23833]
#117=[#531+[#532-#531]*0.23833]
#111=[#116+[#117-#116]*0.82592]
X34.56113 Y32.30274 Z[#111+-0.20000]
#116=[#518+[#519-#518]*0.22438]
#117=[#531+[#532-#531]*0.22438]
#111=[#116+[#117-#116]*0.89467]
X34.88821 Y32.23322 Z[#111+-0.20000]
#116=[#518+[#519-#518]*0.22444]
#117=[#531+[#532-#531]*0.22444]
#111=[#116+[#117-#116]*0.96168]
X35.20700 Y32.23350 Z[#111+-0.20000]
#116=[#531+[#532-#531]*0.23221]
#117=[#544+[#545-#544]*0.23221]
#111=[#116+[#117-#116]*0.00000]
X35.38928 Y32.27225 Z[#111+-0.20000]
#116=[#531+[#532-#531]*0.23796]
#117=[#544+[#545-#544]*0.23796]
#111=[#116+[#117-#116]*0.02831]
X35.52397 Y32.30089 Z[#111+-0.20000]
#116=[#531+[#532-#531]*0.26439]
#117=[#544+[#545-#544]*0.26439]
#111=[#116+[#117-#116]*0.09054]
X35.81998 Y32.43266 Z[#111+-0.20000]
#116=[#531+[#532-#531]*0.30259]
#117=[#544+[#545-#544]*0.30259]
#111=[#116+[#117-#116]*0.14565]
X36.08213 Y32.62314 Z[#111+-0.20000]
#116=[#531+[#532-#531]*0.35089]
#117=[#544+[#545-#544]*0.35089]
#111=[#116+[#117-#116]*0.19123]
X36.29897 Y32.86395 Z[#111+-0.20000]
#116=[#531+[#532-#531]*0.40717]
#117=[#544+[#545-#544]*0.40717]
#111=[#116+[#117-#116]*0.22528]
X36.46097 Y33.14457 Z[#111+-0.20000]
#116=[#531+[#532-#531]*0.46899]
#117=[#544+[#545-#544]*0.46899]
#111=[#116+[#117-#116]*0.24634]
X36.56113 Y33.45275 Z[#111+-0.20000]
#116=[#531+[#532-#531]*0.53362]
#117=[#544+[#545-#544]*0.53362]
#111=[#116+[#117-#116]*0.25345]
X36.59498 Y33.77500 Z[#111+-0.20000]
#116=[#531+[#532-#531]*0.59826]
#117=[#544+[#545-#544]*0.59826]
#111=[#116+[#117-#116]*0.24634]
X36.56113 Y34.09728 Z[#111+-0.20000]
#116=[#531+[#532-#531]*0.66007]
#117=[#544+[#545-#544]*0.66007]
#111=[#116+[#117-#116]*0.22528]
X36.46097 Y34.40545 Z[#111+-0.20000]
#116=[#531+[#532-#531]*0.71635]
#117=[#544+[#545-#544]*0.71635]
#111=[#116+[#117-#116]*0.19123]
X36.29897 Y34.68607 Z[#111+-0.20000]
#116=[#531+[#532-#531]*0.76391]
#117=[#544+[#545-#544]*0.76391]
#111=[#116+[#117-#116]*0.14643]
X36.08584 Y34.92318 Z[#111+-0.20000]
#116=[#531+[#532-#531]*0.80286]
#117=[#544+[#545-#544]*0.80286]
#111=[#116+[#117-#116]*0.09054]
X35.81998 Y35.11736 Z[#111+-0.20000]
#116=[#531+[#532-#531]*0.82891]
#117=[#544+[#545-#544]*0.82891]
#111=[#116+[#117-#116]*0.02934]
X35.52884 Y35.24729 Z[#111+-0.20000]
#116=[#531+[#532-#531]*0.83486]
#117=[#544+[#545-#544]*0.83486]
#111=[#116+[#117-#116]*0.00000]
X35.38928 Y35.27695 Z[#111+-0.20000]
#116=[#518+[#519-#518]*0.84286]
#117=[#531+[#532-#531]*0.84286]
#111=[#116+[#117-#116]*0.96058]
X35.20177 Y35.31681 Z[#111+-0.20000]
#116=[#518+[#519-#518]*0.84280]
#117=[#531+[#532-#531]*0.84280]
#111=[#116+[#117-#116]*0.89357]
X34.88297 Y35.31653 Z[#111+-0.20000]
#116=[#518+[#519-#518]*0.82929]
#117=[#531+[#532-#531]*0.82929]
#111=[#116+[#117-#116]*0.82694]
X34.56601 Y35.24914 Z[#111+-0.20000]
#116=[#518+[#519-#518]*0.80286]
#117=[#531+[#532-#531]*0.80286]
#111=[#116+[#117-#116]*0.76472]
X34.27000 Y35.11736 Z[#111+-0.20000]
#116=[#518+[#519-#518]*0.76465]
#117=[#531+[#532-#531]*0.76465]
#111=[#116+[#117-#116]*0.70961]
X34.00784 Y34.92689 Z[#111+-0.20000]
#116=[#518+[#519-#518]*0.71635]
#117=[#531+[#532-#531]*0.71635]
#111=[#116+[#117-#116]*0.66403]
X33.79100 Y34.68607 Z[#111+-0.20000]
#116=[#518+[#519-#518]*0.66007]
#117=[#531+[#532-#531]*0.66007]
#111=[#116+[#117-#116]*0.62997]
X33.62900 Y34.40545 Z[#111+-0.20000]
#116=[#518+[#519-#518]*0.59826]
#117=[#531+[#532-#531]*0.59826]
#111=[#116+[#117-#116]*0.60892]
X33.52885 Y34.09728 Z[#111+-0.20000]
#116=[#518+[#519-#518]*0.53362]
#117=[#531+[#532-#531]*0.53362]
#111=[#116+[#117-#116]*0.60180]
X33.49499 Y33.77500 Z[#111+-0.20000]
(Suppressed: G04 P0 ( dwell for no time -- G64 should not smooth over this point ))
G00 Z5.00000 ( retract )

G00 X25.87499 Y32.27500 ( rapid move to begin. )
G01 F100.00000
( Mill infeed pass 1/1 )
#111=[#505+[#506-#505]*0.23276]
G01 Z[-0.20000+#111]
(Suppressed: G04 P0 ( dwell for no time -- G64 should not smooth over this point ))
G01 F150.00000
#111=[#505+[#506-#505]*0.83448]
X25.87499 Y35.27502 Z[#111+-0.20000]
#116=[#505+[#506-#505]*0.83831]
#117=[#518+[#519-#518]*0.83831]
#111=[#116+[#117-#116]*0.00080]
X25.87880 Y35.29415 Z[#111+-0.20000]
#116=[#505+[#506-#505]*0.84281]
#117=[#518+[#519-#518]*0.84281]
#111=[#116+[#117-#116]*0.00467]
X25.89722 Y35.31658 Z[#111+-0.20000]
#116=[#505+[#506-#505]*0.84450]
#117=[#518+[#519-#518]*0.84450]
#111=[#116+[#117-#116]*0.01051]
X25.92498 Y35.32501 Z[#111+-0.20000]
#116=[#505+[#506-#505]*0.84431]
#117=[#518+[#519-#518]*0.84431]
#111=[#116+[#117-#116]*0.64319]
X28.93475 Y35.32404 Z[#111+-0.20000]
#116=[#505+[#506-#505]*0.84157]
#117=[#518+[#519-#518]*0.84157]
#111=[#116+[#117-#116]*0.64857]
X28.96035 Y35.31038 Z[#111+-0.20000]
#116=[#505+[#506-#505]*0.83831]
#117=[#518+[#519-#518]*0.83831]
#111=[#116+[#117-#116]*0.65085]
X28.97117 Y35.29415 Z[#111+-0.20000]
#116=[#505+[#506-#505]*0.83448]
#117=[#518+[#519-#518]*0.83448]
#111=[#116+[#117-#116]*0.65165]
X28.97498 Y35.27502 Z[#111+-0.20000]
#116=[#505+[#506-#505]*0.69408]
#117=[#518+[#519-#518]*0.69408]
#111=[#116+[#117-#116]*0.65165]
X28.97498 Y34.57502 Z[#111+-0.20000]
#116=[#505+[#506-#505]*0.69408]
#117=[#518+[#519-#518]*0.69408]
#111=[#116+[#117-#116]*0.88679]
X30.09360 Y34.57502 Z[#111+-0.20000]
#116=[#518+[#519-#518]*0.80209]
#117=[#531+[#532-#531]*0.80209]
#111=[#116+[#117-#116]*0.00000]
X30.63213 Y35.11356 Z[#111+-0.20000]
#111=[#519+[#532-#519]*0.20742]
X31.61886 Y36.10028 Z[#111+-0.20000]
#116=[#519+[#520-#519]*0.20858]
#117=[#532+[#533-#532]*0.20858]
#111=[#116+[#117-#116]*0.42602]
X32.65877 Y37.14020 Z[#111+-0.20000]
#116=[#519+[#520-#519]*0.22537]
#117=[#532+[#533-#532]*0.22537]
#111=[#116+[#117-#116]*0.44677]
X32.75750 Y37.22391 Z[#111+-0.20000]
#116=[#519+[#520-#519]*0.23770]
#117=[#532+[#533-#532]*0.23770]
#111=[#116+[#117-#116]*0.46787]
X32.85786 Y37.28541 Z[#111+-0.20000]
#116=[#519+[#520-#519]*0.24745]
#117=[#532+[#533-#532]*0.24745]
#111=[#116+[#117-#116]*0.49220]
X32.97358 Y37.33402 Z[#111+-0.20000]
#116=[#519+[#520-#519]*0.25369]
#117=[#532+[#533-#532]*0.25369]
#111=[#116+[#117-#116]*0.51945]
X33.10322 Y37.36514 Z[#111+-0.20000]
#116=[#519+[#520-#519]*0.25558]
#117=[#532+[#533-#532]*0.25558]
#111=[#116+[#117-#116]*0.54494]
X33.22448 Y37.37454 Z[#111+-0.20000]
#116=[#519+[#520-#519]*0.25558]
#117=[#532+[#533-#532]*0.25558]
#111=[#116+[#117-#116]*0.75946]
X34.24498 Y37.37454 Z[#111+-0.20000]
#116=[#519+[#520-#519]*1.00000]
#117=[#532+[#533-#532]*1.00000]
#111=[#116+[#117-#116]*0.75946]
X34.24498 Y41.08607 Z[#111+-0.20000]
#116=[#520+[#521-#520]*0.81520]
#117=[#533+[#534-#533]*0.81520]
#111=[#116+[#117-#116]*0.75946]
X34.24498 Y45.15049 Z[#111+-0.20000]
#116=[#520+[#521-#520]*0.84983]
#117=[#533+[#534-#533]*0.84983]
#111=[#116+[#117-#116]*0.70961]
X34.00784 Y45.32314 Z[#111+-0.20000]
#116=[#520+[#521-#520]*0.89731]
#117=[#533+[#534-#533]*0.89731]
#111=[#116+[#117-#116]*0.66472]
X33.79430 Y45.55989 Z[#111+-0.20000]
#116=[#520+[#521-#520]*0.95347]
#117=[#533+[#534-#533]*0.95347]
#111=[#116+[#117-#116]*0.63047]
X33.63136 Y45.83990 Z[#111+-0.20000]
#111=[#521+[#534-#521]*0.61449]
X33.55536 Y46.07187 Z[#111+-0.20000]
#116=[#521+[#522-#521]*0.01623]
#117=[#534+[#535-#534]*0.01623]
#111=[#116+[#117-#116]*0.60892]
X33.52885 Y46.15278 Z[#111+-0.20000]
#116=[#521+[#522-#521]*0.08191]
#117=[#534+[#535-#534]*0.08191]
#111=[#116+[#117-#116]*0.60186]
X33.49527 Y46.48023 Z[#111+-0.20000]
#116=[#521+[#522-#521]*0.14549]
#117=[#534+[#535-#534]*0.14549]
#111=[#116+[#117-#116]*0.60892]
X33.52885 Y46.79728 Z[#111+-0.20000]
#116=[#521+[#522-#521]*0.20731]
#117=[#534+[#535-#534]*0.20731]
#111=[#116+[#117-#116]*0.62997]
X33.62900 Y47.10545 Z[#111+-0.20000]
#116=[#521+[#522-#521]*0.26359]
#117=[#534+[#535-#534]*0.26359]
#111=[#116+[#117-#116]*0.66403]
X33.79100 Y47.38607 Z[#111+-0.20000]
#116=[#521+[#522-#521]*0.31115]
#117=[#534+[#535-#534]*0.31115]
#111=[#116+[#117-#116]*0.70883]
X34.00413 Y47.62318 Z[#111+-0.20000]
#116=[#521+[#522-#521]*0.35057]
#117=[#534+[#535-#534]*0.35057]
#111=[#116+[#117-#116]*0.76569]
X34.27464 Y47.81973 Z[#111+-0.20000]
#116=[#521+[#522-#521]*0.37652]
#117=[#534+[#535-#534]*0.37652]
#111=[#116+[#117-#116]*0.82694]
X34.56601 Y47.94914 Z[#111+-0.20000]
#116=[#521+[#522-#521]*0.39004]
#117=[#534+[#535-#534]*0.39004]
#111=[#116+[#117-#116]*0.89357]
X34.88297 Y48.01653 Z[#111+-0.20000]
#116=[#521+[#522-#521]*0.39004]
#117=[#534+[#535-#534]*0.39004]
#111=[#116+[#117-#116]*0.96168]
X35.20700 Y48.01653 Z[#111+-0.20000]
#116=[#534+[#535-#534]*0.38227]
#117=[#547+[#548-#547]*0.38227]
#111=[#116+[#117-#116]*0.00000]
X35.38928 Y47.97778 Z[#111+-0.20000]
#116=[#534+[#535-#534]*0.37652]
#117=[#547+[#548-#547]*0.37652]
#111=[#116+[#117-#116]*0.02831]
X35.52397 Y47.94914 Z[#111+-0.20000]
#116=[#534+[#535-#534]*0.35009]
#117=[#547+[#548-#547]*0.35009]
#111=[#116+[#117-#116]*0.09054]
X35.81998 Y47.81736 Z[#111+-0.20000]
#116=[#534+[#535-#534]*0.31189]
#117=[#547+[#548-#547]*0.31189]
#111=[#116+[#117-#116]*0.14565]
X36.08213 Y47.62689 Z[#111+-0.20000]
#116=[#534+[#535-#534]*0.26359]
#117=[#547+[#548-#547]*0.26359]
#111=[#116+[#117-#116]*0.19123]
X36.29897 Y47.38607 Z[#111+-0.20000]
#116=[#534+[#535-#534]*0.20731]
#117=[#547+[#548-#547]*0.20731]
#111=[#116+[#117-#116]*0.22528]
X36.46097 Y47.10545 Z[#111+-0.20000]
#116=[#534+[#535-#534]*0.14549]
#117=[#547+[#548-#547]*0.14549]
#111=[#116+[#117-#116]*0.24634]
X36.56113 Y46.79728 Z[#111+-0.20000]
#116=[#534+[#535-#534]*0.08191]
#117=[#547+[#548-#547]*0.08191]
#111=[#116+[#117-#116]*0.25339]
X36.59470 Y46.48023 Z[#111+-0.20000]
#116=[#534+[#535-#534]*0.01623]
#117=[#547+[#548-#547]*0.01623]
#111=[#116+[#117-#116]*0.24634]
X36.56113 Y46.15278 Z[#111+-0.20000]
#111=[#534+[#547-#534]*0.24076]
X36.53462 Y46.07187 Z[#111+-0.20000]
#116=[#533+[#534-#533]*0.95347]
#117=[#546+[#547-#546]*0.95347]
#111=[#116+[#117-#116]*0.22479]
X36.45861 Y45.83990 Z[#111+-0.20000]
#116=[#533+[#534-#533]*0.89731]
#117=[#546+[#547-#546]*0.89731]
#111=[#116+[#117-#116]*0.19053]
X36.29567 Y45.55989 Z[#111+-0.20000]
#116=[#533+[#534-#533]*0.84983]
#117=[#546+[#547-#546]*0.84983]
#111=[#116+[#117-#116]*0.14565]
X36.08213 Y45.32314 Z[#111+-0.20000]
#116=[#533+[#534-#533]*0.81520]
#117=[#546+[#547-#546]*0.81520]
#111=[#116+[#117-#116]*0.09580]
X35.84500 Y45.15049 Z[#111+-0.20000]
#116=[#532+[#533-#532]*1.00000]
#117=[#545+[#546-#545]*1.00000]
#111=[#116+[#117-#116]*0.09580]
X35.84500 Y41.08607 Z[#111+-0.20000]
#116=[#532+[#533-#532]*0.25558]
#117=[#545+[#546-#545]*0.25558]
#111=[#116+[#117-#116]*0.09580]
X35.84500 Y37.37454 Z[#111+-0.20000]
#116=[#532+[#533-#532]*0.25558]
#117=[#545+[#546-#545]*0.25558]
#111=[#116+[#117-#116]*1.00000]
X40.14642 Y37.37454 Z[#111+-0.20000]
#111=[#558+[#559-#558]*0.25558]
X44.90356 Y37.37454 Z[#111+-0.20000]
#116=[#558+[#559-#558]*0.25558]
#117=[#571+[#572-#571]*0.25558]
#111=[#116+[#117-#116]*0.34095]
X46.52550 Y37.37454 Z[#111+-0.20000]
#116=[#558+[#559-#558]*0.25345]
#117=[#571+[#572-#571]*0.25345]
#111=[#116+[#117-#116]*0.36806]
X46.65448 Y37.36392 Z[#111+-0.20000]
#116=[#558+[#559-#558]*0.24745]
#117=[#571+[#572-#571]*0.24745]
#111=[#116+[#117-#116]*0.39368]
X46.77637 Y37.33402 Z[#111+-0.20000]
#116=[#558+[#559-#558]*0.23770]
#117=[#571+[#572-#571]*0.23770]
#111=[#116+[#117-#116]*0.41801]
X46.89209 Y37.28541 Z[#111+-0.20000]
#116=[#558+[#559-#558]*0.22444]
#117=[#571+[#572-#571]*0.22444]
#111=[#116+[#117-#116]*0.44044]
X46.99880 Y37.21932 Z[#111+-0.20000]
#116=[#558+[#559-#558]*0.20858]
#117=[#571+[#572-#571]*0.20858]
#111=[#116+[#117-#116]*0.45986]
X47.09118 Y37.14020 Z[#111+-0.20000]
#111=[#558+[#571-#558]*0.67846]
X48.13109 Y36.10028 Z[#111+-0.20000]
#116=[#557+[#558-#557]*0.69408]
#117=[#570+[#571-#570]*0.69408]
#111=[#116+[#117-#116]*0.99909]
X49.65635 Y34.57502 Z[#111+-0.20000]
#111=[#570+[#571-#570]*0.69408]
X49.66070 Y34.57502 Z[#111+-0.20000]
#116=[#570+[#571-#570]*0.69408]
#117=[#583+[#584-#583]*0.69408]
#111=[#116+[#117-#116]*0.23423]
X50.77499 Y34.57502 Z[#111+-0.20000]
#116=[#570+[#571-#570]*0.93476]
#117=[#583+[#584-#583]*0.93476]
#111=[#116+[#117-#116]*0.23423]
X50.77499 Y35.77502 Z[#111+-0.20000]
#116=[#570+[#571-#570]*0.93860]
#117=[#583+[#584-#583]*0.93860]
#111=[#116+[#117-#116]*0.23504]
X50.77880 Y35.79415 Z[#111+-0.20000]
#116=[#570+[#571-#570]*0.94185]
#117=[#583+[#584-#583]*0.94185]
#111=[#116+[#117-#116]*0.23731]
X50.78962 Y35.81038 Z[#111+-0.20000]
#116=[#570+[#571-#570]*0.94460]
#117=[#583+[#584-#583]*0.94460]
#111=[#116+[#117-#116]*0.24269]
X50.81523 Y35.82404 Z[#111+-0.20000]
#116=[#570+[#571-#570]*0.94477]
#117=[#583+[#584-#583]*0.94477]
#111=[#116+[#117-#116]*1.00000]
X54.41784 Y35.82491 Z[#111+-0.20000]
#116=[#583+[#584-#583]*0.94479]
#117=[#596+[#597-#596]*0.94479]
#111=[#116+[#117-#116]*0.08558]
X54.82497 Y35.82501 Z[#111+-0.20000]
#116=[#583+[#584-#583]*0.94402]
#117=[#596+[#597-#596]*0.94402]
#111=[#116+[#117-#116]*0.08960]
X54.84410 Y35.82120 Z[#111+-0.20000]
#116=[#583+[#584-#583]*0.94185]
#117=[#596+[#597-#596]*0.94185]
#111=[#116+[#117-#116]*0.09301]
X54.86033 Y35.81038 Z[#111+-0.20000]
#116=[#583+[#584-#583]*0.93672]
#117=[#596+[#597-#596]*0.93672]
#111=[#116+[#117-#116]*0.09589]
X54.87402 Y35.78477 Z[#111+-0.20000]
#116=[#583+[#584-#583]*0.33305]
#117=[#596+[#597-#596]*0.33305]
#111=[#116+[#117-#116]*0.09610]
X54.87498 Y32.77500 Z[#111+-0.20000]
#116=[#583+[#584-#583]*0.32921]
#117=[#596+[#597-#596]*0.32921]
#111=[#116+[#117-#116]*0.09529]
X54.87117 Y32.75588 Z[#111+-0.20000]
#116=[#583+[#584-#583]*0.32596]
#117=[#596+[#597-#596]*0.32596]
#111=[#116+[#117-#116]*0.09301]
X54.86033 Y32.73965 Z[#111+-0.20000]
#116=[#583+[#584-#583]*0.32322]
#117=[#596+[#597-#596]*0.32322]
#111=[#116+[#117-#116]*0.08764]
X54.83475 Y32.72598 Z[#111+-0.20000]
#116=[#570+[#571-#570]*0.32320]
#117=[#583+[#584-#583]*0.32320]
#111=[#116+[#117-#116]*1.00000]
X54.41784 Y32.72588 Z[#111+-0.20000]
#116=[#570+[#571-#570]*0.32302]
#117=[#583+[#584-#583]*0.32302]
#111=[#116+[#117-#116]*0.24474]
X50.82498 Y32.72501 Z[#111+-0.20000]
#116=[#570+[#571-#570]*0.32379]
#117=[#583+[#584-#583]*0.32379]
#111=[#116+[#117-#116]*0.24072]
X50.80585 Y32.72882 Z[#111+-0.20000]
#116=[#570+[#571-#570]*0.32596]
#117=[#583+[#584-#583]*0.32596]
#111=[#116+[#117-#116]*0.23731]
X50.78962 Y32.73965 Z[#111+-0.20000]
#116=[#570+[#571-#570]*0.33109]
#117=[#583+[#584-#583]*0.33109]
#111=[#116+[#117-#116]*0.23444]
X50.77596 Y32.76525 Z[#111+-0.20000]
#116=[#570+[#571-#570]*0.37316]
#117=[#583+[#584-#583]*0.37316]
#111=[#116+[#117-#116]*0.23423]
X50.77499 Y32.97500 Z[#111+-0.20000]
#111=[#570+[#571-#570]*0.37316]
X49.66070 Y32.97500 Z[#111+-0.20000]
#116=[#557+[#558-#557]*0.37316]
#117=[#570+[#571-#570]*0.37316]
#111=[#116+[#117-#116]*0.92943]
X49.32498 Y32.97500 Z[#111+-0.20000]
#116=[#557+[#558-#557]*0.37529]
#117=[#570+[#571-#570]*0.37529]
#111=[#116+[#117-#116]*0.90231]
X49.19597 Y32.98562 Z[#111+-0.20000]
#116=[#557+[#558-#557]*0.38129]
#117=[#570+[#571-#570]*0.38129]
#111=[#116+[#117-#116]*0.87669]
X49.07408 Y33.01551 Z[#111+-0.20000]
#116=[#557+[#558-#557]*0.39104]
#117=[#570+[#571-#570]*0.39104]
#111=[#116+[#117-#116]*0.85236]
X48.95836 Y33.06413 Z[#111+-0.20000]
#116=[#557+[#558-#557]*0.40337]
#117=[#570+[#571-#570]*0.40337]
#111=[#116+[#117-#116]*0.83126]
X48.85800 Y33.12562 Z[#111+-0.20000]
#116=[#557+[#558-#557]*0.42016]
#117=[#570+[#571-#570]*0.42016]
#111=[#116+[#117-#116]*0.81051]
X48.75927 Y33.20934 Z[#111+-0.20000]
#116=[#557+[#558-#557]*0.93466]
#117=[#570+[#571-#570]*0.93466]
#111=[#116+[#117-#116]*0.27128]
X46.19410 Y35.77451 Z[#111+-0.20000]
#111=[#557+[#558-#557]*0.93466]
X44.90356 Y35.77451 Z[#111+-0.20000]
#116=[#531+[#532-#531]*0.93466]
#117=[#544+[#545-#544]*0.93466]
#111=[#116+[#117-#116]*1.00000]
X40.14642 Y35.77451 Z[#111+-0.20000]
#116=[#531+[#532-#531]*0.93466]
#117=[#544+[#545-#544]*0.93466]
#111=[#116+[#117-#116]*0.00000]
X35.38928 Y35.77451 Z[#111+-0.20000]
#116=[#518+[#519-#518]*0.93466]
#117=[#531+[#532-#531]*0.93466]
#111=[#116+[#117-#116]*0.61460]
X33.55585 Y35.77451 Z[#111+-0.20000]
#116=[#518+[#519-#518]*0.42016]
#117=[#531+[#532-#531]*0.42016]
#111=[#116+[#117-#116]*0.07537]
X30.99068 Y33.20934 Z[#111+-0.20000]
#116=[#518+[#519-#518]*0.40337]
#117=[#531+[#532-#531]*0.40337]
#111=[#116+[#117-#116]*0.05462]
X30.89195 Y33.12562 Z[#111+-0.20000]
#116=[#518+[#519-#518]*0.39033]
#117=[#531+[#532-#531]*0.39033]
#111=[#116+[#117-#116]*0.03205]
X30.78461 Y33.06057 Z[#111+-0.20000]
#116=[#518+[#519-#518]*0.38129]
#117=[#531+[#532-#531]*0.38129]
#111=[#116+[#117-#116]*0.00919]
X30.67587 Y33.01551 Z[#111+-0.20000]
#116=[#518+[#519-#518]*0.37914]
#117=[#531+[#532-#531]*0.37914]
#111=[#116+[#117-#116]*0.00000]
X30.63213 Y33.00479 Z[#111+-0.20000]
#116=[#505+[#506-#505]*0.37529]
#117=[#518+[#519-#518]*0.37529]
#111=[#116+[#117-#116]*0.98357]
X30.55398 Y32.98562 Z[#111+-0.20000]
#116=[#505+[#506-#505]*0.37320]
#117=[#518+[#519-#518]*0.37320]
#111=[#116+[#117-#116]*0.95728]
X30.42891 Y32.97518 Z[#111+-0.20000]
#116=[#505+[#506-#505]*0.37316]
#117=[#518+[#519-#518]*0.37316]
#111=[#116+[#117-#116]*0.65165]
X28.97498 Y32.97500 Z[#111+-0.20000]
#116=[#505+[#506-#505]*0.23276]
#117=[#518+[#519-#518]*0.23276]
#111=[#116+[#117-#116]*0.65165]
X28.97498 Y32.27500 Z[#111+-0.20000]
#116=[#505+[#506-#505]*0.22893]
#117=[#518+[#519-#518]*0.22893]
#111=[#116+[#117-#116]*0.65085]
X28.97117 Y32.25588 Z[#111+-0.20000]
#116=[#505+[#506-#505]*0.22567]
#117=[#518+[#519-#518]*0.22567]
#111=[#116+[#117-#116]*0.64857]
X28.96035 Y32.23965 Z[#111+-0.20000]
#116=[#505+[#506-#505]*0.22293]
#117=[#518+[#519-#518]*0.22293]
#111=[#116+[#117-#116]*0.64319]
X28.93475 Y32.22598 Z[#111+-0.20000]
#116=[#505+[#506-#505]*0.22274]
#117=[#518+[#519-#518]*0.22274]
#111=[#116+[#117-#116]*0.01051]
X25.92498 Y32.22502 Z[#111+-0.20000]
#116=[#505+[#506-#505]*0.22350]
#117=[#518+[#519-#518]*0.22350]
#111=[#116+[#117-#116]*0.00649]
X25.90585 Y32.22883 Z[#111+-0.20000]
#116=[#505+[#506-#505]*0.22567]
#117=[#518+[#519-#518]*0.22567]
#111=[#116+[#117-#116]*0.00308]
X25.88962 Y32.23965 Z[#111+-0.20000]
#116=[#505+[#506-#505]*0.22893]
#117=[#518+[#519-#518]*0.22893]
#111=[#116+[#117-#116]*0.00080]
X25.87880 Y32.25588 Z[#111+-0.20000]
#111=[#505+[#506-#505]*0.23276]
X25.87499 Y32.27500 Z[#111+-0.20000]
(Suppressed: G04 P0 ( dwell for no time -- G64 should not smooth over this point ))
G00 Z5.00000 ( retract )

G00 X33.57881 Y20.22410 ( rapid move to begin. )
G01 F100.00000
( Mill infeed pass 1/1 )
#116=[#515+[#516-#515]*0.81572]
#117=[#528+[#529-#528]*0.81572]
#111=[#116+[#117-#116]*0.61942]
G01 Z[-0.20000+#111]
(Suppressed: G04 P0 ( dwell for no time -- G64 should not smooth over this point ))
G01 F150.00000
#116=[#515+[#516-#515]*0.75108]
#117=[#528+[#529-#528]*0.75108]
#111=[#116+[#117-#116]*0.62654]
X33.61267 Y19.90185 Z[#111+-0.20000]
#116=[#515+[#516-#515]*0.68927]
#117=[#528+[#529-#528]*0.68927]
#111=[#116+[#117-#116]*0.64759]
X33.71282 Y19.59367 Z[#111+-0.20000]
#116=[#515+[#516-#515]*0.63299]
#117=[#528+[#529-#528]*0.63299]
#111=[#116+[#117-#116]*0.68165]
X33.87482 Y19.31308 Z[#111+-0.20000]
#116=[#515+[#516-#515]*0.58543]
#117=[#528+[#529-#528]*0.58543]
#111=[#116+[#117-#116]*0.72645]
X34.08795 Y19.07594 Z[#111+-0.20000]
#116=[#515+[#516-#515]*0.54648]
#117=[#528+[#529-#528]*0.54648]
#111=[#116+[#117-#116]*0.78234]
X34.35382 Y18.88176 Z[#111+-0.20000]
#116=[#515+[#516-#515]*0.52043]
#117=[#528+[#529-#528]*0.52043]
#111=[#116+[#117-#116]*0.84354]
X34.64495 Y18.75184 Z[#111+-0.20000]
#116=[#515+[#516-#515]*0.50649]
#117=[#528+[#529-#528]*0.50649]
#111=[#116+[#117-#116]*0.91229]
X34.97203 Y18.68235 Z[#111+-0.20000]
#116=[#515+[#516-#515]*0.50654]
#117=[#528+[#529-#528]*0.50654]
#111=[#116+[#117-#116]*0.97930]
X35.29082 Y18.68260 Z[#111+-0.20000]
#116=[#528+[#529-#528]*0.51074]
#117=[#541+[#542-#541]*0.51074]
#111=[#116+[#117-#116]*0.00000]
X35.38928 Y18.70353 Z[#111+-0.20000]
#116=[#528+[#529-#528]*0.52005]
#117=[#541+[#542-#541]*0.52005]
#111=[#116+[#117-#116]*0.04593]
X35.60779 Y18.74999 Z[#111+-0.20000]
#116=[#528+[#529-#528]*0.54648]
#117=[#541+[#542-#541]*0.54648]
#111=[#116+[#117-#116]*0.10816]
X35.90380 Y18.88176 Z[#111+-0.20000]
#116=[#528+[#529-#528]*0.58469]
#117=[#541+[#542-#541]*0.58469]
#111=[#116+[#117-#116]*0.16327]
X36.16595 Y19.07224 Z[#111+-0.20000]
#116=[#528+[#529-#528]*0.63299]
#117=[#541+[#542-#541]*0.63299]
#111=[#116+[#117-#116]*0.20885]
X36.38279 Y19.31308 Z[#111+-0.20000]
#116=[#528+[#529-#528]*0.68927]
#117=[#541+[#542-#541]*0.68927]
#111=[#116+[#117-#116]*0.24290]
X36.54479 Y19.59367 Z[#111+-0.20000]
#116=[#528+[#529-#528]*0.75108]
#117=[#541+[#542-#541]*0.75108]
#111=[#116+[#117-#116]*0.26395]
X36.64495 Y19.90185 Z[#111+-0.20000]
#116=[#528+[#529-#528]*0.81572]
#117=[#541+[#542-#541]*0.81572]
#111=[#116+[#117-#116]*0.27107]
X36.67880 Y20.22410 Z[#111+-0.20000]
#116=[#528+[#529-#528]*0.88036]
#117=[#541+[#542-#541]*0.88036]
#111=[#116+[#117-#116]*0.26395]
X36.64495 Y20.54640 Z[#111+-0.20000]
#116=[#528+[#529-#528]*0.94217]
#117=[#541+[#542-#541]*0.94217]
#111=[#116+[#117-#116]*0.24290]
X36.54479 Y20.85458 Z[#111+-0.20000]
#116=[#528+[#529-#528]*0.99845]
#117=[#541+[#542-#541]*0.99845]
#111=[#116+[#117-#116]*0.20885]
X36.38279 Y21.13517 Z[#111+-0.20000]
#111=[#529+[#542-#529]*0.20739]
X36.37585 Y21.14290 Z[#111+-0.20000]
#116=[#529+[#530-#529]*0.04601]
#117=[#542+[#543-#542]*0.04601]
#111=[#116+[#117-#116]*0.16405]
X36.16966 Y21.37228 Z[#111+-0.20000]
#116=[#529+[#530-#529]*0.08495]
#117=[#542+[#543-#542]*0.08495]
#111=[#116+[#117-#116]*0.10816]
X35.90380 Y21.56646 Z[#111+-0.20000]
#116=[#529+[#530-#529]*0.11101]
#117=[#542+[#543-#542]*0.11101]
#111=[#116+[#117-#116]*0.04696]
X35.61266 Y21.69639 Z[#111+-0.20000]
#116=[#529+[#530-#529]*0.12054]
#117=[#542+[#543-#542]*0.12054]
#111=[#116+[#117-#116]*0.00000]
X35.38928 Y21.74387 Z[#111+-0.20000]
#116=[#516+[#517-#516]*0.12496]
#117=[#529+[#530-#529]*0.12496]
#111=[#116+[#117-#116]*0.97820]
X35.28559 Y21.76591 Z[#111+-0.20000]
#116=[#516+[#517-#516]*0.12490]
#117=[#529+[#530-#529]*0.12490]
#111=[#116+[#117-#116]*0.91119]
X34.96679 Y21.76563 Z[#111+-0.20000]
#116=[#516+[#517-#516]*0.11138]
#117=[#529+[#530-#529]*0.11138]
#111=[#116+[#117-#116]*0.84456]
X34.64983 Y21.69824 Z[#111+-0.20000]
#116=[#516+[#517-#516]*0.08495]
#117=[#529+[#530-#529]*0.08495]
#111=[#116+[#117-#116]*0.78234]
X34.35382 Y21.56646 Z[#111+-0.20000]
#116=[#516+[#517-#516]*0.04675]
#117=[#529+[#530-#529]*0.04675]
#111=[#116+[#117-#116]*0.72723]
X34.09166 Y21.37599 Z[#111+-0.20000]
#111=[#516+[#529-#516]*0.68311]
X33.88178 Y21.14290 Z[#111+-0.20000]
#116=[#515+[#516-#515]*0.99845]
#117=[#528+[#529-#528]*0.99845]
#111=[#116+[#117-#116]*0.68165]
X33.87482 Y21.13517 Z[#111+-0.20000]
#116=[#515+[#516-#515]*0.94217]
#117=[#528+[#529-#528]*0.94217]
#111=[#116+[#117-#116]*0.64759]
X33.71282 Y20.85458 Z[#111+-0.20000]
#116=[#515+[#516-#515]*0.88036]
#117=[#528+[#529-#528]*0.88036]
#111=[#116+[#117-#116]*0.62654]
X33.61267 Y20.54640 Z[#111+-0.20000]
#116=[#515+[#516-#515]*0.81572]
#117=[#528+[#529-#528]*0.81572]
#111=[#116+[#117-#116]*0.61942]
X33.57881 Y20.22410 Z[#111+-0.20000]
(Suppressed: G04 P0 ( dwell for no time -- G64 should not smooth over this point ))
G00 Z5.00000 ( retract )

G00 X31.07691 Y17.72220 ( rapid move to begin. )
G01 F100.00000
( Mill infeed pass 1/1 )
#116=[#515+[#516-#515]*0.31391]
#117=[#528+[#529-#528]*0.31391]
#111=[#116+[#117-#116]*0.09350]
G01 Z[-0.20000+#111]
(Suppressed: G04 P0 ( dwell for no time -- G64 should not smooth over this point ))
G01 F150.00000
#116=[#515+[#516-#515]*0.24928]
#117=[#528+[#529-#528]*0.24928]
#111=[#116+[#117-#116]*0.10061]
X31.11077 Y17.39995 Z[#111+-0.20000]
#116=[#515+[#516-#515]*0.18747]
#117=[#528+[#529-#528]*0.18747]
#111=[#116+[#117-#116]*0.12167]
X31.21092 Y17.09177 Z[#111+-0.20000]
#116=[#515+[#516-#515]*0.13118]
#117=[#528+[#529-#528]*0.13118]
#111=[#116+[#117-#116]*0.15572]
X31.37292 Y16.81115 Z[#111+-0.20000]
#116=[#515+[#516-#515]*0.08362]
#117=[#528+[#529-#528]*0.08362]
#111=[#116+[#117-#116]*0.20052]
X31.58605 Y16.57404 Z[#111+-0.20000]
#116=[#515+[#516-#515]*0.04468]
#117=[#528+[#529-#528]*0.04468]
#111=[#116+[#117-#116]*0.25641]
X31.85192 Y16.37986 Z[#111+-0.20000]
#116=[#515+[#516-#515]*0.01862]
#117=[#528+[#529-#528]*0.01862]
#111=[#116+[#117-#116]*0.31761]
X32.14305 Y16.24994 Z[#111+-0.20000]
#116=[#515+[#516-#515]*0.00468]
#117=[#528+[#529-#528]*0.00468]
#111=[#116+[#117-#116]*0.38636]
X32.47013 Y16.18042 Z[#111+-0.20000]
#116=[#515+[#516-#515]*0.00473]
#117=[#528+[#529-#528]*0.00473]
#111=[#116+[#117-#116]*0.45338]
X32.78892 Y16.18070 Z[#111+-0.20000]
#116=[#515+[#516-#515]*0.01825]
#117=[#528+[#529-#528]*0.01825]
#111=[#116+[#117-#116]*0.52001]
X33.10589 Y16.24809 Z[#111+-0.20000]
#116=[#515+[#516-#515]*0.04468]
#117=[#528+[#529-#528]*0.04468]
#111=[#116+[#117-#116]*0.58223]
X33.40190 Y16.37986 Z[#111+-0.20000]
#116=[#515+[#516-#515]*0.08288]
#117=[#528+[#529-#528]*0.08288]
#111=[#116+[#117-#116]*0.63734]
X33.66405 Y16.57034 Z[#111+-0.20000]
#116=[#515+[#516-#515]*0.13118]
#117=[#528+[#529-#528]*0.13118]
#111=[#116+[#117-#116]*0.68292]
X33.88089 Y16.81115 Z[#111+-0.20000]
#116=[#515+[#516-#515]*0.18747]
#117=[#528+[#529-#528]*0.18747]
#111=[#116+[#117-#116]*0.71698]
X34.04289 Y17.09177 Z[#111+-0.20000]
#116=[#515+[#516-#515]*0.24928]
#117=[#528+[#529-#528]*0.24928]
#111=[#116+[#117-#116]*0.73803]
X34.14305 Y17.39995 Z[#111+-0.20000]
#116=[#515+[#516-#515]*0.31391]
#117=[#528+[#529-#528]*0.31391]
#111=[#116+[#117-#116]*0.74515]
X34.17690 Y17.72220 Z[#111+-0.20000]
#116=[#515+[#516-#515]*0.37855]
#117=[#528+[#529-#528]*0.37855]
#111=[#116+[#117-#116]*0.73803]
X34.14305 Y18.04448 Z[#111+-0.20000]
#116=[#515+[#516-#515]*0.44036]
#117=[#528+[#529-#528]*0.44036]
#111=[#116+[#117-#116]*0.71698]
X34.04289 Y18.35265 Z[#111+-0.20000]
#116=[#515+[#516-#515]*0.49664]
#117=[#528+[#529-#528]*0.49664]
#111=[#116+[#117-#116]*0.68292]
X33.88089 Y18.63327 Z[#111+-0.20000]
#116=[#515+[#516-#515]*0.54420]
#117=[#528+[#529-#528]*0.54420]
#111=[#116+[#117-#116]*0.63812]
X33.66776 Y18.87038 Z[#111+-0.20000]
#116=[#515+[#516-#515]*0.58363]
#117=[#528+[#529-#528]*0.58363]
#111=[#116+[#117-#116]*0.58126]
X33.39725 Y19.06695 Z[#111+-0.20000]
#116=[#515+[#516-#515]*0.60958]
#117=[#528+[#529-#528]*0.60958]
#111=[#116+[#117-#116]*0.52001]
X33.10589 Y19.19634 Z[#111+-0.20000]
#116=[#515+[#516-#515]*0.62316]
#117=[#528+[#529-#528]*0.62316]
#111=[#116+[#117-#116]*0.45228]
X32.78369 Y19.26403 Z[#111+-0.20000]
#116=[#515+[#516-#515]*0.62309]
#117=[#528+[#529-#528]*0.62309]
#111=[#116+[#117-#116]*0.38527]
X32.46489 Y19.26373 Z[#111+-0.20000]
#116=[#515+[#516-#515]*0.60958]
#117=[#528+[#529-#528]*0.60958]
#111=[#116+[#117-#116]*0.31864]
X32.14793 Y19.19634 Z[#111+-0.20000]
#116=[#515+[#516-#515]*0.58315]
#117=[#528+[#529-#528]*0.58315]
#111=[#116+[#117-#116]*0.25641]
X31.85192 Y19.06456 Z[#111+-0.20000]
#116=[#515+[#516-#515]*0.54494]
#117=[#528+[#529-#528]*0.54494]
#111=[#116+[#117-#116]*0.20130]
X31.58976 Y18.87409 Z[#111+-0.20000]
#116=[#515+[#516-#515]*0.49664]
#117=[#528+[#529-#528]*0.49664]
#111=[#116+[#117-#116]*0.15572]
X31.37292 Y18.63327 Z[#111+-0.20000]
#116=[#515+[#516-#515]*0.44036]
#117=[#528+[#529-#528]*0.44036]
#111=[#116+[#117-#116]*0.12167]
X31.21092 Y18.35265 Z[#111+-0.20000]
#116=[#515+[#516-#515]*0.37855]
#117=[#528+[#529-#528]*0.37855]
#111=[#116+[#117-#116]*0.10061]
X31.11077 Y18.04448 Z[#111+-0.20000]
#116=[#515+[#516-#515]*0.31391]
#117=[#528+[#529-#528]*0.31391]
#111=[#116+[#117-#116]*0.09350]
X31.07691 Y17.72220 Z[#111+-0.20000]
(Suppressed: G04 P0 ( dwell for no time -- G64 should not smooth over this point ))
G00 Z5.00000 ( retract )

G00 X33.57373 Y7.72730 ( rapid move to begin. )
G01 F100.00000
( Mill infeed pass 1/1 )
#116=[#513+[#514-#513]*0.30923]
#117=[#526+[#527-#526]*0.30923]
#111=[#116+[#117-#116]*0.61835]
G01 Z[-0.20000+#111]
(Suppressed: G04 P0 ( dwell for no time -- G64 should not smooth over this point ))
G01 F150.00000
#116=[#513+[#514-#513]*0.37387]
#117=[#526+[#527-#526]*0.37387]
#111=[#116+[#117-#116]*0.62547]
X33.60759 Y8.04958 Z[#111+-0.20000]
#116=[#513+[#514-#513]*0.43568]
#117=[#526+[#527-#526]*0.43568]
#111=[#116+[#117-#116]*0.64652]
X33.70774 Y8.35775 Z[#111+-0.20000]
#116=[#513+[#514-#513]*0.49197]
#117=[#526+[#527-#526]*0.49197]
#111=[#116+[#117-#116]*0.68058]
X33.86974 Y8.63837 Z[#111+-0.20000]
#116=[#513+[#514-#513]*0.53953]
#117=[#526+[#527-#526]*0.53953]
#111=[#116+[#117-#116]*0.72538]
X34.08287 Y8.87548 Z[#111+-0.20000]
#116=[#513+[#514-#513]*0.57847]
#117=[#526+[#527-#526]*0.57847]
#111=[#116+[#117-#116]*0.78127]
X34.34874 Y9.06966 Z[#111+-0.20000]
#116=[#513+[#514-#513]*0.60453]
#117=[#526+[#527-#526]*0.60453]
#111=[#116+[#117-#116]*0.84247]
X34.63987 Y9.19959 Z[#111+-0.20000]
#116=[#513+[#514-#513]*0.61847]
#117=[#526+[#527-#526]*0.61847]
#111=[#116+[#117-#116]*0.91122]
X34.96695 Y9.26911 Z[#111+-0.20000]
#116=[#513+[#514-#513]*0.61842]
#117=[#526+[#527-#526]*0.61842]
#111=[#116+[#117-#116]*0.97824]
X35.28574 Y9.26883 Z[#111+-0.20000]
#116=[#526+[#527-#526]*0.61400]
#117=[#539+[#540-#539]*0.61400]
#111=[#116+[#117-#116]*0.00000]
X35.38928 Y9.24681 Z[#111+-0.20000]
#116=[#526+[#527-#526]*0.60490]
#117=[#539+[#540-#539]*0.60490]
#111=[#116+[#117-#116]*0.04487]
X35.60271 Y9.20144 Z[#111+-0.20000]
#116=[#526+[#527-#526]*0.57847]
#117=[#539+[#540-#539]*0.57847]
#111=[#116+[#117-#116]*0.10709]
X35.89872 Y9.06966 Z[#111+-0.20000]
#116=[#526+[#527-#526]*0.54027]
#117=[#539+[#540-#539]*0.54027]
#111=[#116+[#117-#116]*0.16220]
X36.16087 Y8.87919 Z[#111+-0.20000]
#116=[#526+[#527-#526]*0.49197]
#117=[#539+[#540-#539]*0.49197]
#111=[#116+[#117-#116]*0.20778]
X36.37771 Y8.63837 Z[#111+-0.20000]
#116=[#526+[#527-#526]*0.43568]
#117=[#539+[#540-#539]*0.43568]
#111=[#116+[#117-#116]*0.24183]
X36.53971 Y8.35775 Z[#111+-0.20000]
#116=[#526+[#527-#526]*0.37387]
#117=[#539+[#540-#539]*0.37387]
#111=[#116+[#117-#116]*0.26289]
X36.63987 Y8.04958 Z[#111+-0.20000]
#116=[#526+[#527-#526]*0.30923]
#117=[#539+[#540-#539]*0.30923]
#111=[#116+[#117-#116]*0.27000]
X36.67372 Y7.72730 Z[#111+-0.20000]
#116=[#526+[#527-#526]*0.24460]
#117=[#539+[#540-#539]*0.24460]
#111=[#116+[#117-#116]*0.26289]
X36.63987 Y7.40505 Z[#111+-0.20000]
#116=[#526+[#527-#526]*0.18279]
#117=[#539+[#540-#539]*0.18279]
#111=[#116+[#117-#116]*0.24183]
X36.53971 Y7.09687 Z[#111+-0.20000]
#116=[#526+[#527-#526]*0.12651]
#117=[#539+[#540-#539]*0.12651]
#111=[#116+[#117-#116]*0.20778]
X36.37771 Y6.81625 Z[#111+-0.20000]
#116=[#526+[#527-#526]*0.07895]
#117=[#539+[#540-#539]*0.07895]
#111=[#116+[#117-#116]*0.16298]
X36.16458 Y6.57914 Z[#111+-0.20000]
#116=[#526+[#527-#526]*0.04000]
#117=[#539+[#540-#539]*0.04000]
#111=[#116+[#117-#116]*0.10709]
X35.89872 Y6.38496 Z[#111+-0.20000]
#116=[#526+[#527-#526]*0.01394]
#117=[#539+[#540-#539]*0.01394]
#111=[#116+[#117-#116]*0.04589]
X35.60758 Y6.25504 Z[#111+-0.20000]
#116=[#526+[#527-#526]*0.00464]
#117=[#539+[#540-#539]*0.00464]
#111=[#116+[#117-#116]*0.00000]
X35.38928 Y6.20864 Z[#111+-0.20000]
#111=[#513+[#526-#513]*0.97714]
X35.28051 Y6.18552 Z[#111+-0.20000]
#116=[#513+[#514-#513]*0.00006]
#117=[#526+[#527-#526]*0.00006]
#111=[#116+[#117-#116]*0.91012]
X34.96171 Y6.18580 Z[#111+-0.20000]
#116=[#513+[#514-#513]*0.01357]
#117=[#526+[#527-#526]*0.01357]
#111=[#116+[#117-#116]*0.84349]
X34.64475 Y6.25319 Z[#111+-0.20000]
#116=[#513+[#514-#513]*0.04000]
#117=[#526+[#527-#526]*0.04000]
#111=[#116+[#117-#116]*0.78127]
X34.34874 Y6.38496 Z[#111+-0.20000]
#116=[#513+[#514-#513]*0.07821]
#117=[#526+[#527-#526]*0.07821]
#111=[#116+[#117-#116]*0.72616]
X34.08658 Y6.57544 Z[#111+-0.20000]
#116=[#513+[#514-#513]*0.12651]
#117=[#526+[#527-#526]*0.12651]
#111=[#116+[#117-#116]*0.68058]
X33.86974 Y6.81625 Z[#111+-0.20000]
#116=[#513+[#514-#513]*0.18279]
#117=[#526+[#527-#526]*0.18279]
#111=[#116+[#117-#116]*0.64652]
X33.70774 Y7.09687 Z[#111+-0.20000]
#116=[#513+[#514-#513]*0.24460]
#117=[#526+[#527-#526]*0.24460]
#111=[#116+[#117-#116]*0.62547]
X33.60759 Y7.40505 Z[#111+-0.20000]
#116=[#513+[#514-#513]*0.30923]
#117=[#526+[#527-#526]*0.30923]
#111=[#116+[#117-#116]*0.61835]
X33.57373 Y7.72730 Z[#111+-0.20000]
(Suppressed: G04 P0 ( dwell for no time -- G64 should not smooth over this point ))
G00 Z5.00000 ( retract )

G00 X38.57499 Y17.72474 ( rapid move to begin. )
G01 F100.00000
( Mill infeed pass 1/1 )
#116=[#528+[#529-#528]*0.31442]
#117=[#541+[#542-#541]*0.31442]
#111=[#116+[#117-#116]*0.66967]
G01 Z[-0.20000+#111]
(Suppressed: G04 P0 ( dwell for no time -- G64 should not smooth over this point ))
G01 F150.00000
#116=[#528+[#529-#528]*0.24979]
#117=[#541+[#542-#541]*0.24979]
#111=[#116+[#117-#116]*0.67679]
X38.60885 Y17.40249 Z[#111+-0.20000]
#116=[#528+[#529-#528]*0.18798]
#117=[#541+[#542-#541]*0.18798]
#111=[#116+[#117-#116]*0.69784]
X38.70900 Y17.09431 Z[#111+-0.20000]
#116=[#528+[#529-#528]*0.13169]
#117=[#541+[#542-#541]*0.13169]
#111=[#116+[#117-#116]*0.73189]
X38.87100 Y16.81369 Z[#111+-0.20000]
#116=[#528+[#529-#528]*0.08413]
#117=[#541+[#542-#541]*0.08413]
#111=[#116+[#117-#116]*0.77670]
X39.08413 Y16.57658 Z[#111+-0.20000]
#116=[#528+[#529-#528]*0.04519]
#117=[#541+[#542-#541]*0.04519]
#111=[#116+[#117-#116]*0.83258]
X39.35000 Y16.38240 Z[#111+-0.20000]
#116=[#528+[#529-#528]*0.01913]
#117=[#541+[#542-#541]*0.01913]
#111=[#116+[#117-#116]*0.89378]
X39.64113 Y16.25248 Z[#111+-0.20000]
#116=[#528+[#529-#528]*0.00519]
#117=[#541+[#542-#541]*0.00519]
#111=[#116+[#117-#116]*0.96254]
X39.96821 Y16.18296 Z[#111+-0.20000]
#116=[#528+[#529-#528]*0.00522]
#117=[#541+[#542-#541]*0.00522]
#111=[#116+[#117-#116]*1.00000]
X40.14642 Y16.18312 Z[#111+-0.20000]
#116=[#541+[#542-#541]*0.00524]
#117=[#554+[#555-#554]*0.00524]
#111=[#116+[#117-#116]*0.02955]
X40.28700 Y16.18324 Z[#111+-0.20000]
#116=[#541+[#542-#541]*0.01876]
#117=[#554+[#555-#554]*0.01876]
#111=[#116+[#117-#116]*0.09618]
X40.60397 Y16.25063 Z[#111+-0.20000]
#116=[#541+[#542-#541]*0.04519]
#117=[#554+[#555-#554]*0.04519]
#111=[#116+[#117-#116]*0.15841]
X40.89998 Y16.38240 Z[#111+-0.20000]
#116=[#541+[#542-#541]*0.08339]
#117=[#554+[#555-#554]*0.08339]
#111=[#116+[#117-#116]*0.21351]
X41.16213 Y16.57288 Z[#111+-0.20000]
#116=[#541+[#542-#541]*0.13169]
#117=[#554+[#555-#554]*0.13169]
#111=[#116+[#117-#116]*0.25910]
X41.37897 Y16.81369 Z[#111+-0.20000]
#116=[#541+[#542-#541]*0.18798]
#117=[#554+[#555-#554]*0.18798]
#111=[#116+[#117-#116]*0.29315]
X41.54097 Y17.09431 Z[#111+-0.20000]
#116=[#541+[#542-#541]*0.24979]
#117=[#554+[#555-#554]*0.24979]
#111=[#116+[#117-#116]*0.31420]
X41.64113 Y17.40249 Z[#111+-0.20000]
#116=[#541+[#542-#541]*0.31442]
#117=[#554+[#555-#554]*0.31442]
#111=[#116+[#117-#116]*0.32132]
X41.67498 Y17.72474 Z[#111+-0.20000]
#116=[#541+[#542-#541]*0.37906]
#117=[#554+[#555-#554]*0.37906]
#111=[#116+[#117-#116]*0.31420]
X41.64113 Y18.04702 Z[#111+-0.20000]
#116=[#541+[#542-#541]*0.44087]
#117=[#554+[#555-#554]*0.44087]
#111=[#116+[#117-#116]*0.29315]
X41.54097 Y18.35519 Z[#111+-0.20000]
#116=[#541+[#542-#541]*0.49715]
#117=[#554+[#555-#554]*0.49715]
#111=[#116+[#117-#116]*0.25910]
X41.37897 Y18.63581 Z[#111+-0.20000]
#116=[#541+[#542-#541]*0.54471]
#117=[#554+[#555-#554]*0.54471]
#111=[#116+[#117-#116]*0.21429]
X41.16584 Y18.87292 Z[#111+-0.20000]
#116=[#541+[#542-#541]*0.58366]
#117=[#554+[#555-#554]*0.58366]
#111=[#116+[#117-#116]*0.15841]
X40.89998 Y19.06710 Z[#111+-0.20000]
#116=[#541+[#542-#541]*0.60972]
#117=[#554+[#555-#554]*0.60972]
#111=[#116+[#117-#116]*0.09721]
X40.60884 Y19.19705 Z[#111+-0.20000]
#116=[#541+[#542-#541]*0.62366]
#117=[#554+[#555-#554]*0.62366]
#111=[#116+[#117-#116]*0.02845]
X40.28177 Y19.26655 Z[#111+-0.20000]
#116=[#528+[#529-#528]*0.62364]
#117=[#541+[#542-#541]*0.62364]
#111=[#116+[#117-#116]*1.00000]
X40.14642 Y19.26643 Z[#111+-0.20000]
#116=[#528+[#529-#528]*0.62360]
#117=[#541+[#542-#541]*0.62360]
#111=[#116+[#117-#116]*0.96144]
X39.96297 Y19.26627 Z[#111+-0.20000]
#116=[#528+[#529-#528]*0.61009]
#117=[#541+[#542-#541]*0.61009]
#111=[#116+[#117-#116]*0.89481]
X39.64601 Y19.19891 Z[#111+-0.20000]
#116=[#528+[#529-#528]*0.58366]
#117=[#541+[#542-#541]*0.58366]
#111=[#116+[#117-#116]*0.83258]
X39.35000 Y19.06710 Z[#111+-0.20000]
#116=[#528+[#529-#528]*0.54545]
#117=[#541+[#542-#541]*0.54545]
#111=[#116+[#117-#116]*0.77748]
X39.08784 Y18.87663 Z[#111+-0.20000]
#116=[#528+[#529-#528]*0.49715]
#117=[#541+[#542-#541]*0.49715]
#111=[#116+[#117-#116]*0.73189]
X38.87100 Y18.63581 Z[#111+-0.20000]
#116=[#528+[#529-#528]*0.44087]
#117=[#541+[#542-#541]*0.44087]
#111=[#116+[#117-#116]*0.69784]
X38.70900 Y18.35519 Z[#111+-0.20000]
#116=[#528+[#529-#528]*0.37906]
#117=[#541+[#542-#541]*0.37906]
#111=[#116+[#117-#116]*0.67679]
X38.60885 Y18.04702 Z[#111+-0.20000]
#116=[#528+[#529-#528]*0.31442]
#117=[#541+[#542-#541]*0.31442]
#111=[#116+[#117-#116]*0.66967]
X38.57499 Y17.72474 Z[#111+-0.20000]
(Suppressed: G04 P0 ( dwell for no time -- G64 should not smooth over this point ))
G00 Z5.00000 ( retract )

G00 X43.57117 Y20.22410 ( rapid move to begin. )
G01 F100.00000
( Mill infeed pass 1/1 )
#116=[#541+[#542-#541]*0.81572]
#117=[#554+[#555-#554]*0.81572]
#111=[#116+[#117-#116]*0.71992]
G01 Z[-0.20000+#111]
(Suppressed: G04 P0 ( dwell for no time -- G64 should not smooth over this point ))
G01 F150.00000
#116=[#541+[#542-#541]*0.75108]
#117=[#554+[#555-#554]*0.75108]
#111=[#116+[#117-#116]*0.72704]
X43.60503 Y19.90185 Z[#111+-0.20000]
#116=[#541+[#542-#541]*0.68927]
#117=[#554+[#555-#554]*0.68927]
#111=[#116+[#117-#116]*0.74809]
X43.70518 Y19.59367 Z[#111+-0.20000]
#116=[#541+[#542-#541]*0.63299]
#117=[#554+[#555-#554]*0.63299]
#111=[#116+[#117-#116]*0.78214]
X43.86718 Y19.31308 Z[#111+-0.20000]
#116=[#541+[#542-#541]*0.58543]
#117=[#554+[#555-#554]*0.58543]
#111=[#116+[#117-#116]*0.82695]
X44.08031 Y19.07594 Z[#111+-0.20000]
#116=[#541+[#542-#541]*0.54648]
#117=[#554+[#555-#554]*0.54648]
#111=[#116+[#117-#116]*0.88283]
X44.34618 Y18.88176 Z[#111+-0.20000]
#116=[#541+[#542-#541]*0.52043]
#117=[#554+[#555-#554]*0.52043]
#111=[#116+[#117-#116]*0.94403]
X44.63731 Y18.75184 Z[#111+-0.20000]
#111=[#554+[#555-#554]*0.50908]
X44.90356 Y18.69527 Z[#111+-0.20000]
#116=[#554+[#555-#554]*0.50649]
#117=[#567+[#568-#567]*0.50649]
#111=[#116+[#117-#116]*0.01279]
X44.96439 Y18.68235 Z[#111+-0.20000]
#116=[#554+[#555-#554]*0.50654]
#117=[#567+[#568-#567]*0.50654]
#111=[#116+[#117-#116]*0.07980]
X45.28318 Y18.68260 Z[#111+-0.20000]
#116=[#554+[#555-#554]*0.52005]
#117=[#567+[#568-#567]*0.52005]
#111=[#116+[#117-#116]*0.14643]
X45.60015 Y18.74999 Z[#111+-0.20000]
#116=[#554+[#555-#554]*0.54648]
#117=[#567+[#568-#567]*0.54648]
#111=[#116+[#117-#116]*0.20865]
X45.89616 Y18.88176 Z[#111+-0.20000]
#116=[#554+[#555-#554]*0.58469]
#117=[#567+[#568-#567]*0.58469]
#111=[#116+[#117-#116]*0.26376]
X46.15831 Y19.07224 Z[#111+-0.20000]
#116=[#554+[#555-#554]*0.63299]
#117=[#567+[#568-#567]*0.63299]
#111=[#116+[#117-#116]*0.30934]
X46.37515 Y19.31308 Z[#111+-0.20000]
#116=[#554+[#555-#554]*0.68927]
#117=[#567+[#568-#567]*0.68927]
#111=[#116+[#117-#116]*0.34340]
X46.53715 Y19.59367 Z[#111+-0.20000]
#116=[#554+[#555-#554]*0.75108]
#117=[#567+[#568-#567]*0.75108]
#111=[#116+[#117-#116]*0.36445]
X46.63731 Y19.90185 Z[#111+-0.20000]
#116=[#554+[#555-#554]*0.81572]
#117=[#567+[#568-#567]*0.81572]
#111=[#116+[#117-#116]*0.37157]
X46.67116 Y20.22410 Z[#111+-0.20000]
#116=[#554+[#555-#554]*0.88036]
#117=[#567+[#568-#567]*0.88036]
#111=[#116+[#117-#116]*0.36445]
X46.63731 Y20.54640 Z[#111+-0.20000]
#116=[#554+[#555-#554]*0.94217]
#117=[#567+[#568-#567]*0.94217]
#111=[#116+[#117-#116]*0.34340]
X46.53715 Y20.85458 Z[#111+-0.20000]
#116=[#554+[#555-#554]*0.99845]
#117=[#567+[#568-#567]*0.99845]
#111=[#116+[#117-#116]*0.30934]
X46.37515 Y21.13517 Z[#111+-0.20000]
#111=[#555+[#568-#555]*0.30788]
X46.36821 Y21.14290 Z[#111+-0.20000]
#116=[#555+[#556-#555]*0.04601]
#117=[#568+[#569-#568]*0.04601]
#111=[#116+[#117-#116]*0.26454]
X46.16202 Y21.37228 Z[#111+-0.20000]
#116=[#555+[#556-#555]*0.08495]
#117=[#568+[#569-#568]*0.08495]
#111=[#116+[#117-#116]*0.20865]
X45.89616 Y21.56646 Z[#111+-0.20000]
#116=[#555+[#556-#555]*0.11101]
#117=[#568+[#569-#568]*0.11101]
#111=[#116+[#117-#116]*0.14746]
X45.60502 Y21.69639 Z[#111+-0.20000]
#116=[#555+[#556-#555]*0.12496]
#117=[#568+[#569-#568]*0.12496]
#111=[#116+[#117-#116]*0.07870]
X45.27795 Y21.76591 Z[#111+-0.20000]
#116=[#555+[#556-#555]*0.12490]
#117=[#568+[#569-#568]*0.12490]
#111=[#116+[#117-#116]*0.01169]
X44.95915 Y21.76563 Z[#111+-0.20000]
#111=[#555+[#556-#555]*0.12253]
X44.90356 Y21.75381 Z[#111+-0.20000]
#116=[#542+[#543-#542]*0.11138]
#117=[#555+[#556-#555]*0.11138]
#111=[#116+[#117-#116]*0.94506]
X44.64219 Y21.69824 Z[#111+-0.20000]
#116=[#542+[#543-#542]*0.08495]
#117=[#555+[#556-#555]*0.08495]
#111=[#116+[#117-#116]*0.88283]
X44.34618 Y21.56646 Z[#111+-0.20000]
#116=[#542+[#543-#542]*0.04675]
#117=[#555+[#556-#555]*0.04675]
#111=[#116+[#117-#116]*0.82772]
X44.08402 Y21.37599 Z[#111+-0.20000]
#111=[#542+[#555-#542]*0.78361]
X43.87414 Y21.14290 Z[#111+-0.20000]
#116=[#541+[#542-#541]*0.99845]
#117=[#554+[#555-#554]*0.99845]
#111=[#116+[#117-#116]*0.78214]
X43.86718 Y21.13517 Z[#111+-0.20000]
#116=[#541+[#542-#541]*0.94217]
#117=[#554+[#555-#554]*0.94217]
#111=[#116+[#117-#116]*0.74809]
X43.70518 Y20.85458 Z[#111+-0.20000]
#116=[#541+[#542-#541]*0.88036]
#117=[#554+[#555-#554]*0.88036]
#111=[#116+[#117-#116]*0.72704]
X43.60503 Y20.54640 Z[#111+-0.20000]
#116=[#541+[#542-#541]*0.81572]
#117=[#554+[#555-#554]*0.81572]
#111=[#116+[#117-#116]*0.71992]
X43.57117 Y20.22410 Z[#111+-0.20000]
(Suppressed: G04 P0 ( dwell for no time -- G64 should not smooth over this point ))
G00 Z5.00000 ( retract )

G00 X46.07307 Y17.72220 ( rapid move to begin. )
G01 F100.00000
( Mill infeed pass 1/1 )
#116=[#554+[#555-#554]*0.31391]
#117=[#567+[#568-#567]*0.31391]
#111=[#116+[#117-#116]*0.24584]
G01 Z[-0.20000+#111]
(Suppressed: G04 P0 ( dwell for no time -- G64 should not smooth over this point ))
G01 F150.00000
#116=[#554+[#555-#554]*0.24928]
#117=[#567+[#568-#567]*0.24928]
#111=[#116+[#117-#116]*0.25296]
X46.10693 Y17.39995 Z[#111+-0.20000]
#116=[#554+[#555-#554]*0.18747]
#117=[#567+[#568-#567]*0.18747]
#111=[#116+[#117-#116]*0.27401]
X46.20708 Y17.09177 Z[#111+-0.20000]
#116=[#554+[#555-#554]*0.13118]
#117=[#567+[#568-#567]*0.13118]
#111=[#116+[#117-#116]*0.30807]
X46.36908 Y16.81115 Z[#111+-0.20000]
#116=[#554+[#555-#554]*0.08362]
#117=[#567+[#568-#567]*0.08362]
#111=[#116+[#117-#116]*0.35287]
X46.58221 Y16.57404 Z[#111+-0.20000]
#116=[#554+[#555-#554]*0.04468]
#117=[#567+[#568-#567]*0.04468]
#111=[#116+[#117-#116]*0.40876]
X46.84808 Y16.37986 Z[#111+-0.20000]
#116=[#554+[#555-#554]*0.01862]
#117=[#567+[#568-#567]*0.01862]
#111=[#116+[#117-#116]*0.46996]
X47.13921 Y16.24994 Z[#111+-0.20000]
#116=[#554+[#555-#554]*0.00468]
#117=[#567+[#568-#567]*0.00468]
#111=[#116+[#117-#116]*0.53871]
X47.46629 Y16.18042 Z[#111+-0.20000]
#116=[#554+[#555-#554]*0.00473]
#117=[#567+[#568-#567]*0.00473]
#111=[#116+[#117-#116]*0.60573]
X47.78508 Y16.18070 Z[#111+-0.20000]
#116=[#554+[#555-#554]*0.01825]
#117=[#567+[#568-#567]*0.01825]
#111=[#116+[#117-#116]*0.67235]
X48.10205 Y16.24809 Z[#111+-0.20000]
#116=[#554+[#555-#554]*0.04468]
#117=[#567+[#568-#567]*0.04468]
#111=[#116+[#117-#116]*0.73458]
X48.39806 Y16.37986 Z[#111+-0.20000]
#116=[#554+[#555-#554]*0.08288]
#117=[#567+[#568-#567]*0.08288]
#111=[#116+[#117-#116]*0.78969]
X48.66021 Y16.57034 Z[#111+-0.20000]
#116=[#554+[#555-#554]*0.13118]
#117=[#567+[#568-#567]*0.13118]
#111=[#116+[#117-#116]*0.83527]
X48.87705 Y16.81115 Z[#111+-0.20000]
#116=[#554+[#555-#554]*0.18747]
#117=[#567+[#568-#567]*0.18747]
#111=[#116+[#117-#116]*0.86932]
X49.03905 Y17.09177 Z[#111+-0.20000]
#116=[#554+[#555-#554]*0.24928]
#117=[#567+[#568-#567]*0.24928]
#111=[#116+[#117-#116]*0.89038]
X49.13921 Y17.39995 Z[#111+-0.20000]
#116=[#554+[#555-#554]*0.31391]
#117=[#567+[#568-#567]*0.31391]
#111=[#116+[#117-#116]*0.89749]
X49.17306 Y17.72220 Z[#111+-0.20000]
#116=[#554+[#555-#554]*0.37855]
#117=[#567+[#568-#567]*0.37855]
#111=[#116+[#117-#116]*0.89038]
X49.13921 Y18.04448 Z[#111+-0.20000]
#116=[#554+[#555-#554]*0.44036]
#117=[#567+[#568-#567]*0.44036]
#111=[#116+[#117-#116]*0.86932]
X49.03905 Y18.35265 Z[#111+-0.20000]
#116=[#554+[#555-#554]*0.49664]
#117=[#567+[#568-#567]*0.49664]
#111=[#116+[#117-#116]*0.83527]
X48.87705 Y18.63327 Z[#111+-0.20000]
#116=[#554+[#555-#554]*0.54420]
#117=[#567+[#568-#567]*0.54420]
#111=[#116+[#117-#116]*0.79047]
X48.66392 Y18.87038 Z[#111+-0.20000]
#116=[#554+[#555-#554]*0.58363]
#117=[#567+[#568-#567]*0.58363]
#111=[#116+[#117-#116]*0.73360]
X48.39341 Y19.06695 Z[#111+-0.20000]
#116=[#554+[#555-#554]*0.60958]
#117=[#567+[#568-#567]*0.60958]
#111=[#116+[#117-#116]*0.67235]
X48.10205 Y19.19634 Z[#111+-0.20000]
#116=[#554+[#555-#554]*0.62316]
#117=[#567+[#568-#567]*0.62316]
#111=[#116+[#117-#116]*0.60463]
X47.77985 Y19.26403 Z[#111+-0.20000]
#116=[#554+[#555-#554]*0.62309]
#117=[#567+[#568-#567]*0.62309]
#111=[#116+[#117-#116]*0.53761]
X47.46105 Y19.26373 Z[#111+-0.20000]
#116=[#554+[#555-#554]*0.60958]
#117=[#567+[#568-#567]*0.60958]
#111=[#116+[#117-#116]*0.47098]
X47.14409 Y19.19634 Z[#111+-0.20000]
#116=[#554+[#555-#554]*0.58315]
#117=[#567+[#568-#567]*0.58315]
#111=[#116+[#117-#116]*0.40876]
X46.84808 Y19.06456 Z[#111+-0.20000]
#116=[#554+[#555-#554]*0.54494]
#117=[#567+[#568-#567]*0.54494]
#111=[#116+[#117-#116]*0.35365]
X46.58592 Y18.87409 Z[#111+-0.20000]
#116=[#554+[#555-#554]*0.49664]
#117=[#567+[#568-#567]*0.49664]
#111=[#116+[#117-#116]*0.30807]
X46.36908 Y18.63327 Z[#111+-0.20000]
#116=[#554+[#555-#554]*0.44036]
#117=[#567+[#568-#567]*0.44036]
#111=[#116+[#117-#116]*0.27401]
X46.20708 Y18.35265 Z[#111+-0.20000]
#116=[#554+[#555-#554]*0.37855]
#117=[#567+[#568-#567]*0.37855]
#111=[#116+[#117-#116]*0.25296]
X46.10693 Y18.04448 Z[#111+-0.20000]
#116=[#554+[#555-#554]*0.31391]
#117=[#567+[#568-#567]*0.31391]
#111=[#116+[#117-#116]*0.24584]
X46.07307 Y17.72220 Z[#111+-0.20000]
(Suppressed: G04 P0 ( dwell for no time -- G64 should not smooth over this point ))
G00 Z5.00000 ( retract )

G00 X43.57625 Y7.72730 ( rapid move to begin. )
G01 F100.00000
( Mill infeed pass 1/1 )
#116=[#539+[#540-#539]*0.30923]
#117=[#552+[#553-#552]*0.30923]
#111=[#116+[#117-#116]*0.72099]
G01 Z[-0.20000+#111]
(Suppressed: G04 P0 ( dwell for no time -- G64 should not smooth over this point ))
G01 F150.00000
#116=[#539+[#540-#539]*0.24460]
#117=[#552+[#553-#552]*0.24460]
#111=[#116+[#117-#116]*0.72810]
X43.61011 Y7.40505 Z[#111+-0.20000]
#116=[#539+[#540-#539]*0.18279]
#117=[#552+[#553-#552]*0.18279]
#111=[#116+[#117-#116]*0.74916]
X43.71026 Y7.09687 Z[#111+-0.20000]
#116=[#539+[#540-#539]*0.12651]
#117=[#552+[#553-#552]*0.12651]
#111=[#116+[#117-#116]*0.78321]
X43.87226 Y6.81625 Z[#111+-0.20000]
#116=[#539+[#540-#539]*0.07895]
#117=[#552+[#553-#552]*0.07895]
#111=[#116+[#117-#116]*0.82801]
X44.08539 Y6.57914 Z[#111+-0.20000]
#116=[#539+[#540-#539]*0.04000]
#117=[#552+[#553-#552]*0.04000]
#111=[#116+[#117-#116]*0.88390]
X44.35126 Y6.38496 Z[#111+-0.20000]
#116=[#539+[#540-#539]*0.01394]
#117=[#552+[#553-#552]*0.01394]
#111=[#116+[#117-#116]*0.94510]
X44.64239 Y6.25504 Z[#111+-0.20000]
#111=[#552+[#553-#552]*0.00281]
X44.90356 Y6.19953 Z[#111+-0.20000]
#111=[#552+[#565-#552]*0.01385]
X44.96947 Y6.18552 Z[#111+-0.20000]
#116=[#552+[#553-#552]*0.00006]
#117=[#565+[#566-#565]*0.00006]
#111=[#116+[#117-#116]*0.08087]
X45.28826 Y6.18580 Z[#111+-0.20000]
#116=[#552+[#553-#552]*0.01357]
#117=[#565+[#566-#565]*0.01357]
#111=[#116+[#117-#116]*0.14750]
X45.60523 Y6.25319 Z[#111+-0.20000]
#116=[#552+[#553-#552]*0.04000]
#117=[#565+[#566-#565]*0.04000]
#111=[#116+[#117-#116]*0.20972]
X45.90124 Y6.38496 Z[#111+-0.20000]
#116=[#552+[#553-#552]*0.07821]
#117=[#565+[#566-#565]*0.07821]
#111=[#116+[#117-#116]*0.26483]
X46.16339 Y6.57544 Z[#111+-0.20000]
#116=[#552+[#553-#552]*0.12651]
#117=[#565+[#566-#565]*0.12651]
#111=[#116+[#117-#116]*0.31041]
X46.38023 Y6.81625 Z[#111+-0.20000]
#116=[#552+[#553-#552]*0.18279]
#117=[#565+[#566-#565]*0.18279]
#111=[#116+[#117-#116]*0.34447]
X46.54223 Y7.09687 Z[#111+-0.20000]
#116=[#552+[#553-#552]*0.24460]
#117=[#565+[#566-#565]*0.24460]
#111=[#116+[#117-#116]*0.36552]
X46.64239 Y7.40505 Z[#111+-0.20000]
#116=[#552+[#553-#552]*0.30923]
#117=[#565+[#566-#565]*0.30923]
#111=[#116+[#117-#116]*0.37264]
X46.67624 Y7.72730 Z[#111+-0.20000]
#116=[#552+[#553-#552]*0.37387]
#117=[#565+[#566-#565]*0.37387]
#111=[#116+[#117-#116]*0.36552]
X46.64239 Y8.04958 Z[#111+-0.20000]
#116=[#552+[#553-#552]*0.43568]
#117=[#565+[#566-#565]*0.43568]
#111=[#116+[#117-#116]*0.34447]
X46.54223 Y8.35775 Z[#111+-0.20000]
#116=[#552+[#553-#552]*0.49197]
#117=[#565+[#566-#565]*0.49197]
#111=[#116+[#117-#116]*0.31041]
X46.38023 Y8.63837 Z[#111+-0.20000]
#116=[#552+[#553-#552]*0.53953]
#117=[#565+[#566-#565]*0.53953]
#111=[#116+[#117-#116]*0.26561]
X46.16710 Y8.87548 Z[#111+-0.20000]
#116=[#552+[#553-#552]*0.57847]
#117=[#565+[#566-#565]*0.57847]
#111=[#116+[#117-#116]*0.20972]
X45.90124 Y9.06966 Z[#111+-0.20000]
#116=[#552+[#553-#552]*0.60453]
#117=[#565+[#566-#565]*0.60453]
#111=[#116+[#117-#116]*0.14852]
X45.61010 Y9.19959 Z[#111+-0.20000]
#116=[#552+[#553-#552]*0.61847]
#117=[#565+[#566-#565]*0.61847]
#111=[#116+[#117-#116]*0.07977]
X45.28303 Y9.26911 Z[#111+-0.20000]
#116=[#552+[#553-#552]*0.61842]
#117=[#565+[#566-#565]*0.61842]
#111=[#116+[#117-#116]*0.01275]
X44.96423 Y9.26883 Z[#111+-0.20000]
#111=[#552+[#553-#552]*0.61583]
X44.90356 Y9.25593 Z[#111+-0.20000]
#116=[#539+[#540-#539]*0.60490]
#117=[#552+[#553-#552]*0.60490]
#111=[#116+[#117-#116]*0.94612]
X44.64727 Y9.20144 Z[#111+-0.20000]
#116=[#539+[#540-#539]*0.57847]
#117=[#552+[#553-#552]*0.57847]
#111=[#116+[#117-#116]*0.88390]
X44.35126 Y9.06966 Z[#111+-0.20000]
#116=[#539+[#540-#539]*0.54027]
#117=[#552+[#553-#552]*0.54027]
#111=[#116+[#117-#116]*0.82879]
X44.08910 Y8.87919 Z[#111+-0.20000]
#116=[#539+[#540-#539]*0.49197]
#117=[#552+[#553-#552]*0.49197]
#111=[#116+[#117-#116]*0.78321]
X43.87226 Y8.63837 Z[#111+-0.20000]
#116=[#539+[#540-#539]*0.43568]
#117=[#552+[#553-#552]*0.43568]
#111=[#116+[#117-#116]*0.74916]
X43.71026 Y8.35775 Z[#111+-0.20000]
#116=[#539+[#540-#539]*0.37387]
#117=[#552+[#553-#552]*0.37387]
#111=[#116+[#117-#116]*0.72810]
X43.61011 Y8.04958 Z[#111+-0.20000]
#116=[#539+[#540-#539]*0.30923]
#117=[#552+[#553-#552]*0.30923]
#111=[#116+[#117-#116]*0.72099]
X43.57625 Y7.72730 Z[#111+-0.20000]
(Suppressed: G04 P0 ( dwell for no time -- G64 should not smooth over this point ))
G00 Z5.00000 ( retract )

G00 X58.97373 Y7.72730 ( rapid move to begin. )
G01 F100.00000
( Mill infeed pass 1/1 )
#116=[#578+[#579-#578]*0.30923]
#117=[#591+[#592-#591]*0.30923]
#111=[#116+[#117-#116]*0.95769]
G01 Z[-0.20000+#111]
(Suppressed: G04 P0 ( dwell for no time -- G64 should not smooth over this point ))
G01 F150.00000
#116=[#578+[#579-#578]*0.37387]
#117=[#591+[#592-#591]*0.37387]
#111=[#116+[#117-#116]*0.96481]
X59.00759 Y8.04958 Z[#111+-0.20000]
#116=[#578+[#579-#578]*0.43568]
#117=[#591+[#592-#591]*0.43568]
#111=[#116+[#117-#116]*0.98586]
X59.10774 Y8.35775 Z[#111+-0.20000]
#111=[#591+[#592-#591]*0.45905]
X59.17499 Y8.47424 Z[#111+-0.20000]
#116=[#591+[#592-#591]*0.49197]
#117=[#604+[#605-#604]*0.49197]
#111=[#116+[#117-#116]*0.01992]
X59.26974 Y8.63837 Z[#111+-0.20000]
#116=[#591+[#592-#591]*0.53953]
#117=[#604+[#605-#604]*0.53953]
#111=[#116+[#117-#116]*0.06472]
X59.48287 Y8.87548 Z[#111+-0.20000]
#116=[#591+[#592-#591]*0.57847]
#117=[#604+[#605-#604]*0.57847]
#111=[#116+[#117-#116]*0.12061]
X59.74874 Y9.06966 Z[#111+-0.20000]
#116=[#591+[#592-#591]*0.60453]
#117=[#604+[#605-#604]*0.60453]
#111=[#116+[#117-#116]*0.18181]
X60.03987 Y9.19959 Z[#111+-0.20000]
#116=[#591+[#592-#591]*0.61847]
#117=[#604+[#605-#604]*0.61847]
#111=[#116+[#117-#116]*0.25056]
X60.36695 Y9.26911 Z[#111+-0.20000]
#116=[#591+[#592-#591]*0.61842]
#117=[#604+[#605-#604]*0.61842]
#111=[#116+[#117-#116]*0.31758]
X60.68574 Y9.26883 Z[#111+-0.20000]
#116=[#591+[#592-#591]*0.60490]
#117=[#604+[#605-#604]*0.60490]
