( pcb2gcode 2.5.0 )
( Gcode for custom )

G94 ( Millimeters per minute feed rate. )
G21 ( Units == Millimeters. )

G90 ( Absolute coordinates. )
G00 S5600 ( RPM spindle speed. )
(Suppressed: G64 P0.01016 ( set maximum deviation from commanded toolpath ))
G01 F150.00000 ( Feedrate. )

#107 = 0
#108 = 0

(MSG, Attach the probe tool)
M0 ( Temporary machine stop. )
G0 Z5.000 ( Move Z to safe height )
G0 X25.87499 Y-66.01504 ( Move XY to start point )
G0 Z5.000 ( Move Z to probe height )
G31 Z-3 F50.000000 ( Z-probe )
#500 = 0 ( Probe point [0, 0] is our reference )
G92 Z0 ( Set the current Z as zero-value )

( We now start the real probing: move the Z axis to the probing height, move to )
( the probing XY position, probe it and save the result, parameter #2002, )
( in a numbered parameter; we will make 15 probes on the X-axis and )
( 13 probes on the Y-axis, for a grand total of 195 probes )

G0 Z5.000
X25.87499 Y-61.02925
G31 Z-3 F50.000000
#501=#2002
G0 Z5.000
X25.87499 Y-56.04346
G31 Z-3 F50.000000
#502=#2002
G0 Z5.000
X25.87499 Y-51.05766
G31 Z-3 F50.000000
#503=#2002
G0 Z5.000
X25.87499 Y-46.07187
G31 Z-3 F50.000000
#504=#2002
G0 Z5.000
X25.87499 Y-41.08607
G31 Z-3 F50.000000
#505=#2002
G0 Z5.000
X25.87499 Y-36.10028
G31 Z-3 F50.000000
#506=#2002
G0 Z5.000
X25.87499 Y-31.11449
G31 Z-3 F50.000000
#507=#2002
G0 Z5.000
X25.87499 Y-26.12869
G31 Z-3 F50.000000
#508=#2002
G0 Z5.000
X25.87499 Y-21.14290
G31 Z-3 F50.000000
#509=#2002
G0 Z5.000
X25.87499 Y-16.15711
G31 Z-3 F50.000000
#510=#2002
G0 Z5.000
X25.87499 Y-11.17131
G31 Z-3 F50.000000
#511=#2002
G0 Z5.000
X25.87499 Y-6.18552
G31 Z-3 F50.000000
#512=#2002
G0 Z5.000
X30.63213 Y-6.18552
G31 Z-3 F50.000000
#525=#2002
G0 Z5.000
X30.63213 Y-11.17131
G31 Z-3 F50.000000
#524=#2002
G0 Z5.000
X30.63213 Y-16.15711
G31 Z-3 F50.000000
#523=#2002
G0 Z5.000
X30.63213 Y-21.14290
G31 Z-3 F50.000000
#522=#2002
G0 Z5.000
X30.63213 Y-26.12869
G31 Z-3 F50.000000
#521=#2002
G0 Z5.000
X30.63213 Y-31.11449
G31 Z-3 F50.000000
#520=#2002
G0 Z5.000
X30.63213 Y-36.10028
G31 Z-3 F50.000000
#519=#2002
G0 Z5.000
X30.63213 Y-41.08607
G31 Z-3 F50.000000
#518=#2002
G0 Z5.000
X30.63213 Y-46.07187
G31 Z-3 F50.000000
#517=#2002
G0 Z5.000
X30.63213 Y-51.05766
G31 Z-3 F50.000000
#516=#2002
G0 Z5.000
X30.63213 Y-56.04346
G31 Z-3 F50.000000
#515=#2002
G0 Z5.000
X30.63213 Y-61.02925
G31 Z-3 F50.000000
#514=#2002
G0 Z5.000
X30.63213 Y-66.01504
G31 Z-3 F50.000000
#513=#2002
G0 Z5.000
X35.38928 Y-66.01504
G31 Z-3 F50.000000
#526=#2002
G0 Z5.000
X35.38928 Y-61.02925
G31 Z-3 F50.000000
#527=#2002
G0 Z5.000
X35.38928 Y-56.04346
G31 Z-3 F50.000000
#528=#2002
G0 Z5.000
X35.38928 Y-51.05766
G31 Z-3 F50.000000
#529=#2002
G0 Z5.000
X35.38928 Y-46.07187
G31 Z-3 F50.000000
#530=#2002
G0 Z5.000
X35.38928 Y-41.08607
G31 Z-3 F50.000000
#531=#2002
G0 Z5.000
X35.38928 Y-36.10028
G31 Z-3 F50.000000
#532=#2002
G0 Z5.000
X35.38928 Y-31.11449
G31 Z-3 F50.000000
#533=#2002
G0 Z5.000
X35.38928 Y-26.12869
G31 Z-3 F50.000000
#534=#2002
G0 Z5.000
X35.38928 Y-21.14290
G31 Z-3 F50.000000
#535=#2002
G0 Z5.000
X35.38928 Y-16.15711
G31 Z-3 F50.000000
#536=#2002
G0 Z5.000
X35.38928 Y-11.17131
G31 Z-3 F50.000000
#537=#2002
G0 Z5.000
X35.38928 Y-6.18552
G31 Z-3 F50.000000
#538=#2002
G0 Z5.000
X40.14642 Y-6.18552
G31 Z-3 F50.000000
#551=#2002
G0 Z5.000
X40.14642 Y-11.17131
G31 Z-3 F50.000000
#550=#2002
G0 Z5.000
X40.14642 Y-16.15711
G31 Z-3 F50.000000
#549=#2002
G0 Z5.000
X40.14642 Y-21.14290
G31 Z-3 F50.000000
#548=#2002
G0 Z5.000
X40.14642 Y-26.12869
G31 Z-3 F50.000000
#547=#2002
G0 Z5.000
X40.14642 Y-31.11449
G31 Z-3 F50.000000
#546=#2002
G0 Z5.000
X40.14642 Y-36.10028
G31 Z-3 F50.000000
#545=#2002
G0 Z5.000
X40.14642 Y-41.08607
G31 Z-3 F50.000000
#544=#2002
G0 Z5.000
X40.14642 Y-46.07187
G31 Z-3 F50.000000
#543=#2002
G0 Z5.000
X40.14642 Y-51.05766
G31 Z-3 F50.000000
#542=#2002
G0 Z5.000
X40.14642 Y-56.04346
G31 Z-3 F50.000000
#541=#2002
G0 Z5.000
X40.14642 Y-61.02925
G31 Z-3 F50.000000
#540=#2002
G0 Z5.000
X40.14642 Y-66.01504
G31 Z-3 F50.000000
#539=#2002
G0 Z5.000
X44.90356 Y-66.01504
G31 Z-3 F50.000000
#552=#2002
G0 Z5.000
X44.90356 Y-61.02925
G31 Z-3 F50.000000
#553=#2002
G0 Z5.000
X44.90356 Y-56.04346
G31 Z-3 F50.000000
#554=#2002
G0 Z5.000
X44.90356 Y-51.05766
G31 Z-3 F50.000000
#555=#2002
G0 Z5.000
X44.90356 Y-46.07187
G31 Z-3 F50.000000
#556=#2002
G0 Z5.000
X44.90356 Y-41.08607
G31 Z-3 F50.000000
#557=#2002
G0 Z5.000
X44.90356 Y-36.10028
G31 Z-3 F50.000000
#558=#2002
G0 Z5.000
X44.90356 Y-31.11449
G31 Z-3 F50.000000
#559=#2002
G0 Z5.000
X44.90356 Y-26.12869
G31 Z-3 F50.000000
#560=#2002
G0 Z5.000
X44.90356 Y-21.14290
G31 Z-3 F50.000000
#561=#2002
G0 Z5.000
X44.90356 Y-16.15711
G31 Z-3 F50.000000
#562=#2002
G0 Z5.000
X44.90356 Y-11.17131
G31 Z-3 F50.000000
#563=#2002
G0 Z5.000
X44.90356 Y-6.18552
G31 Z-3 F50.000000
#564=#2002
G0 Z5.000
X49.66070 Y-6.18552
G31 Z-3 F50.000000
#577=#2002
G0 Z5.000
X49.66070 Y-11.17131
G31 Z-3 F50.000000
#576=#2002
G0 Z5.000
X49.66070 Y-16.15711
G31 Z-3 F50.000000
#575=#2002
G0 Z5.000
X49.66070 Y-21.14290
G31 Z-3 F50.000000
#574=#2002
G0 Z5.000
X49.66070 Y-26.12869
G31 Z-3 F50.000000
#573=#2002
G0 Z5.000
X49.66070 Y-31.11449
G31 Z-3 F50.000000
#572=#2002
G0 Z5.000
X49.66070 Y-36.10028
G31 Z-3 F50.000000
#571=#2002
G0 Z5.000
X49.66070 Y-41.08607
G31 Z-3 F50.000000
#570=#2002
G0 Z5.000
X49.66070 Y-46.07187
G31 Z-3 F50.000000
#569=#2002
G0 Z5.000
X49.66070 Y-51.05766
G31 Z-3 F50.000000
#568=#2002
G0 Z5.000
X49.66070 Y-56.04346
G31 Z-3 F50.000000
#567=#2002
G0 Z5.000
X49.66070 Y-61.02925
G31 Z-3 F50.000000
#566=#2002
G0 Z5.000
X49.66070 Y-66.01504
G31 Z-3 F50.000000
#565=#2002
G0 Z5.000
X54.41784 Y-66.01504
G31 Z-3 F50.000000
#578=#2002
G0 Z5.000
X54.41784 Y-61.02925
G31 Z-3 F50.000000
#579=#2002
G0 Z5.000
X54.41784 Y-56.04346
G31 Z-3 F50.000000
#580=#2002
G0 Z5.000
X54.41784 Y-51.05766
G31 Z-3 F50.000000
#581=#2002
G0 Z5.000
X54.41784 Y-46.07187
G31 Z-3 F50.000000
#582=#2002
G0 Z5.000
X54.41784 Y-41.08607
G31 Z-3 F50.000000
#583=#2002
G0 Z5.000
X54.41784 Y-36.10028
G31 Z-3 F50.000000
#584=#2002
G0 Z5.000
X54.41784 Y-31.11449
G31 Z-3 F50.000000
#585=#2002
G0 Z5.000
X54.41784 Y-26.12869
G31 Z-3 F50.000000
#586=#2002
G0 Z5.000
X54.41784 Y-21.14290
G31 Z-3 F50.000000
#587=#2002
G0 Z5.000
X54.41784 Y-16.15711
G31 Z-3 F50.000000
#588=#2002
G0 Z5.000
X54.41784 Y-11.17131
G31 Z-3 F50.000000
#589=#2002
G0 Z5.000
X54.41784 Y-6.18552
G31 Z-3 F50.000000
#590=#2002
G0 Z5.000
X59.17499 Y-6.18552
G31 Z-3 F50.000000
#603=#2002
G0 Z5.000
X59.17499 Y-11.17131
G31 Z-3 F50.000000
#602=#2002
G0 Z5.000
X59.17499 Y-16.15711
G31 Z-3 F50.000000
#601=#2002
G0 Z5.000
X59.17499 Y-21.14290
G31 Z-3 F50.000000
#600=#2002
G0 Z5.000
X59.17499 Y-26.12869
G31 Z-3 F50.000000
#599=#2002
G0 Z5.000
X59.17499 Y-31.11449
G31 Z-3 F50.000000
#598=#2002
G0 Z5.000
X59.17499 Y-36.10028
G31 Z-3 F50.000000
#597=#2002
G0 Z5.000
X59.17499 Y-41.08607
G31 Z-3 F50.000000
#596=#2002
G0 Z5.000
X59.17499 Y-46.07187
G31 Z-3 F50.000000
#595=#2002
G0 Z5.000
X59.17499 Y-51.05766
G31 Z-3 F50.000000
#594=#2002
G0 Z5.000
X59.17499 Y-56.04346
G31 Z-3 F50.000000
#593=#2002
G0 Z5.000
X59.17499 Y-61.02925
G31 Z-3 F50.000000
#592=#2002
G0 Z5.000
X59.17499 Y-66.01504
G31 Z-3 F50.000000
#591=#2002
G0 Z5.000
X63.93213 Y-66.01504
G31 Z-3 F50.000000
#604=#2002
G0 Z5.000
X63.93213 Y-61.02925
G31 Z-3 F50.000000
#605=#2002
G0 Z5.000
X63.93213 Y-56.04346
G31 Z-3 F50.000000
#606=#2002
G0 Z5.000
X63.93213 Y-51.05766
G31 Z-3 F50.000000
#607=#2002
G0 Z5.000
X63.93213 Y-46.07187
G31 Z-3 F50.000000
#608=#2002
G0 Z5.000
X63.93213 Y-41.08607
G31 Z-3 F50.000000
#609=#2002
G0 Z5.000
X63.93213 Y-36.10028
G31 Z-3 F50.000000
#610=#2002
G0 Z5.000
X63.93213 Y-31.11449
G31 Z-3 F50.000000
#611=#2002
G0 Z5.000
X63.93213 Y-26.12869
G31 Z-3 F50.000000
#612=#2002
G0 Z5.000
X63.93213 Y-21.14290
G31 Z-3 F50.000000
#613=#2002
G0 Z5.000
X63.93213 Y-16.15711
G31 Z-3 F50.000000
#614=#2002
G0 Z5.000
X63.93213 Y-11.17131
G31 Z-3 F50.000000
#615=#2002
G0 Z5.000
X63.93213 Y-6.18552
G31 Z-3 F50.000000
#616=#2002
G0 Z5.000
X68.68927 Y-6.18552
G31 Z-3 F50.000000
#629=#2002
G0 Z5.000
X68.68927 Y-11.17131
G31 Z-3 F50.000000
#628=#2002
G0 Z5.000
X68.68927 Y-16.15711
G31 Z-3 F50.000000
#627=#2002
G0 Z5.000
X68.68927 Y-21.14290
G31 Z-3 F50.000000
#626=#2002
G0 Z5.000
X68.68927 Y-26.12869
G31 Z-3 F50.000000
#625=#2002
G0 Z5.000
X68.68927 Y-31.11449
G31 Z-3 F50.000000
#624=#2002
G0 Z5.000
X68.68927 Y-36.10028
G31 Z-3 F50.000000
#623=#2002
G0 Z5.000
X68.68927 Y-41.08607
G31 Z-3 F50.000000
#622=#2002
G0 Z5.000
X68.68927 Y-46.07187
G31 Z-3 F50.000000
#621=#2002
G0 Z5.000
X68.68927 Y-51.05766
G31 Z-3 F50.000000
#620=#2002
G0 Z5.000
X68.68927 Y-56.04346
G31 Z-3 F50.000000
#619=#2002
G0 Z5.000
X68.68927 Y-61.02925
G31 Z-3 F50.000000
#618=#2002
G0 Z5.000
X68.68927 Y-66.01504
G31 Z-3 F50.000000
#617=#2002
G0 Z5.000
X73.44641 Y-66.01504
G31 Z-3 F50.000000
#630=#2002
G0 Z5.000
X73.44641 Y-61.02925
G31 Z-3 F50.000000
#631=#2002
G0 Z5.000
X73.44641 Y-56.04346
G31 Z-3 F50.000000
#632=#2002
G0 Z5.000
X73.44641 Y-51.05766
G31 Z-3 F50.000000
#633=#2002
G0 Z5.000
X73.44641 Y-46.07187
G31 Z-3 F50.000000
#634=#2002
G0 Z5.000
X73.44641 Y-41.08607
G31 Z-3 F50.000000
#635=#2002
G0 Z5.000
X73.44641 Y-36.10028
G31 Z-3 F50.000000
#636=#2002
G0 Z5.000
X73.44641 Y-31.11449
G31 Z-3 F50.000000
#637=#2002
G0 Z5.000
X73.44641 Y-26.12869
G31 Z-3 F50.000000
#638=#2002
G0 Z5.000
X73.44641 Y-21.14290
G31 Z-3 F50.000000
#639=#2002
G0 Z5.000
X73.44641 Y-16.15711
G31 Z-3 F50.000000
#640=#2002
G0 Z5.000
X73.44641 Y-11.17131
G31 Z-3 F50.000000
#641=#2002
G0 Z5.000
X73.44641 Y-6.18552
G31 Z-3 F50.000000
#642=#2002
G0 Z5.000
X78.20356 Y-6.18552
G31 Z-3 F50.000000
#655=#2002
G0 Z5.000
X78.20356 Y-11.17131
G31 Z-3 F50.000000
#654=#2002
G0 Z5.000
X78.20356 Y-16.15711
G31 Z-3 F50.000000
#653=#2002
G0 Z5.000
X78.20356 Y-21.14290
G31 Z-3 F50.000000
#652=#2002
G0 Z5.000
X78.20356 Y-26.12869
G31 Z-3 F50.000000
#651=#2002
G0 Z5.000
X78.20356 Y-31.11449
G31 Z-3 F50.000000
#650=#2002
G0 Z5.000
X78.20356 Y-36.10028
G31 Z-3 F50.000000
#649=#2002
G0 Z5.000
X78.20356 Y-41.08607
G31 Z-3 F50.000000
#648=#2002
G0 Z5.000
X78.20356 Y-46.07187
G31 Z-3 F50.000000
#647=#2002
G0 Z5.000
X78.20356 Y-51.05766
G31 Z-3 F50.000000
#646=#2002
G0 Z5.000
X78.20356 Y-56.04346
G31 Z-3 F50.000000
#645=#2002
G0 Z5.000
X78.20356 Y-61.02925
G31 Z-3 F50.000000
#644=#2002
G0 Z5.000
X78.20356 Y-66.01504
G31 Z-3 F50.000000
#643=#2002
G0 Z5.000
X82.96070 Y-66.01504
G31 Z-3 F50.000000
#656=#2002
G0 Z5.000
X82.96070 Y-61.02925
G31 Z-3 F50.000000
#657=#2002
G0 Z5.000
X82.96070 Y-56.04346
G31 Z-3 F50.000000
#658=#2002
G0 Z5.000
X82.96070 Y-51.05766
G31 Z-3 F50.000000
#659=#2002
G0 Z5.000
X82.96070 Y-46.07187
G31 Z-3 F50.000000
#660=#2002
G0 Z5.000
X82.96070 Y-41.08607
G31 Z-3 F50.000000
#661=#2002
G0 Z5.000
X82.96070 Y-36.10028
G31 Z-3 F50.000000
#662=#2002
G0 Z5.000
X82.96070 Y-31.11449
G31 Z-3 F50.000000
#663=#2002
G0 Z5.000
X82.96070 Y-26.12869
G31 Z-3 F50.000000
#664=#2002
G0 Z5.000
X82.96070 Y-21.14290
G31 Z-3 F50.000000
#665=#2002
G0 Z5.000
X82.96070 Y-16.15711
G31 Z-3 F50.000000
#666=#2002
G0 Z5.000
X82.96070 Y-11.17131
G31 Z-3 F50.000000
#667=#2002
G0 Z5.000
X82.96070 Y-6.18552
G31 Z-3 F50.000000
#668=#2002
G0 Z5.000
X87.71784 Y-6.18552
G31 Z-3 F50.000000
#681=#2002
G0 Z5.000
X87.71784 Y-11.17131
G31 Z-3 F50.000000
#680=#2002
G0 Z5.000
X87.71784 Y-16.15711
G31 Z-3 F50.000000
#679=#2002
G0 Z5.000
X87.71784 Y-21.14290
G31 Z-3 F50.000000
#678=#2002
G0 Z5.000
X87.71784 Y-26.12869
G31 Z-3 F50.000000
#677=#2002
G0 Z5.000
X87.71784 Y-31.11449
G31 Z-3 F50.000000
#676=#2002
G0 Z5.000
X87.71784 Y-36.10028
G31 Z-3 F50.000000
#675=#2002
G0 Z5.000
X87.71784 Y-41.08607
G31 Z-3 F50.000000
#674=#2002
G0 Z5.000
X87.71784 Y-46.07187
G31 Z-3 F50.000000
#673=#2002
G0 Z5.000
X87.71784 Y-51.05766
G31 Z-3 F50.000000
#672=#2002
G0 Z5.000
X87.71784 Y-56.04346
G31 Z-3 F50.000000
#671=#2002
G0 Z5.000
X87.71784 Y-61.02925
G31 Z-3 F50.000000
#670=#2002
G0 Z5.000
X87.71784 Y-66.01504
G31 Z-3 F50.000000
#669=#2002
G0 Z5.000
X92.47498 Y-66.01504
G31 Z-3 F50.000000
#682=#2002
G0 Z5.000
X92.47498 Y-61.02925
G31 Z-3 F50.000000
#683=#2002
G0 Z5.000
X92.47498 Y-56.04346
G31 Z-3 F50.000000
#684=#2002
G0 Z5.000
X92.47498 Y-51.05766
G31 Z-3 F50.000000
#685=#2002
G0 Z5.000
X92.47498 Y-46.07187
G31 Z-3 F50.000000
#686=#2002
G0 Z5.000
X92.47498 Y-41.08607
G31 Z-3 F50.000000
#687=#2002
G0 Z5.000
X92.47498 Y-36.10028
G31 Z-3 F50.000000
#688=#2002
G0 Z5.000
X92.47498 Y-31.11449
G31 Z-3 F50.000000
#689=#2002
G0 Z5.000
X92.47498 Y-26.12869
G31 Z-3 F50.000000
#690=#2002
G0 Z5.000
X92.47498 Y-21.14290
G31 Z-3 F50.000000
#691=#2002
G0 Z5.000
X92.47498 Y-16.15711
G31 Z-3 F50.000000
#692=#2002
G0 Z5.000
X92.47498 Y-11.17131
G31 Z-3 F50.000000
#693=#2002
G0 Z5.000
X92.47498 Y-6.18552
G31 Z-3 F50.000000
#694=#2002

G0 Z5.000 ( Move Z to safe height )
( Probing has ended, each Z-coordinate will be corrected with a bilinear interpolation )
(MSG, Detach the probe tool)
M0 ( Temporary machine stop. )


G00 Z5.00000 (Retract to tool change height)
T0
M5      (Spindle stop.)
(Suppressed: G04 P1.00000 (Wait for spindle to stop))
(MSG, Change tool bit to mill diameter 0.10000mm)
M0      (Temporary machine stop.)
M3 ( Spindle on clockwise. )
(Suppressed: G04 P1.00000 (Wait for spindle to get up to speed))
(Suppressed: G04 P0 ( dwell for no time -- G64 should not smooth over this point ))
G00 Z5.00000 ( retract )

G00 X25.87499 Y-59.17500 ( rapid move to begin. )
G01 F100.00000
( Mill infeed pass 1/1 )
#100=[#501+[#502-#501]*0.37191]
G01 Z[-0.20000+#100]
(Suppressed: G04 P0 ( dwell for no time -- G64 should not smooth over this point ))
G01 F150.00000
#105=[#501+[#502-#501]*0.43654]
#106=[#514+[#515-#514]*0.43654]
#100=[#105+[#106-#105]*0.00712]
X25.90885 Y-58.85275 Z[#100+-0.20000]
#105=[#501+[#502-#501]*0.49835]
#106=[#514+[#515-#514]*0.49835]
#100=[#105+[#106-#105]*0.02817]
X26.00900 Y-58.54457 Z[#100+-0.20000]
#105=[#501+[#502-#501]*0.55464]
#106=[#514+[#515-#514]*0.55464]
#100=[#105+[#106-#105]*0.06222]
X26.17100 Y-58.26395 Z[#100+-0.20000]
#105=[#501+[#502-#501]*0.60294]
#106=[#514+[#515-#514]*0.60294]
#100=[#105+[#106-#105]*0.10781]
X26.38784 Y-58.02314 Z[#100+-0.20000]
#105=[#501+[#502-#501]*0.64114]
#106=[#514+[#515-#514]*0.64114]
#100=[#105+[#106-#105]*0.16291]
X26.65000 Y-57.83266 Z[#100+-0.20000]
#105=[#501+[#502-#501]*0.66784]
#106=[#514+[#515-#514]*0.66784]
#100=[#105+[#106-#105]*0.22620]
X26.95106 Y-57.69951 Z[#100+-0.20000]
#105=[#501+[#502-#501]*0.68114]
#106=[#514+[#515-#514]*0.68114]
#100=[#105+[#106-#105]*0.29287]
X27.26821 Y-57.63322 Z[#100+-0.20000]
#105=[#501+[#502-#501]*0.68109]
#106=[#514+[#515-#514]*0.68109]
#100=[#105+[#106-#105]*0.35988]
X27.58700 Y-57.63350 Z[#100+-0.20000]
#105=[#501+[#502-#501]*0.67241]
#106=[#514+[#515-#514]*0.67241]
#100=[#105+[#106-#105]*0.40294]
X27.79185 Y-57.67676 Z[#100+-0.20000]
#105=[#501+[#502-#501]*1.00000]
#106=[#514+[#515-#514]*1.00000]
#100=[#105+[#106-#105]*0.74628]
X29.42515 Y-56.04346 Z[#100+-0.20000]
#105=[#515+[#516-#515]*0.24208]
#106=[#528+[#529-#528]*0.24208]
#100=[#105+[#106-#105]*0.00000]
X30.63213 Y-54.83647 Z[#100+-0.20000]
#100=[#516+[#529-#516]*0.79435]
X34.41095 Y-51.05766 Z[#100+-0.20000]
#105=[#529+[#530-#529]*0.19622]
#106=[#542+[#543-#542]*0.19622]
#100=[#105+[#106-#105]*0.00000]
X35.38928 Y-50.07933 Z[#100+-0.20000]
#105=[#529+[#530-#529]*0.58132]
#106=[#542+[#543-#542]*0.58132]
#100=[#105+[#106-#105]*0.40361]
X37.30928 Y-48.15932 Z[#100+-0.20000]
#105=[#529+[#530-#529]*0.60127]
#106=[#542+[#543-#542]*0.60127]
#100=[#105+[#106-#105]*0.42909]
X37.43052 Y-48.05983 Z[#100+-0.20000]
#105=[#529+[#530-#529]*0.61568]
#106=[#542+[#543-#542]*0.61568]
#100=[#105+[#106-#105]*0.45723]
X37.56440 Y-47.98803 Z[#100+-0.20000]
#105=[#529+[#530-#529]*0.62499]
#106=[#542+[#543-#542]*0.62499]
#100=[#105+[#106-#105]*0.48871]
X37.71416 Y-47.94160 Z[#100+-0.20000]
#105=[#529+[#530-#529]*0.62832]
#106=[#542+[#543-#542]*0.62832]
#100=[#105+[#106-#105]*0.52252]
X37.87499 Y-47.92501 Z[#100+-0.20000]
#105=[#529+[#530-#529]*0.62832]
#106=[#542+[#543-#542]*0.62832]
#100=[#105+[#106-#105]*1.00000]
X40.14642 Y-47.92501 Z[#100+-0.20000]
#100=[#555+[#556-#555]*0.62832]
X44.90356 Y-47.92501 Z[#100+-0.20000]
#100=[#568+[#569-#568]*0.62832]
X49.66070 Y-47.92501 Z[#100+-0.20000]
#105=[#568+[#569-#568]*0.62832]
#106=[#581+[#582-#581]*0.62832]
#100=[#105+[#106-#105]*0.33934]
X51.27499 Y-47.92501 Z[#100+-0.20000]
#105=[#568+[#569-#568]*1.00000]
#106=[#581+[#582-#581]*1.00000]
#100=[#105+[#106-#105]*0.33947]
X51.27559 Y-46.07187 Z[#100+-0.20000]
#105=[#569+[#570-#569]*0.22195]
#106=[#582+[#583-#582]*0.22195]
#100=[#105+[#106-#105]*0.33954]
X51.27596 Y-44.96525 Z[#100+-0.20000]
#105=[#569+[#570-#569]*0.22709]
#106=[#582+[#583-#582]*0.22709]
#100=[#105+[#106-#105]*0.34242]
X51.28962 Y-44.93965 Z[#100+-0.20000]
#105=[#569+[#570-#569]*0.22926]
#106=[#582+[#583-#582]*0.22926]
#100=[#105+[#106-#105]*0.34583]
X51.30585 Y-44.92883 Z[#100+-0.20000]
#105=[#569+[#570-#569]*0.23002]
#106=[#582+[#583-#582]*0.23002]
#100=[#105+[#106-#105]*0.34985]
X51.32498 Y-44.92502 Z[#100+-0.20000]
#105=[#569+[#570-#569]*0.23002]
#106=[#582+[#583-#582]*0.23002]
#100=[#105+[#106-#105]*0.49699]
X52.02498 Y-44.92502 Z[#100+-0.20000]
#105=[#569+[#570-#569]*0.52183]
#106=[#582+[#583-#582]*0.52183]
#100=[#105+[#106-#105]*0.49705]
X52.02523 Y-43.47013 Z[#100+-0.20000]
#105=[#569+[#570-#569]*0.55118]
#106=[#582+[#583-#582]*0.55118]
#100=[#105+[#106-#105]*0.50008]
X52.03963 Y-43.32380 Z[#100+-0.20000]
#105=[#569+[#570-#569]*0.58133]
#106=[#582+[#583-#582]*0.58133]
#100=[#105+[#106-#105]*0.50945]
X52.08423 Y-43.17348 Z[#100+-0.20000]
#105=[#569+[#570-#569]*0.60915]
#106=[#582+[#583-#582]*0.60915]
#100=[#105+[#106-#105]*0.52481]
X52.15728 Y-43.03477 Z[#100+-0.20000]
#105=[#569+[#570-#569]*0.63431]
#106=[#582+[#583-#582]*0.63431]
#100=[#105+[#106-#105]*0.54625]
X52.25929 Y-42.90932 Z[#100+-0.20000]
#100=[#570+[#583-#570]*0.92952]
X54.08254 Y-41.08607 Z[#100+-0.20000]
#105=[#570+[#571-#570]*0.06725]
#106=[#583+[#584-#583]*0.06725]
#100=[#105+[#106-#105]*1.00000]
X54.41784 Y-40.75077 Z[#100+-0.20000]
#105=[#583+[#584-#583]*0.41366]
#106=[#596+[#597-#596]*0.41366]
#100=[#105+[#106-#105]*0.36306]
X56.14496 Y-39.02366 Z[#100+-0.20000]
#100=[#584+[#597-#584]*0.36306]
X56.14496 Y-36.10028 Z[#100+-0.20000]
#105=[#584+[#585-#584]*0.46638]
#106=[#597+[#598-#597]*0.46638]
#100=[#105+[#106-#105]*0.36306]
X56.14496 Y-33.77500 Z[#100+-0.20000]
#105=[#584+[#585-#584]*0.49671]
#106=[#597+[#598-#597]*0.49671]
#100=[#105+[#106-#105]*0.36614]
X56.15961 Y-33.62379 Z[#100+-0.20000]
#105=[#584+[#585-#584]*0.52686]
#106=[#597+[#598-#597]*0.52686]
#100=[#105+[#106-#105]*0.37551]
X56.20422 Y-33.47348 Z[#100+-0.20000]
#105=[#584+[#585-#584]*0.55631]
#106=[#597+[#598-#597]*0.55631]
#100=[#105+[#106-#105]*0.39202]
X56.28273 Y-33.32661 Z[#100+-0.20000]
#105=[#584+[#585-#584]*0.58050]
#106=[#597+[#598-#597]*0.58050]
#100=[#105+[#106-#105]*0.41308]
X56.38293 Y-33.20604 Z[#100+-0.20000]
#105=[#584+[#585-#584]*0.59980]
#106=[#597+[#598-#597]*0.59980]
#100=[#105+[#106-#105]*0.43780]
X56.50051 Y-33.10982 Z[#100+-0.20000]
#105=[#584+[#585-#584]*0.61495]
#106=[#597+[#598-#597]*0.61495]
#100=[#105+[#106-#105]*0.46784]
X56.64343 Y-33.03426 Z[#100+-0.20000]
#105=[#584+[#585-#584]*0.62375]
#106=[#597+[#598-#597]*0.62375]
#100=[#105+[#106-#105]*0.49842]
X56.78890 Y-32.99039 Z[#100+-0.20000]
#105=[#584+[#585-#584]*0.62684]
#106=[#597+[#598-#597]*0.62684]
#100=[#105+[#106-#105]*0.53123]
X56.94498 Y-32.97500 Z[#100+-0.20000]
#105=[#584+[#585-#584]*0.62684]
#106=[#597+[#598-#597]*0.62684]
#100=[#105+[#106-#105]*0.91538]
X58.77246 Y-32.97500 Z[#100+-0.20000]
#105=[#584+[#585-#584]*0.63733]
#106=[#597+[#598-#597]*0.63733]
#100=[#105+[#106-#105]*0.92794]
X58.83220 Y-32.92270 Z[#100+-0.20000]
#105=[#584+[#585-#584]*0.65915]
#106=[#597+[#598-#597]*0.65915]
#100=[#105+[#106-#105]*0.96801]
X59.02280 Y-32.81391 Z[#100+-0.20000]
#100=[#597+[#598-#597]*0.66902]
X59.17499 Y-32.76468 Z[#100+-0.20000]
#105=[#597+[#598-#597]*0.67238]
#106=[#610+[#611-#610]*0.67238]
#100=[#105+[#106-#105]*0.01087]
X59.22669 Y-32.74795 Z[#100+-0.20000]
#105=[#597+[#598-#597]*0.67698]
#106=[#610+[#611-#610]*0.67698]
#100=[#105+[#106-#105]*0.05675]
X59.44498 Y-32.72501 Z[#100+-0.20000]
#105=[#597+[#598-#597]*0.67698]
#106=[#610+[#611-#610]*0.67698]
#100=[#105+[#106-#105]*0.47718]
X61.44500 Y-32.72501 Z[#100+-0.20000]
#105=[#597+[#598-#597]*0.67238]
#106=[#610+[#611-#610]*0.67238]
#100=[#105+[#106-#105]*0.52307]
X61.66329 Y-32.74795 Z[#100+-0.20000]
#105=[#597+[#598-#597]*0.65877]
#106=[#610+[#611-#610]*0.65877]
#100=[#105+[#106-#105]*0.56695]
X61.87205 Y-32.81579 Z[#100+-0.20000]
#105=[#597+[#598-#597]*0.63676]
#106=[#610+[#611-#610]*0.63676]
#100=[#105+[#106-#105]*0.60691]
X62.06217 Y-32.92555 Z[#100+-0.20000]
#105=[#597+[#598-#597]*0.60729]
#106=[#610+[#611-#610]*0.60729]
#100=[#105+[#106-#105]*0.64120]
X62.22529 Y-33.07244 Z[#100+-0.20000]
#105=[#597+[#598-#597]*0.57256]
#106=[#610+[#611-#610]*0.57256]
#100=[#105+[#106-#105]*0.66773]
X62.35147 Y-33.24561 Z[#100+-0.20000]
#105=[#597+[#598-#597]*0.53146]
#106=[#610+[#611-#610]*0.53146]
#100=[#105+[#106-#105]*0.68710]
X62.44360 Y-33.45054 Z[#100+-0.20000]
#105=[#597+[#598-#597]*0.48839]
#106=[#610+[#611-#610]*0.48839]
#100=[#105+[#106-#105]*0.69669]
X62.48924 Y-33.66525 Z[#100+-0.20000]
#105=[#597+[#598-#597]*0.44436]
#106=[#610+[#611-#610]*0.44436]
#100=[#105+[#106-#105]*0.69669]
X62.48924 Y-33.88478 Z[#100+-0.20000]
#105=[#597+[#598-#597]*0.40032]
#106=[#610+[#611-#610]*0.40032]
#100=[#105+[#106-#105]*0.68670]
X62.44172 Y-34.10436 Z[#100+-0.20000]
#105=[#597+[#598-#597]*0.36020]
#106=[#610+[#611-#610]*0.36020]
#100=[#105+[#106-#105]*0.66773]
X62.35147 Y-34.30441 Z[#100+-0.20000]
#105=[#597+[#598-#597]*0.32546]
#106=[#610+[#611-#610]*0.32546]
#100=[#105+[#106-#105]*0.64120]
X62.22529 Y-34.47759 Z[#100+-0.20000]
#105=[#597+[#598-#597]*0.29666]
#106=[#610+[#611-#610]*0.29666]
#100=[#105+[#106-#105]*0.60777]
X62.06623 Y-34.62118 Z[#100+-0.20000]
#105=[#597+[#598-#597]*0.27399]
#106=[#610+[#611-#610]*0.27399]
#100=[#105+[#106-#105]*0.56695]
X61.87205 Y-34.73423 Z[#100+-0.20000]
#105=[#597+[#598-#597]*0.26066]
#106=[#610+[#611-#610]*0.26066]
#100=[#105+[#106-#105]*0.52413]
X61.66834 Y-34.80070 Z[#100+-0.20000]
#105=[#597+[#598-#597]*0.25578]
#106=[#610+[#611-#610]*0.25578]
#100=[#105+[#106-#105]*0.47718]
X61.44500 Y-34.82501 Z[#100+-0.20000]
#105=[#597+[#598-#597]*0.25584]
#106=[#610+[#611-#610]*0.25584]
#100=[#105+[#106-#105]*0.05566]
X59.43977 Y-34.82473 Z[#100+-0.20000]
#105=[#597+[#598-#597]*0.26038]
#106=[#610+[#611-#610]*0.26038]
#100=[#105+[#106-#105]*0.01087]
X59.22669 Y-34.80207 Z[#100+-0.20000]
#100=[#597+[#598-#597]*0.26374]
X59.17499 Y-34.78535 Z[#100+-0.20000]
#105=[#584+[#585-#584]*0.27361]
#106=[#597+[#598-#597]*0.27361]
#100=[#105+[#106-#105]*0.96801]
X59.02280 Y-34.73611 Z[#100+-0.20000]
#105=[#584+[#585-#584]*0.29543]
#106=[#597+[#598-#597]*0.29543]
#100=[#105+[#106-#105]*0.92794]
X58.83220 Y-34.62732 Z[#100+-0.20000]
#105=[#584+[#585-#584]*0.30592]
#106=[#597+[#598-#597]*0.30592]
#100=[#105+[#106-#105]*0.91538]
X58.77246 Y-34.57502 Z[#100+-0.20000]
#105=[#584+[#585-#584]*0.30592]
#106=[#597+[#598-#597]*0.30592]
#100=[#105+[#106-#105]*0.69940]
X57.74498 Y-34.57502 Z[#100+-0.20000]
#100=[#584+[#597-#584]*0.69940]
X57.74498 Y-36.10028 Z[#100+-0.20000]
#105=[#583+[#584-#583]*0.34720]
#106=[#596+[#597-#596]*0.34720]
#100=[#105+[#106-#105]*0.69940]
X57.74498 Y-39.35502 Z[#100+-0.20000]
#105=[#583+[#584-#583]*0.31494]
#106=[#596+[#597-#596]*0.31494]
#100=[#105+[#106-#105]*0.69591]
X57.72839 Y-39.51586 Z[#100+-0.20000]
#105=[#583+[#584-#583]*0.28490]
#106=[#596+[#597-#596]*0.28490]
#100=[#105+[#106-#105]*0.68615]
X57.68196 Y-39.66562 Z[#100+-0.20000]
#105=[#583+[#584-#583]*0.25805]
#106=[#596+[#597-#596]*0.25805]
#100=[#105+[#106-#105]*0.67106]
X57.61016 Y-39.79950 Z[#100+-0.20000]
#105=[#583+[#584-#583]*0.23373]
#106=[#596+[#597-#596]*0.23373]
#100=[#105+[#106-#105]*0.65014]
X57.51066 Y-39.92073 Z[#100+-0.20000]
#100=[#583+[#596-#583]*0.40518]
X56.34532 Y-41.08607 Z[#100+-0.20000]
#105=[#569+[#570-#569]*0.61341]
#106=[#582+[#583-#582]*0.61341]
#100=[#105+[#106-#105]*1.00000]
X54.41784 Y-43.01355 Z[#100+-0.20000]
#105=[#569+[#570-#569]*0.45438]
#106=[#582+[#583-#582]*0.45438]
#100=[#105+[#106-#105]*0.83334]
X53.62500 Y-43.80640 Z[#100+-0.20000]
#105=[#569+[#570-#569]*0.23002]
#106=[#582+[#583-#582]*0.23002]
#100=[#105+[#106-#105]*0.83334]
X53.62500 Y-44.92502 Z[#100+-0.20000]
#105=[#569+[#570-#569]*0.23002]
#106=[#582+[#583-#582]*0.23002]
#100=[#105+[#106-#105]*0.98048]
X54.32497 Y-44.92502 Z[#100+-0.20000]
#105=[#569+[#570-#569]*0.22926]
#106=[#582+[#583-#582]*0.22926]
#100=[#105+[#106-#105]*0.98450]
X54.34410 Y-44.92883 Z[#100+-0.20000]
#105=[#569+[#570-#569]*0.22709]
#106=[#582+[#583-#582]*0.22709]
#100=[#105+[#106-#105]*0.98791]
X54.36035 Y-44.93965 Z[#100+-0.20000]
#105=[#569+[#570-#569]*0.22383]
#106=[#582+[#583-#582]*0.22383]
#100=[#105+[#106-#105]*0.99019]
X54.37117 Y-44.95588 Z[#100+-0.20000]
#105=[#569+[#570-#569]*0.22000]
#106=[#582+[#583-#582]*0.22000]
#100=[#105+[#106-#105]*0.99099]
X54.37498 Y-44.97500 Z[#100+-0.20000]
#105=[#568+[#569-#568]*1.00000]
#106=[#581+[#582-#581]*1.00000]
#100=[#105+[#106-#105]*0.99092]
X54.37463 Y-46.07187 Z[#100+-0.20000]
#105=[#568+[#569-#568]*0.61633]
#106=[#581+[#582-#581]*0.61633]
#100=[#105+[#106-#105]*0.99079]
X54.37402 Y-47.98478 Z[#100+-0.20000]
#105=[#568+[#569-#568]*0.61119]
#106=[#581+[#582-#581]*0.61119]
#100=[#105+[#106-#105]*0.98791]
X54.36035 Y-48.01038 Z[#100+-0.20000]
#105=[#568+[#569-#568]*0.60902]
#106=[#581+[#582-#581]*0.60902]
#100=[#105+[#106-#105]*0.98450]
X54.34410 Y-48.02120 Z[#100+-0.20000]
#105=[#568+[#569-#568]*0.60826]
#106=[#581+[#582-#581]*0.60826]
#100=[#105+[#106-#105]*0.98048]
X54.32497 Y-48.02501 Z[#100+-0.20000]
#105=[#568+[#569-#568]*0.60826]
#106=[#581+[#582-#581]*0.60826]
#100=[#105+[#106-#105]*0.83334]
X53.62500 Y-48.02501 Z[#100+-0.20000]
#105=[#568+[#569-#568]*0.38389]
#106=[#581+[#582-#581]*0.38389]
#100=[#105+[#106-#105]*0.83334]
X53.62500 Y-49.14365 Z[#100+-0.20000]
#105=[#568+[#569-#568]*0.22487]
#106=[#581+[#582-#581]*0.22487]
#100=[#105+[#106-#105]*1.00000]
X54.41784 Y-49.93650 Z[#100+-0.20000]
#100=[#581+[#594-#581]*0.23568]
X55.53901 Y-51.05766 Z[#100+-0.20000]
#105=[#580+[#581-#580]*0.41199]
#106=[#593+[#594-#593]*0.41199]
#100=[#105+[#106-#105]*0.85195]
X58.47068 Y-53.98934 Z[#100+-0.20000]
#105=[#580+[#581-#580]*0.38683]
#106=[#593+[#594-#593]*0.38683]
#100=[#105+[#106-#105]*0.87339]
X58.57269 Y-54.11479 Z[#100+-0.20000]
#105=[#580+[#581-#580]*0.35901]
#106=[#593+[#594-#593]*0.35901]
#100=[#105+[#106-#105]*0.88875]
X58.64574 Y-54.25350 Z[#100+-0.20000]
#105=[#580+[#581-#580]*0.32984]
#106=[#593+[#594-#593]*0.32984]
#100=[#105+[#106-#105]*0.89797]
X58.68961 Y-54.39896 Z[#100+-0.20000]
#105=[#580+[#581-#580]*0.29854]
#106=[#593+[#594-#593]*0.29854]
#100=[#105+[#106-#105]*0.90120]
X58.70500 Y-54.55502 Z[#100+-0.20000]
#105=[#579+[#580-#579]*1.00000]
#106=[#592+[#593-#592]*1.00000]
#100=[#105+[#106-#105]*0.90120]
X58.70500 Y-56.04346 Z[#100+-0.20000]
#105=[#579+[#580-#579]*0.71711]
#106=[#592+[#593-#592]*0.71711]
#100=[#105+[#106-#105]*0.90120]
X58.70500 Y-57.45387 Z[#100+-0.20000]
#105=[#579+[#580-#579]*0.68799]
#106=[#592+[#593-#592]*0.68799]
#100=[#105+[#106-#105]*0.92861]
X58.83535 Y-57.59906 Z[#100+-0.20000]
#105=[#579+[#580-#579]*0.64623]
#106=[#592+[#593-#592]*0.64623]
#100=[#105+[#106-#105]*0.95388]
X58.95557 Y-57.80726 Z[#100+-0.20000]
#105=[#579+[#580-#579]*0.60037]
#106=[#592+[#593-#592]*0.60037]
#100=[#105+[#106-#105]*0.96949]
X59.02986 Y-58.03591 Z[#100+-0.20000]
#105=[#579+[#580-#579]*0.55242]
#106=[#592+[#593-#592]*0.55242]
#100=[#105+[#106-#105]*0.97477]
X59.05498 Y-58.27500 Z[#100+-0.20000]
#105=[#579+[#580-#579]*0.39196]
#106=[#592+[#593-#592]*0.39196]
#100=[#105+[#106-#105]*0.97477]
X59.05498 Y-59.07503 Z[#100+-0.20000]
#105=[#579+[#580-#579]*0.34400]
#106=[#592+[#593-#592]*0.34400]
#100=[#105+[#106-#105]*0.96949]
X59.02986 Y-59.31412 Z[#100+-0.20000]
#105=[#579+[#580-#579]*0.29721]
#106=[#592+[#593-#592]*0.29721]
#100=[#105+[#106-#105]*0.95337]
X58.95318 Y-59.54741 Z[#100+-0.20000]
#105=[#579+[#580-#579]*0.25638]
#106=[#592+[#593-#592]*0.25638]
#100=[#105+[#106-#105]*0.92861]
X58.83535 Y-59.75097 Z[#100+-0.20000]
#105=[#579+[#580-#579]*0.22726]
#106=[#592+[#593-#592]*0.22726]
#100=[#105+[#106-#105]*0.90120]
X58.70500 Y-59.89616 Z[#100+-0.20000]
#105=[#579+[#580-#579]*0.00710]
#106=[#592+[#593-#592]*0.00710]
#100=[#105+[#106-#105]*0.90120]
X58.70500 Y-60.99387 Z[#100+-0.20000]
#105=[#579+[#580-#579]*0.00000]
#106=[#592+[#593-#592]*0.00000]
#100=[#105+[#106-#105]*0.90788]
X58.73676 Y-61.02925 Z[#100+-0.20000]
#105=[#578+[#579-#578]*0.97798]
#106=[#591+[#592-#591]*0.97798]
#100=[#105+[#106-#105]*0.92861]
X58.83535 Y-61.13905 Z[#100+-0.20000]
#105=[#578+[#579-#578]*0.93715]
#106=[#591+[#592-#591]*0.93715]
#100=[#105+[#106-#105]*0.95337]
X58.95318 Y-61.34261 Z[#100+-0.20000]
#105=[#578+[#579-#578]*0.89036]
#106=[#591+[#592-#591]*0.89036]
#100=[#105+[#106-#105]*0.96949]
X59.02986 Y-61.57591 Z[#100+-0.20000]
#105=[#578+[#579-#578]*0.84240]
#106=[#591+[#592-#591]*0.84240]
#100=[#105+[#106-#105]*0.97477]
X59.05498 Y-61.81503 Z[#100+-0.20000]
#105=[#578+[#579-#578]*0.68194]
#106=[#591+[#592-#591]*0.68194]
#100=[#105+[#106-#105]*0.97477]
X59.05498 Y-62.61502 Z[#100+-0.20000]
#105=[#578+[#579-#578]*0.63399]
#106=[#591+[#592-#591]*0.63399]
#100=[#105+[#106-#105]*0.96949]
X59.02986 Y-62.85411 Z[#100+-0.20000]
#105=[#578+[#579-#578]*0.58719]
#106=[#591+[#592-#591]*0.58719]
#100=[#105+[#106-#105]*0.95337]
X58.95318 Y-63.08741 Z[#100+-0.20000]
#105=[#578+[#579-#578]*0.54555]
#106=[#591+[#592-#591]*0.54555]
#100=[#105+[#106-#105]*0.92792]
X58.83207 Y-63.29503 Z[#100+-0.20000]
#105=[#578+[#579-#578]*0.51053]
#106=[#591+[#592-#591]*0.51053]
#100=[#105+[#106-#105]*0.89479]
X58.67449 Y-63.46963 Z[#100+-0.20000]
#105=[#578+[#579-#578]*0.48276]
#106=[#591+[#592-#591]*0.48276]
#100=[#105+[#106-#105]*0.85483]
X58.48437 Y-63.60809 Z[#100+-0.20000]
#105=[#578+[#579-#578]*0.46258]
#106=[#591+[#592-#591]*0.46258]
#100=[#105+[#106-#105]*0.80773]
X58.26035 Y-63.70872 Z[#100+-0.20000]
#105=[#578+[#579-#578]*0.45255]
#106=[#591+[#592-#591]*0.45255]
#100=[#105+[#106-#105]*0.75830]
X58.02519 Y-63.75871 Z[#100+-0.20000]
#105=[#578+[#579-#578]*0.45255]
#106=[#591+[#592-#591]*0.45255]
#100=[#105+[#106-#105]*0.70776]
X57.78478 Y-63.75871 Z[#100+-0.20000]
#105=[#578+[#579-#578]*0.46296]
#106=[#591+[#592-#591]*0.46296]
#100=[#105+[#106-#105]*0.65730]
X57.54473 Y-63.70684 Z[#100+-0.20000]
#105=[#578+[#579-#578]*0.48219]
#106=[#591+[#592-#591]*0.48219]
#100=[#105+[#106-#105]*0.61216]
X57.32999 Y-63.61093 Z[#100+-0.20000]
#105=[#578+[#579-#578]*0.50987]
#106=[#591+[#592-#591]*0.50987]
#100=[#105+[#106-#105]*0.57213]
X57.13955 Y-63.47293 Z[#100+-0.20000]
#105=[#578+[#579-#578]*0.54555]
#106=[#591+[#592-#591]*0.54555]
#100=[#105+[#106-#105]*0.53815]
X56.97790 Y-63.29503 Z[#100+-0.20000]
#105=[#578+[#579-#578]*0.58813]
#106=[#591+[#592-#591]*0.58813]
#100=[#105+[#106-#105]*0.51219]
X56.85441 Y-63.08276 Z[#100+-0.20000]
#105=[#578+[#579-#578]*0.63399]
#106=[#591+[#592-#591]*0.63399]
#100=[#105+[#106-#105]*0.49657]
X56.78011 Y-62.85411 Z[#100+-0.20000]
#105=[#578+[#579-#578]*0.68194]
#106=[#591+[#592-#591]*0.68194]
#100=[#105+[#106-#105]*0.49129]
X56.75499 Y-62.61502 Z[#100+-0.20000]
#105=[#578+[#579-#578]*0.84240]
#106=[#591+[#592-#591]*0.84240]
#100=[#105+[#106-#105]*0.49129]
X56.75499 Y-61.81503 Z[#100+-0.20000]
#105=[#578+[#579-#578]*0.89036]
#106=[#591+[#592-#591]*0.89036]
#100=[#105+[#106-#105]*0.49657]
X56.78011 Y-61.57591 Z[#100+-0.20000]
#105=[#578+[#579-#578]*0.93715]
#106=[#591+[#592-#591]*0.93715]
#100=[#105+[#106-#105]*0.51269]
X56.85679 Y-61.34261 Z[#100+-0.20000]
#105=[#578+[#579-#578]*0.97798]
#106=[#591+[#592-#591]*0.97798]
#100=[#105+[#106-#105]*0.53746]
X56.97462 Y-61.13905 Z[#100+-0.20000]
#105=[#579+[#580-#579]*0.00000]
#106=[#592+[#593-#592]*0.00000]
#100=[#105+[#106-#105]*0.55819]
X57.07321 Y-61.02925 Z[#100+-0.20000]
#105=[#579+[#580-#579]*0.00710]
#106=[#592+[#593-#592]*0.00710]
#100=[#105+[#106-#105]*0.56486]
X57.10498 Y-60.99387 Z[#100+-0.20000]
#105=[#579+[#580-#579]*0.22726]
#106=[#592+[#593-#592]*0.22726]
#100=[#105+[#106-#105]*0.56486]
X57.10498 Y-59.89616 Z[#100+-0.20000]
#105=[#579+[#580-#579]*0.25638]
#106=[#592+[#593-#592]*0.25638]
#100=[#105+[#106-#105]*0.53746]
X56.97462 Y-59.75097 Z[#100+-0.20000]
#105=[#579+[#580-#579]*0.29814]
#106=[#592+[#593-#592]*0.29814]
#100=[#105+[#106-#105]*0.51219]
X56.85441 Y-59.54277 Z[#100+-0.20000]
#105=[#579+[#580-#579]*0.34400]
#106=[#592+[#593-#592]*0.34400]
#100=[#105+[#106-#105]*0.49657]
X56.78011 Y-59.31412 Z[#100+-0.20000]
#105=[#579+[#580-#579]*0.39196]
#106=[#592+[#593-#592]*0.39196]
#100=[#105+[#106-#105]*0.49129]
X56.75499 Y-59.07503 Z[#100+-0.20000]
#105=[#579+[#580-#579]*0.55242]
#106=[#592+[#593-#592]*0.55242]
#100=[#105+[#106-#105]*0.49129]
X56.75499 Y-58.27500 Z[#100+-0.20000]
#105=[#579+[#580-#579]*0.60037]
#106=[#592+[#593-#592]*0.60037]
#100=[#105+[#106-#105]*0.49657]
X56.78011 Y-58.03591 Z[#100+-0.20000]
#105=[#579+[#580-#579]*0.64717]
#106=[#592+[#593-#592]*0.64717]
#100=[#105+[#106-#105]*0.51269]
X56.85679 Y-57.80261 Z[#100+-0.20000]
#105=[#579+[#580-#579]*0.68799]
#106=[#592+[#593-#592]*0.68799]
#100=[#105+[#106-#105]*0.53746]
X56.97462 Y-57.59906 Z[#100+-0.20000]
#105=[#579+[#580-#579]*0.71711]
#106=[#592+[#593-#592]*0.71711]
#100=[#105+[#106-#105]*0.56486]
X57.10498 Y-57.45387 Z[#100+-0.20000]
#105=[#579+[#580-#579]*1.00000]
#106=[#592+[#593-#592]*1.00000]
#100=[#105+[#106-#105]*0.56486]
X57.10498 Y-56.04346 Z[#100+-0.20000]
#105=[#580+[#581-#580]*0.23207]
#106=[#593+[#594-#593]*0.23207]
#100=[#105+[#106-#105]*0.56486]
X57.10498 Y-54.88641 Z[#100+-0.20000]
#105=[#567+[#568-#567]*0.77103]
#106=[#580+[#581-#580]*0.77103]
#100=[#105+[#106-#105]*1.00000]
X54.41784 Y-52.19928 Z[#100+-0.20000]
#100=[#568+[#581-#568]*0.76002]
X53.27622 Y-51.05766 Z[#100+-0.20000]
#105=[#568+[#569-#568]*0.20397]
#106=[#581+[#582-#581]*0.20397]
#100=[#105+[#106-#105]*0.54625]
X52.25929 Y-50.04073 Z[#100+-0.20000]
#105=[#568+[#569-#568]*0.22913]
#106=[#581+[#582-#581]*0.22913]
#100=[#105+[#106-#105]*0.52481]
X52.15728 Y-49.91528 Z[#100+-0.20000]
#105=[#568+[#569-#568]*0.25602]
#106=[#581+[#582-#581]*0.25602]
#100=[#105+[#106-#105]*0.50980]
X52.08589 Y-49.78119 Z[#100+-0.20000]
#105=[#568+[#569-#568]*0.28612]
#106=[#581+[#582-#581]*0.28612]
#100=[#105+[#106-#105]*0.50023]
X52.04037 Y-49.63110 Z[#100+-0.20000]
#105=[#568+[#569-#568]*0.30740]
#106=[#581+[#582-#581]*0.30740]
#100=[#105+[#106-#105]*0.49798]
X52.02968 Y-49.52503 Z[#100+-0.20000]
#100=[#568+[#569-#568]*0.30740]
X49.66070 Y-49.52503 Z[#100+-0.20000]
#100=[#555+[#556-#555]*0.30740]
X44.90356 Y-49.52503 Z[#100+-0.20000]
#105=[#529+[#530-#529]*0.30740]
#106=[#542+[#543-#542]*0.30740]
#100=[#105+[#106-#105]*1.00000]
X40.14642 Y-49.52503 Z[#100+-0.20000]
#105=[#529+[#530-#529]*0.30740]
#106=[#542+[#543-#542]*0.30740]
#100=[#105+[#106-#105]*0.59218]
X38.20636 Y-49.52503 Z[#100+-0.20000]
#100=[#529+[#542-#529]*0.27000]
X36.67373 Y-51.05766 Z[#100+-0.20000]
#105=[#528+[#529-#528]*0.74238]
#106=[#541+[#542-#541]*0.74238]
#100=[#105+[#106-#105]*0.00000]
X35.38928 Y-52.34211 Z[#100+-0.20000]
#105=[#514+[#515-#514]*1.00000]
#106=[#527+[#528-#527]*1.00000]
#100=[#105+[#106-#105]*0.22194]
X31.68792 Y-56.04346 Z[#100+-0.20000]
#105=[#514+[#515-#514]*0.78824]
#106=[#527+[#528-#527]*0.78824]
#100=[#105+[#106-#105]*0.00000]
X30.63213 Y-57.09924 Z[#100+-0.20000]
#105=[#501+[#502-#501]*0.44605]
#106=[#514+[#515-#514]*0.44605]
#100=[#105+[#106-#105]*0.64136]
X28.92601 Y-58.80535 Z[#100+-0.20000]
#105=[#501+[#502-#501]*0.43551]
#106=[#514+[#515-#514]*0.43551]
#100=[#105+[#106-#105]*0.64470]
X28.94194 Y-58.85791 Z[#100+-0.20000]
#105=[#501+[#502-#501]*0.37191]
#106=[#514+[#515-#514]*0.37191]
#100=[#105+[#106-#105]*0.65165]
X28.97498 Y-59.17500 Z[#100+-0.20000]
#105=[#501+[#502-#501]*0.30625]
#106=[#514+[#515-#514]*0.30625]
#100=[#105+[#106-#105]*0.64424]
X28.93975 Y-59.50233 Z[#100+-0.20000]
#105=[#501+[#502-#501]*0.24546]
#106=[#514+[#515-#514]*0.24546]
#100=[#105+[#106-#105]*0.62348]
X28.84097 Y-59.80545 Z[#100+-0.20000]
#105=[#501+[#502-#501]*0.19005]
#106=[#514+[#515-#514]*0.19005]
#100=[#105+[#106-#105]*0.59002]
X28.68182 Y-60.08168 Z[#100+-0.20000]
#105=[#501+[#502-#501]*0.14021]
#106=[#514+[#515-#514]*0.14021]
#100=[#105+[#106-#105]*0.54299]
X28.45807 Y-60.33019 Z[#100+-0.20000]
#105=[#501+[#502-#501]*0.10267]
#106=[#514+[#515-#514]*0.10267]
#100=[#105+[#106-#105]*0.48874]
X28.19998 Y-60.51736 Z[#100+-0.20000]
#105=[#501+[#502-#501]*0.07661]
#106=[#514+[#515-#514]*0.07661]
#100=[#105+[#106-#105]*0.42754]
X27.90884 Y-60.64729 Z[#100+-0.20000]
#105=[#501+[#502-#501]*0.06272]
#106=[#514+[#515-#514]*0.06272]
#100=[#105+[#106-#105]*0.35988]
X27.58700 Y-60.71653 Z[#100+-0.20000]
#105=[#501+[#502-#501]*0.06289]
#106=[#514+[#515-#514]*0.06289]
#100=[#105+[#106-#105]*0.29068]
X27.25779 Y-60.71571 Z[#100+-0.20000]
#105=[#501+[#502-#501]*0.07624]
#106=[#514+[#515-#514]*0.07624]
#100=[#105+[#106-#105]*0.22514]
X26.94601 Y-60.64914 Z[#100+-0.20000]
#105=[#501+[#502-#501]*0.10219]
#106=[#514+[#515-#514]*0.10219]
#100=[#105+[#106-#105]*0.16389]
X26.65464 Y-60.51973 Z[#100+-0.20000]
#105=[#501+[#502-#501]*0.14087]
#106=[#514+[#515-#514]*0.14087]
#100=[#105+[#106-#105]*0.10781]
X26.38784 Y-60.32689 Z[#100+-0.20000]
#105=[#501+[#502-#501]*0.19005]
#106=[#514+[#515-#514]*0.19005]
#100=[#105+[#106-#105]*0.06163]
X26.16816 Y-60.08168 Z[#100+-0.20000]
#105=[#501+[#502-#501]*0.24546]
#106=[#514+[#515-#514]*0.24546]
#100=[#105+[#106-#105]*0.02817]
X26.00900 Y-59.80545 Z[#100+-0.20000]
#105=[#501+[#502-#501]*0.30625]
#106=[#514+[#515-#514]*0.30625]
#100=[#105+[#106-#105]*0.00741]
X25.91022 Y-59.50233 Z[#100+-0.20000]
#100=[#501+[#502-#501]*0.37191]
X25.87499 Y-59.17500 Z[#100+-0.20000]
(Suppressed: G04 P0 ( dwell for no time -- G64 should not smooth over this point ))
G00 Z5.00000 ( retract )

G00 X33.49499 Y-59.17500 ( rapid move to begin. )
G01 F100.00000
( Mill infeed pass 1/1 )
#105=[#514+[#515-#514]*0.37191]
#106=[#527+[#528-#527]*0.37191]
#100=[#105+[#106-#105]*0.60180]
G01 Z[-0.20000+#100]
(Suppressed: G04 P0 ( dwell for no time -- G64 should not smooth over this point ))
G01 F150.00000
#105=[#514+[#515-#514]*0.43654]
#106=[#527+[#528-#527]*0.43654]
#100=[#105+[#106-#105]*0.60892]
X33.52885 Y-58.85275 Z[#100+-0.20000]
#105=[#514+[#515-#514]*0.49835]
#106=[#527+[#528-#527]*0.49835]
#100=[#105+[#106-#105]*0.62997]
X33.62900 Y-58.54457 Z[#100+-0.20000]
#105=[#514+[#515-#514]*0.55464]
#106=[#527+[#528-#527]*0.55464]
#100=[#105+[#106-#105]*0.66403]
X33.79100 Y-58.26395 Z[#100+-0.20000]
#105=[#514+[#515-#514]*0.60219]
#106=[#527+[#528-#527]*0.60219]
#100=[#105+[#106-#105]*0.70883]
X34.00413 Y-58.02684 Z[#100+-0.20000]
#105=[#514+[#515-#514]*0.64114]
#106=[#527+[#528-#527]*0.64114]
#100=[#105+[#106-#105]*0.76472]
X34.27000 Y-57.83266 Z[#100+-0.20000]
#105=[#514+[#515-#514]*0.66720]
#106=[#527+[#528-#527]*0.66720]
#100=[#105+[#106-#105]*0.82592]
X34.56113 Y-57.70274 Z[#100+-0.20000]
#105=[#514+[#515-#514]*0.68114]
#106=[#527+[#528-#527]*0.68114]
#100=[#105+[#106-#105]*0.89467]
X34.88821 Y-57.63322 Z[#100+-0.20000]
#105=[#514+[#515-#514]*0.68109]
#106=[#527+[#528-#527]*0.68109]
#100=[#105+[#106-#105]*0.96168]
X35.20700 Y-57.63350 Z[#100+-0.20000]
#105=[#527+[#528-#527]*0.67331]
#106=[#540+[#541-#540]*0.67331]
#100=[#105+[#106-#105]*0.00000]
X35.38928 Y-57.67225 Z[#100+-0.20000]
#105=[#527+[#528-#527]*0.66757]
#106=[#540+[#541-#540]*0.66757]
#100=[#105+[#106-#105]*0.02831]
X35.52397 Y-57.70089 Z[#100+-0.20000]
#105=[#527+[#528-#527]*0.64114]
#106=[#540+[#541-#540]*0.64114]
#100=[#105+[#106-#105]*0.09054]
X35.81998 Y-57.83266 Z[#100+-0.20000]
#105=[#527+[#528-#527]*0.60294]
#106=[#540+[#541-#540]*0.60294]
#100=[#105+[#106-#105]*0.14565]
X36.08213 Y-58.02314 Z[#100+-0.20000]
#105=[#527+[#528-#527]*0.55464]
#106=[#540+[#541-#540]*0.55464]
#100=[#105+[#106-#105]*0.19123]
X36.29897 Y-58.26395 Z[#100+-0.20000]
#105=[#527+[#528-#527]*0.49835]
#106=[#540+[#541-#540]*0.49835]
#100=[#105+[#106-#105]*0.22528]
X36.46097 Y-58.54457 Z[#100+-0.20000]
#105=[#527+[#528-#527]*0.43654]
#106=[#540+[#541-#540]*0.43654]
#100=[#105+[#106-#105]*0.24634]
X36.56113 Y-58.85275 Z[#100+-0.20000]
#105=[#527+[#528-#527]*0.37191]
#106=[#540+[#541-#540]*0.37191]
#100=[#105+[#106-#105]*0.25345]
X36.59498 Y-59.17500 Z[#100+-0.20000]
#105=[#527+[#528-#527]*0.30727]
#106=[#540+[#541-#540]*0.30727]
#100=[#105+[#106-#105]*0.24634]
X36.56113 Y-59.49728 Z[#100+-0.20000]
#105=[#527+[#528-#527]*0.24546]
#106=[#540+[#541-#540]*0.24546]
#100=[#105+[#106-#105]*0.22528]
X36.46097 Y-59.80545 Z[#100+-0.20000]
#105=[#527+[#528-#527]*0.18917]
#106=[#540+[#541-#540]*0.18917]
#100=[#105+[#106-#105]*0.19123]
X36.29897 Y-60.08607 Z[#100+-0.20000]
#105=[#527+[#528-#527]*0.14162]
#106=[#540+[#541-#540]*0.14162]
#100=[#105+[#106-#105]*0.14643]
X36.08584 Y-60.32318 Z[#100+-0.20000]
#105=[#527+[#528-#527]*0.10267]
#106=[#540+[#541-#540]*0.10267]
#100=[#105+[#106-#105]*0.09054]
X35.81998 Y-60.51736 Z[#100+-0.20000]
#105=[#527+[#528-#527]*0.07661]
#106=[#540+[#541-#540]*0.07661]
#100=[#105+[#106-#105]*0.02934]
X35.52884 Y-60.64729 Z[#100+-0.20000]
#105=[#527+[#528-#527]*0.07066]
#106=[#540+[#541-#540]*0.07066]
#100=[#105+[#106-#105]*0.00000]
X35.38928 Y-60.67695 Z[#100+-0.20000]
#105=[#514+[#515-#514]*0.06267]
#106=[#527+[#528-#527]*0.06267]
#100=[#105+[#106-#105]*0.96058]
X35.20177 Y-60.71681 Z[#100+-0.20000]
#105=[#514+[#515-#514]*0.06272]
#106=[#527+[#528-#527]*0.06272]
#100=[#105+[#106-#105]*0.89357]
X34.88297 Y-60.71653 Z[#100+-0.20000]
#105=[#514+[#515-#514]*0.07624]
#106=[#527+[#528-#527]*0.07624]
#100=[#105+[#106-#105]*0.82694]
X34.56601 Y-60.64914 Z[#100+-0.20000]
#105=[#514+[#515-#514]*0.10267]
#106=[#527+[#528-#527]*0.10267]
#100=[#105+[#106-#105]*0.76472]
X34.27000 Y-60.51736 Z[#100+-0.20000]
#105=[#514+[#515-#514]*0.14087]
#106=[#527+[#528-#527]*0.14087]
#100=[#105+[#106-#105]*0.70961]
X34.00784 Y-60.32689 Z[#100+-0.20000]
#105=[#514+[#515-#514]*0.18917]
#106=[#527+[#528-#527]*0.18917]
#100=[#105+[#106-#105]*0.66403]
X33.79100 Y-60.08607 Z[#100+-0.20000]
#105=[#514+[#515-#514]*0.24546]
#106=[#527+[#528-#527]*0.24546]
#100=[#105+[#106-#105]*0.62997]
X33.62900 Y-59.80545 Z[#100+-0.20000]
#105=[#514+[#515-#514]*0.30727]
#106=[#527+[#528-#527]*0.30727]
#100=[#105+[#106-#105]*0.60892]
X33.52885 Y-59.49728 Z[#100+-0.20000]
#105=[#514+[#515-#514]*0.37191]
#106=[#527+[#528-#527]*0.37191]
#100=[#105+[#106-#105]*0.60180]
X33.49499 Y-59.17500 Z[#100+-0.20000]
(Suppressed: G04 P0 ( dwell for no time -- G64 should not smooth over this point ))
G00 Z5.00000 ( retract )

G00 X33.49499 Y-46.47503 ( rapid move to begin. )
G01 F100.00000
( Mill infeed pass 1/1 )
#105=[#516+[#517-#516]*0.91914]
#106=[#529+[#530-#529]*0.91914]
#100=[#105+[#106-#105]*0.60180]
G01 Z[-0.20000+#100]
(Suppressed: G04 P0 ( dwell for no time -- G64 should not smooth over this point ))
G01 F150.00000
#105=[#516+[#517-#516]*0.98377]
#106=[#529+[#530-#529]*0.98377]
#100=[#105+[#106-#105]*0.60892]
X33.52885 Y-46.15278 Z[#100+-0.20000]
#105=[#516+[#517-#516]*1.00000]
#106=[#529+[#530-#529]*1.00000]
#100=[#105+[#106-#105]*0.61445]
X33.55514 Y-46.07187 Z[#100+-0.20000]
#105=[#517+[#518-#517]*0.04559]
#106=[#530+[#531-#530]*0.04559]
#100=[#105+[#106-#105]*0.62997]
X33.62900 Y-45.84457 Z[#100+-0.20000]
#105=[#517+[#518-#517]*0.10187]
#106=[#530+[#531-#530]*0.10187]
#100=[#105+[#106-#105]*0.66403]
X33.79100 Y-45.56395 Z[#100+-0.20000]
#105=[#517+[#518-#517]*0.14943]
#106=[#530+[#531-#530]*0.14943]
#100=[#105+[#106-#105]*0.70883]
X34.00413 Y-45.32684 Z[#100+-0.20000]
#105=[#517+[#518-#517]*0.18838]
#106=[#530+[#531-#530]*0.18838]
#100=[#105+[#106-#105]*0.76472]
X34.27000 Y-45.13266 Z[#100+-0.20000]
#105=[#517+[#518-#517]*0.21443]
#106=[#530+[#531-#530]*0.21443]
#100=[#105+[#106-#105]*0.82592]
X34.56113 Y-45.00274 Z[#100+-0.20000]
#105=[#517+[#518-#517]*0.22838]
#106=[#530+[#531-#530]*0.22838]
#100=[#105+[#106-#105]*0.89467]
X34.88821 Y-44.93322 Z[#100+-0.20000]
#105=[#517+[#518-#517]*0.22832]
#106=[#530+[#531-#530]*0.22832]
#100=[#105+[#106-#105]*0.96168]
X35.20700 Y-44.93350 Z[#100+-0.20000]
#105=[#530+[#531-#530]*0.22055]
#106=[#543+[#544-#543]*0.22055]
#100=[#105+[#106-#105]*0.00000]
X35.38928 Y-44.97225 Z[#100+-0.20000]
#105=[#530+[#531-#530]*0.21481]
#106=[#543+[#544-#543]*0.21481]
#100=[#105+[#106-#105]*0.02831]
X35.52397 Y-45.00089 Z[#100+-0.20000]
#105=[#530+[#531-#530]*0.18838]
#106=[#543+[#544-#543]*0.18838]
#100=[#105+[#106-#105]*0.09054]
X35.81998 Y-45.13266 Z[#100+-0.20000]
#105=[#530+[#531-#530]*0.15017]
#106=[#543+[#544-#543]*0.15017]
#100=[#105+[#106-#105]*0.14565]
X36.08213 Y-45.32314 Z[#100+-0.20000]
#105=[#530+[#531-#530]*0.10187]
#106=[#543+[#544-#543]*0.10187]
#100=[#105+[#106-#105]*0.19123]
X36.29897 Y-45.56395 Z[#100+-0.20000]
#105=[#530+[#531-#530]*0.04559]
#106=[#543+[#544-#543]*0.04559]
#100=[#105+[#106-#105]*0.22528]
X36.46097 Y-45.84457 Z[#100+-0.20000]
#105=[#529+[#530-#529]*1.00000]
#106=[#542+[#543-#542]*1.00000]
#100=[#105+[#106-#105]*0.24081]
X36.53483 Y-46.07187 Z[#100+-0.20000]
#105=[#529+[#530-#529]*0.98377]
#106=[#542+[#543-#542]*0.98377]
#100=[#105+[#106-#105]*0.24634]
X36.56113 Y-46.15278 Z[#100+-0.20000]
#105=[#529+[#530-#529]*0.91914]
#106=[#542+[#543-#542]*0.91914]
#100=[#105+[#106-#105]*0.25345]
X36.59498 Y-46.47500 Z[#100+-0.20000]
#105=[#529+[#530-#529]*0.85451]
#106=[#542+[#543-#542]*0.85451]
#100=[#105+[#106-#105]*0.24634]
X36.56113 Y-46.79728 Z[#100+-0.20000]
#105=[#529+[#530-#529]*0.79269]
#106=[#542+[#543-#542]*0.79269]
#100=[#105+[#106-#105]*0.22528]
X36.46097 Y-47.10545 Z[#100+-0.20000]
#105=[#529+[#530-#529]*0.73641]
#106=[#542+[#543-#542]*0.73641]
#100=[#105+[#106-#105]*0.19123]
X36.29897 Y-47.38607 Z[#100+-0.20000]
#105=[#529+[#530-#529]*0.68885]
#106=[#542+[#543-#542]*0.68885]
#100=[#105+[#106-#105]*0.14643]
X36.08584 Y-47.62318 Z[#100+-0.20000]
#105=[#529+[#530-#529]*0.64991]
#106=[#542+[#543-#542]*0.64991]
#100=[#105+[#106-#105]*0.09054]
X35.81998 Y-47.81736 Z[#100+-0.20000]
#105=[#529+[#530-#529]*0.62385]
#106=[#542+[#543-#542]*0.62385]
#100=[#105+[#106-#105]*0.02934]
X35.52884 Y-47.94729 Z[#100+-0.20000]
#105=[#529+[#530-#529]*0.61790]
#106=[#542+[#543-#542]*0.61790]
#100=[#105+[#106-#105]*0.00000]
X35.38928 Y-47.97695 Z[#100+-0.20000]
#105=[#516+[#517-#516]*0.60990]
#106=[#529+[#530-#529]*0.60990]
#100=[#105+[#106-#105]*0.96058]
X35.20177 Y-48.01681 Z[#100+-0.20000]
#105=[#516+[#517-#516]*0.60996]
#106=[#529+[#530-#529]*0.60996]
#100=[#105+[#106-#105]*0.89357]
X34.88297 Y-48.01653 Z[#100+-0.20000]
#105=[#516+[#517-#516]*0.62348]
#106=[#529+[#530-#529]*0.62348]
#100=[#105+[#106-#105]*0.82694]
X34.56601 Y-47.94914 Z[#100+-0.20000]
#105=[#516+[#517-#516]*0.64991]
#106=[#529+[#530-#529]*0.64991]
#100=[#105+[#106-#105]*0.76472]
X34.27000 Y-47.81736 Z[#100+-0.20000]
#105=[#516+[#517-#516]*0.68811]
#106=[#529+[#530-#529]*0.68811]
#100=[#105+[#106-#105]*0.70961]
X34.00784 Y-47.62689 Z[#100+-0.20000]
#105=[#516+[#517-#516]*0.73641]
#106=[#529+[#530-#529]*0.73641]
#100=[#105+[#106-#105]*0.66403]
X33.79100 Y-47.38607 Z[#100+-0.20000]
#105=[#516+[#517-#516]*0.79269]
#106=[#529+[#530-#529]*0.79269]
#100=[#105+[#106-#105]*0.62997]
X33.62900 Y-47.10545 Z[#100+-0.20000]
#105=[#516+[#517-#516]*0.85451]
#106=[#529+[#530-#529]*0.85451]
#100=[#105+[#106-#105]*0.60892]
X33.52885 Y-46.79728 Z[#100+-0.20000]
#105=[#516+[#517-#516]*0.91914]
#106=[#529+[#530-#529]*0.91914]
#100=[#105+[#106-#105]*0.60180]
X33.49499 Y-46.47503 Z[#100+-0.20000]
(Suppressed: G04 P0 ( dwell for no time -- G64 should not smooth over this point ))
G00 Z5.00000 ( retract )

G00 X25.87499 Y-46.47500 ( rapid move to begin. )
G01 F100.00000
( Mill infeed pass 1/1 )
#100=[#503+[#504-#503]*0.91914]
G01 Z[-0.20000+#100]
(Suppressed: G04 P0 ( dwell for no time -- G64 should not smooth over this point ))
G01 F150.00000
#105=[#503+[#504-#503]*0.98377]
#106=[#516+[#517-#516]*0.98377]
#100=[#105+[#106-#105]*0.00712]
X25.90885 Y-46.15278 Z[#100+-0.20000]
#105=[#503+[#504-#503]*1.00000]
#106=[#516+[#517-#516]*1.00000]
#100=[#105+[#106-#105]*0.01264]
X25.93514 Y-46.07187 Z[#100+-0.20000]
#105=[#504+[#505-#504]*0.04559]
#106=[#517+[#518-#517]*0.04559]
#100=[#105+[#106-#105]*0.02817]
X26.00900 Y-45.84457 Z[#100+-0.20000]
#105=[#504+[#505-#504]*0.10187]
#106=[#517+[#518-#517]*0.10187]
#100=[#105+[#106-#105]*0.06222]
X26.17100 Y-45.56395 Z[#100+-0.20000]
#105=[#504+[#505-#504]*0.15017]
#106=[#517+[#518-#517]*0.15017]
#100=[#105+[#106-#105]*0.10781]
X26.38784 Y-45.32314 Z[#100+-0.20000]
#105=[#504+[#505-#504]*0.18838]
#106=[#517+[#518-#517]*0.18838]
#100=[#105+[#106-#105]*0.16291]
X26.65000 Y-45.13266 Z[#100+-0.20000]
#105=[#504+[#505-#504]*0.21508]
#106=[#517+[#518-#517]*0.21508]
#100=[#105+[#106-#105]*0.22620]
X26.95106 Y-44.99951 Z[#100+-0.20000]
#105=[#504+[#505-#504]*0.22838]
#106=[#517+[#518-#517]*0.22838]
#100=[#105+[#106-#105]*0.29287]
X27.26821 Y-44.93322 Z[#100+-0.20000]
#105=[#504+[#505-#504]*0.22832]
#106=[#517+[#518-#517]*0.22832]
#100=[#105+[#106-#105]*0.35988]
X27.58700 Y-44.93350 Z[#100+-0.20000]
#105=[#504+[#505-#504]*0.21965]
#106=[#517+[#518-#517]*0.21965]
#100=[#105+[#106-#105]*0.40294]
X27.79185 Y-44.97676 Z[#100+-0.20000]
#105=[#517+[#518-#517]*0.78932]
#106=[#530+[#531-#530]*0.78932]
#100=[#105+[#106-#105]*0.00000]
X30.63213 Y-42.13647 Z[#100+-0.20000]
#100=[#518+[#531-#518]*0.22080]
X31.68253 Y-41.08607 Z[#100+-0.20000]
#105=[#531+[#532-#531]*0.74346]
#106=[#544+[#545-#544]*0.74346]
#100=[#105+[#106-#105]*0.00000]
X35.38928 Y-37.37933 Z[#100+-0.20000]
#100=[#532+[#545-#532]*0.26887]
X36.66833 Y-36.10028 Z[#100+-0.20000]
#105=[#532+[#533-#532]*0.69760]
#106=[#545+[#546-#545]*0.69760]
#100=[#105+[#106-#105]*1.00000]
X40.14642 Y-32.62219 Z[#100+-0.20000]
#105=[#545+[#546-#545]*1.00000]
#106=[#558+[#559-#558]*1.00000]
#100=[#105+[#106-#105]*0.31693]
X41.65412 Y-31.11449 Z[#100+-0.20000]
#105=[#546+[#547-#546]*0.53493]
#106=[#559+[#560-#559]*0.53493]
#100=[#105+[#106-#105]*0.87757]
X44.32116 Y-28.44745 Z[#100+-0.20000]
#100=[#547+[#560-#547]*0.87757]
X44.32116 Y-26.12869 Z[#100+-0.20000]
#105=[#547+[#548-#547]*0.91862]
#106=[#560+[#561-#560]*0.91862]
#100=[#105+[#106-#105]*0.87757]
X44.32116 Y-21.54863 Z[#100+-0.20000]
#105=[#547+[#548-#547]*0.95325]
#106=[#560+[#561-#560]*0.95325]
#100=[#105+[#106-#105]*0.82772]
X44.08402 Y-21.37599 Z[#100+-0.20000]
#100=[#548+[#561-#548]*0.78353]
X43.87379 Y-21.14290 Z[#100+-0.20000]
#105=[#548+[#549-#548]*0.00073]
#106=[#561+[#562-#561]*0.00073]
#100=[#105+[#106-#105]*0.78284]
X43.87048 Y-21.13924 Z[#100+-0.20000]
#105=[#548+[#549-#548]*0.05783]
#106=[#561+[#562-#561]*0.05783]
#100=[#105+[#106-#105]*0.74809]
X43.70518 Y-20.85458 Z[#100+-0.20000]
#105=[#548+[#549-#548]*0.12067]
#106=[#561+[#562-#561]*0.12067]
#100=[#105+[#106-#105]*0.72686]
X43.60422 Y-20.54124 Z[#100+-0.20000]
#105=[#548+[#549-#548]*0.18428]
#106=[#561+[#562-#561]*0.18428]
#100=[#105+[#106-#105]*0.71992]
X43.57117 Y-20.22410 Z[#100+-0.20000]
#105=[#548+[#549-#548]*0.24892]
#106=[#561+[#562-#561]*0.24892]
#100=[#105+[#106-#105]*0.72704]
X43.60503 Y-19.90185 Z[#100+-0.20000]
#105=[#548+[#549-#548]*0.31167]
#106=[#561+[#562-#561]*0.31167]
#100=[#105+[#106-#105]*0.74858]
X43.70754 Y-19.58900 Z[#100+-0.20000]
#105=[#548+[#549-#548]*0.36701]
#106=[#561+[#562-#561]*0.36701]
#100=[#105+[#106-#105]*0.78214]
X43.86718 Y-19.31308 Z[#100+-0.20000]
#105=[#548+[#549-#548]*0.41457]
#106=[#561+[#562-#561]*0.41457]
#100=[#105+[#106-#105]*0.82695]
X44.08031 Y-19.07594 Z[#100+-0.20000]
#105=[#548+[#549-#548]*0.45352]
#106=[#561+[#562-#561]*0.45352]
#100=[#105+[#106-#105]*0.88283]
X44.34618 Y-18.88176 Z[#100+-0.20000]
#105=[#548+[#549-#548]*0.47995]
#106=[#561+[#562-#561]*0.47995]
#100=[#105+[#106-#105]*0.94506]
X44.64219 Y-18.74999 Z[#100+-0.20000]
#100=[#561+[#562-#561]*0.49109]
X44.90356 Y-18.69442 Z[#100+-0.20000]
#105=[#561+[#562-#561]*0.49346]
#106=[#574+[#575-#574]*0.49346]
#100=[#105+[#106-#105]*0.01169]
X44.95915 Y-18.68260 Z[#100+-0.20000]
#105=[#561+[#562-#561]*0.49330]
#106=[#574+[#575-#574]*0.49330]
#100=[#105+[#106-#105]*0.08089]
X45.28836 Y-18.68341 Z[#100+-0.20000]
#105=[#561+[#562-#561]*0.47957]
#106=[#574+[#575-#574]*0.47957]
#100=[#105+[#106-#105]*0.14746]
X45.60502 Y-18.75184 Z[#100+-0.20000]
#105=[#561+[#562-#561]*0.45352]
#106=[#574+[#575-#574]*0.45352]
#100=[#105+[#106-#105]*0.20865]
X45.89616 Y-18.88176 Z[#100+-0.20000]
#105=[#561+[#562-#561]*0.41598]
#106=[#574+[#575-#574]*0.41598]
#100=[#105+[#106-#105]*0.26291]
X46.15425 Y-19.06893 Z[#100+-0.20000]
#105=[#561+[#562-#561]*0.36701]
#106=[#574+[#575-#574]*0.36701]
#100=[#105+[#106-#105]*0.30934]
X46.37515 Y-19.31308 Z[#100+-0.20000]
#105=[#561+[#562-#561]*0.31073]
#106=[#574+[#575-#574]*0.31073]
#100=[#105+[#106-#105]*0.34340]
X46.53715 Y-19.59367 Z[#100+-0.20000]
#105=[#561+[#562-#561]*0.24892]
#106=[#574+[#575-#574]*0.24892]
#100=[#105+[#106-#105]*0.36445]
X46.63731 Y-19.90185 Z[#100+-0.20000]
#105=[#561+[#562-#561]*0.18428]
#106=[#574+[#575-#574]*0.18428]
#100=[#105+[#106-#105]*0.37157]
X46.67116 Y-20.22410 Z[#100+-0.20000]
#105=[#561+[#562-#561]*0.11964]
#106=[#574+[#575-#574]*0.11964]
#100=[#105+[#106-#105]*0.36445]
X46.63731 Y-20.54640 Z[#100+-0.20000]
#105=[#561+[#562-#561]*0.05690]
#106=[#574+[#575-#574]*0.05690]
#100=[#105+[#106-#105]*0.34290]
X46.53479 Y-20.85923 Z[#100+-0.20000]
#105=[#561+[#562-#561]*0.00073]
#106=[#574+[#575-#574]*0.00073]
#100=[#105+[#106-#105]*0.30865]
X46.37185 Y-21.13924 Z[#100+-0.20000]
#100=[#561+[#574-#561]*0.30796]
X46.36855 Y-21.14290 Z[#100+-0.20000]
#105=[#560+[#561-#560]*0.95325]
#106=[#573+[#574-#573]*0.95325]
#100=[#105+[#106-#105]*0.26376]
X46.15831 Y-21.37599 Z[#100+-0.20000]
#105=[#560+[#561-#560]*0.91862]
#106=[#573+[#574-#573]*0.91862]
#100=[#105+[#106-#105]*0.21391]
X45.92118 Y-21.54863 Z[#100+-0.20000]
#100=[#560+[#573-#560]*0.21391]
X45.92118 Y-26.12869 Z[#100+-0.20000]
#105=[#559+[#560-#559]*0.46846]
#106=[#572+[#573-#572]*0.46846]
#100=[#105+[#106-#105]*0.21391]
X45.92118 Y-28.77882 Z[#100+-0.20000]
#105=[#559+[#560-#559]*0.43813]
#106=[#572+[#573-#572]*0.43813]
#100=[#105+[#106-#105]*0.21083]
X45.90652 Y-28.93005 Z[#100+-0.20000]
#105=[#559+[#560-#559]*0.40798]
#106=[#572+[#573-#572]*0.40798]
#100=[#105+[#106-#105]*0.20146]
X45.86192 Y-29.08037 Z[#100+-0.20000]
#105=[#559+[#560-#559]*0.37853]
#106=[#572+[#573-#572]*0.37853]
#100=[#105+[#106-#105]*0.18495]
X45.78341 Y-29.22723 Z[#100+-0.20000]
#105=[#559+[#560-#559]*0.35500]
#106=[#572+[#573-#572]*0.35500]
#100=[#105+[#106-#105]*0.16466]
X45.68686 Y-29.34453 Z[#100+-0.20000]
#100=[#559+[#560-#559]*0.19789]
X44.90356 Y-30.12783 Z[#100+-0.20000]
#105=[#545+[#546-#545]*1.00000]
#106=[#558+[#559-#558]*1.00000]
#100=[#105+[#106-#105]*0.79259]
X43.91690 Y-31.11449 Z[#100+-0.20000]
#105=[#532+[#533-#532]*0.24376]
#106=[#545+[#546-#545]*0.24376]
#100=[#105+[#106-#105]*1.00000]
X40.14642 Y-34.88497 Z[#100+-0.20000]
#100=[#532+[#545-#532]*0.74453]
X38.93110 Y-36.10028 Z[#100+-0.20000]
#105=[#531+[#532-#531]*0.28962]
#106=[#544+[#545-#544]*0.28962]
#100=[#105+[#106-#105]*0.00000]
X35.38928 Y-39.64210 Z[#100+-0.20000]
#100=[#518+[#531-#518]*0.69646]
X33.94530 Y-41.08607 Z[#100+-0.20000]
#105=[#517+[#518-#517]*0.33548]
#106=[#530+[#531-#530]*0.33548]
#100=[#105+[#106-#105]*0.00000]
X30.63213 Y-44.39924 Z[#100+-0.20000]
#105=[#503+[#504-#503]*1.00000]
#106=[#516+[#517-#516]*1.00000]
#100=[#105+[#106-#105]*0.64840]
X28.95950 Y-46.07187 Z[#100+-0.20000]
#105=[#503+[#504-#503]*0.99328]
#106=[#516+[#517-#516]*0.99328]
#100=[#105+[#106-#105]*0.64136]
X28.92601 Y-46.10535 Z[#100+-0.20000]
#105=[#503+[#504-#503]*0.98274]
#106=[#516+[#517-#516]*0.98274]
#100=[#105+[#106-#105]*0.64470]
X28.94194 Y-46.15793 Z[#100+-0.20000]
#105=[#503+[#504-#503]*0.91914]
#106=[#516+[#517-#516]*0.91914]
#100=[#105+[#106-#105]*0.65165]
X28.97498 Y-46.47500 Z[#100+-0.20000]
#105=[#503+[#504-#503]*0.85349]
#106=[#516+[#517-#516]*0.85349]
#100=[#105+[#106-#105]*0.64424]
X28.93975 Y-46.80233 Z[#100+-0.20000]
#105=[#503+[#504-#503]*0.79269]
#106=[#516+[#517-#516]*0.79269]
#100=[#105+[#106-#105]*0.62348]
X28.84097 Y-47.10545 Z[#100+-0.20000]
#105=[#503+[#504-#503]*0.73729]
#106=[#516+[#517-#516]*0.73729]
#100=[#105+[#106-#105]*0.59002]
X28.68182 Y-47.38168 Z[#100+-0.20000]
#105=[#503+[#504-#503]*0.68811]
#106=[#516+[#517-#516]*0.68811]
#100=[#105+[#106-#105]*0.54384]
X28.46213 Y-47.62689 Z[#100+-0.20000]
#105=[#503+[#504-#503]*0.64943]
#106=[#516+[#517-#516]*0.64943]
#100=[#105+[#106-#105]*0.48775]
X28.19531 Y-47.81973 Z[#100+-0.20000]
#105=[#503+[#504-#503]*0.62348]
#106=[#516+[#517-#516]*0.62348]
#100=[#105+[#106-#105]*0.42651]
X27.90394 Y-47.94914 Z[#100+-0.20000]
#105=[#503+[#504-#503]*0.61012]
#106=[#516+[#517-#516]*0.61012]
#100=[#105+[#106-#105]*0.36097]
X27.59218 Y-48.01571 Z[#100+-0.20000]
#105=[#503+[#504-#503]*0.60996]
#106=[#516+[#517-#516]*0.60996]
#100=[#105+[#106-#105]*0.29177]
X27.26297 Y-48.01653 Z[#100+-0.20000]
#105=[#503+[#504-#503]*0.62385]
#106=[#516+[#517-#516]*0.62385]
#100=[#105+[#106-#105]*0.22411]
X26.94113 Y-47.94729 Z[#100+-0.20000]
#105=[#503+[#504-#503]*0.64991]
#106=[#516+[#517-#516]*0.64991]
#100=[#105+[#106-#105]*0.16291]
X26.65000 Y-47.81736 Z[#100+-0.20000]
#105=[#503+[#504-#503]*0.68745]
#106=[#516+[#517-#516]*0.68745]
#100=[#105+[#106-#105]*0.10866]
X26.39191 Y-47.63019 Z[#100+-0.20000]
#105=[#503+[#504-#503]*0.73641]
#106=[#516+[#517-#516]*0.73641]
#100=[#105+[#106-#105]*0.06222]
X26.17100 Y-47.38607 Z[#100+-0.20000]
#105=[#503+[#504-#503]*0.79367]
#106=[#516+[#517-#516]*0.79367]
#100=[#105+[#106-#105]*0.02778]
X26.00712 Y-47.10058 Z[#100+-0.20000]
#105=[#503+[#504-#503]*0.85451]
#106=[#516+[#517-#516]*0.85451]
#100=[#105+[#106-#105]*0.00712]
X25.90885 Y-46.79728 Z[#100+-0.20000]
#100=[#503+[#504-#503]*0.91914]
X25.87499 Y-46.47500 Z[#100+-0.20000]
(Suppressed: G04 P0 ( dwell for no time -- G64 should not smooth over this point ))
G00 Z5.00000 ( retract )

G00 X25.87499 Y-32.27500 ( rapid move to begin. )
G01 F100.00000
( Mill infeed pass 1/1 )
#100=[#506+[#507-#506]*0.76724]
G01 Z[-0.20000+#100]
(Suppressed: G04 P0 ( dwell for no time -- G64 should not smooth over this point ))
G01 F150.00000
#100=[#506+[#507-#506]*0.16552]
X25.87499 Y-35.27502 Z[#100+-0.20000]
#105=[#506+[#507-#506]*0.16169]
#106=[#519+[#520-#519]*0.16169]
#100=[#105+[#106-#105]*0.00080]
X25.87880 Y-35.29415 Z[#100+-0.20000]
#105=[#506+[#507-#506]*0.15843]
#106=[#519+[#520-#519]*0.15843]
#100=[#105+[#106-#105]*0.00308]
X25.88962 Y-35.31038 Z[#100+-0.20000]
#105=[#506+[#507-#506]*0.15626]
#106=[#519+[#520-#519]*0.15626]
#100=[#105+[#106-#105]*0.00649]
X25.90585 Y-35.32120 Z[#100+-0.20000]
#105=[#506+[#507-#506]*0.15550]
#106=[#519+[#520-#519]*0.15550]
#100=[#105+[#106-#105]*0.01051]
X25.92498 Y-35.32501 Z[#100+-0.20000]
#105=[#506+[#507-#506]*0.15550]
#106=[#519+[#520-#519]*0.15550]
#100=[#105+[#106-#105]*0.64114]
X28.92500 Y-35.32501 Z[#100+-0.20000]
#105=[#506+[#507-#506]*0.15626]
#106=[#519+[#520-#519]*0.15626]
#100=[#105+[#106-#105]*0.64516]
X28.94412 Y-35.32120 Z[#100+-0.20000]
#105=[#506+[#507-#506]*0.15843]
#106=[#519+[#520-#519]*0.15843]
#100=[#105+[#106-#105]*0.64857]
X28.96035 Y-35.31038 Z[#100+-0.20000]
#105=[#506+[#507-#506]*0.16169]
#106=[#519+[#520-#519]*0.16169]
#100=[#105+[#106-#105]*0.65085]
X28.97117 Y-35.29415 Z[#100+-0.20000]
#105=[#506+[#507-#506]*0.16552]
#106=[#519+[#520-#519]*0.16552]
#100=[#105+[#106-#105]*0.65165]
X28.97498 Y-35.27502 Z[#100+-0.20000]
#105=[#506+[#507-#506]*0.76724]
#106=[#519+[#520-#519]*0.76724]
#100=[#105+[#106-#105]*0.65165]
X28.97498 Y-32.27500 Z[#100+-0.20000]
#105=[#506+[#507-#506]*0.77107]
#106=[#519+[#520-#519]*0.77107]
#100=[#105+[#106-#105]*0.65085]
X28.97117 Y-32.25588 Z[#100+-0.20000]
#105=[#506+[#507-#506]*0.77433]
#106=[#519+[#520-#519]*0.77433]
#100=[#105+[#106-#105]*0.64857]
X28.96035 Y-32.23965 Z[#100+-0.20000]
#105=[#506+[#507-#506]*0.77650]
#106=[#519+[#520-#519]*0.77650]
#100=[#105+[#106-#105]*0.64516]
X28.94412 Y-32.22883 Z[#100+-0.20000]
#105=[#506+[#507-#506]*0.77726]
#106=[#519+[#520-#519]*0.77726]
#100=[#105+[#106-#105]*0.64114]
X28.92500 Y-32.22502 Z[#100+-0.20000]
#105=[#506+[#507-#506]*0.77726]
#106=[#519+[#520-#519]*0.77726]
#100=[#105+[#106-#105]*0.01051]
X25.92498 Y-32.22502 Z[#100+-0.20000]
#105=[#506+[#507-#506]*0.77650]
#106=[#519+[#520-#519]*0.77650]
#100=[#105+[#106-#105]*0.00649]
X25.90585 Y-32.22883 Z[#100+-0.20000]
#105=[#506+[#507-#506]*0.77433]
#106=[#519+[#520-#519]*0.77433]
#100=[#105+[#106-#105]*0.00308]
X25.88962 Y-32.23965 Z[#100+-0.20000]
#105=[#506+[#507-#506]*0.77107]
#106=[#519+[#520-#519]*0.77107]
#100=[#105+[#106-#105]*0.00080]
X25.87880 Y-32.25588 Z[#100+-0.20000]
#100=[#506+[#507-#506]*0.76724]
X25.87499 Y-32.27500 Z[#100+-0.20000]
(Suppressed: G04 P0 ( dwell for no time -- G64 should not smooth over this point ))
G00 Z5.00000 ( retract )

G00 X31.07691 Y-17.72220 ( rapid move to begin. )
G01 F100.00000
( Mill infeed pass 1/1 )
#105=[#522+[#523-#522]*0.68609]
#106=[#535+[#536-#535]*0.68609]
#100=[#105+[#106-#105]*0.09350]
G01 Z[-0.20000+#100]
(Suppressed: G04 P0 ( dwell for no time -- G64 should not smooth over this point ))
G01 F150.00000
#105=[#522+[#523-#522]*0.62145]
#106=[#535+[#536-#535]*0.62145]
#100=[#105+[#106-#105]*0.10061]
X31.11077 Y-18.04448 Z[#100+-0.20000]
#105=[#522+[#523-#522]*0.55964]
#106=[#535+[#536-#535]*0.55964]
#100=[#105+[#106-#105]*0.12167]
X31.21092 Y-18.35265 Z[#100+-0.20000]
#105=[#522+[#523-#522]*0.50336]
#106=[#535+[#536-#535]*0.50336]
#100=[#105+[#106-#105]*0.15572]
X31.37292 Y-18.63327 Z[#100+-0.20000]
#105=[#522+[#523-#522]*0.45580]
#106=[#535+[#536-#535]*0.45580]
#100=[#105+[#106-#105]*0.20052]
X31.58605 Y-18.87038 Z[#100+-0.20000]
#105=[#522+[#523-#522]*0.41637]
#106=[#535+[#536-#535]*0.41637]
#100=[#105+[#106-#105]*0.25739]
X31.85656 Y-19.06695 Z[#100+-0.20000]
#105=[#522+[#523-#522]*0.39042]
#106=[#535+[#536-#535]*0.39042]
#100=[#105+[#106-#105]*0.31864]
X32.14793 Y-19.19634 Z[#100+-0.20000]
#105=[#522+[#523-#522]*0.37684]
#106=[#535+[#536-#535]*0.37684]
#100=[#105+[#106-#105]*0.38636]
X32.47013 Y-19.26403 Z[#100+-0.20000]
#105=[#522+[#523-#522]*0.37691]
#106=[#535+[#536-#535]*0.37691]
#100=[#105+[#106-#105]*0.45338]
X32.78892 Y-19.26373 Z[#100+-0.20000]
#105=[#522+[#523-#522]*0.39042]
#106=[#535+[#536-#535]*0.39042]
#100=[#105+[#106-#105]*0.52001]
X33.10589 Y-19.19634 Z[#100+-0.20000]
#105=[#522+[#523-#522]*0.41685]
#106=[#535+[#536-#535]*0.41685]
#100=[#105+[#106-#105]*0.58223]
X33.40190 Y-19.06456 Z[#100+-0.20000]
#105=[#522+[#523-#522]*0.45506]
#106=[#535+[#536-#535]*0.45506]
#100=[#105+[#106-#105]*0.63734]
X33.66405 Y-18.87409 Z[#100+-0.20000]
#105=[#522+[#523-#522]*0.50336]
#106=[#535+[#536-#535]*0.50336]
#100=[#105+[#106-#105]*0.68292]
X33.88089 Y-18.63327 Z[#100+-0.20000]
#105=[#522+[#523-#522]*0.55964]
#106=[#535+[#536-#535]*0.55964]
#100=[#105+[#106-#105]*0.71698]
X34.04289 Y-18.35265 Z[#100+-0.20000]
#105=[#522+[#523-#522]*0.62145]
#106=[#535+[#536-#535]*0.62145]
#100=[#105+[#106-#105]*0.73803]
X34.14305 Y-18.04448 Z[#100+-0.20000]
#105=[#522+[#523-#522]*0.68609]
#106=[#535+[#536-#535]*0.68609]
#100=[#105+[#106-#105]*0.74515]
X34.17690 Y-17.72220 Z[#100+-0.20000]
#105=[#522+[#523-#522]*0.75072]
#106=[#535+[#536-#535]*0.75072]
#100=[#105+[#106-#105]*0.73803]
X34.14305 Y-17.39995 Z[#100+-0.20000]
#105=[#522+[#523-#522]*0.81253]
#106=[#535+[#536-#535]*0.81253]
#100=[#105+[#106-#105]*0.71698]
X34.04289 Y-17.09177 Z[#100+-0.20000]
#105=[#522+[#523-#522]*0.86882]
#106=[#535+[#536-#535]*0.86882]
#100=[#105+[#106-#105]*0.68292]
X33.88089 Y-16.81115 Z[#100+-0.20000]
#105=[#522+[#523-#522]*0.91638]
#106=[#535+[#536-#535]*0.91638]
#100=[#105+[#106-#105]*0.63812]
X33.66776 Y-16.57404 Z[#100+-0.20000]
#105=[#522+[#523-#522]*0.95532]
#106=[#535+[#536-#535]*0.95532]
#100=[#105+[#106-#105]*0.58223]
X33.40190 Y-16.37986 Z[#100+-0.20000]
#105=[#522+[#523-#522]*0.98138]
#106=[#535+[#536-#535]*0.98138]
#100=[#105+[#106-#105]*0.52103]
X33.11076 Y-16.24994 Z[#100+-0.20000]
#105=[#522+[#523-#522]*0.99532]
#106=[#535+[#536-#535]*0.99532]
#100=[#105+[#106-#105]*0.45228]
X32.78369 Y-16.18042 Z[#100+-0.20000]
#105=[#522+[#523-#522]*0.99527]
#106=[#535+[#536-#535]*0.99527]
#100=[#105+[#106-#105]*0.38527]
X32.46489 Y-16.18070 Z[#100+-0.20000]
#105=[#522+[#523-#522]*0.98175]
#106=[#535+[#536-#535]*0.98175]
#100=[#105+[#106-#105]*0.31864]
X32.14793 Y-16.24809 Z[#100+-0.20000]
#105=[#522+[#523-#522]*0.95532]
#106=[#535+[#536-#535]*0.95532]
#100=[#105+[#106-#105]*0.25641]
X31.85192 Y-16.37986 Z[#100+-0.20000]
#105=[#522+[#523-#522]*0.91712]
#106=[#535+[#536-#535]*0.91712]
#100=[#105+[#106-#105]*0.20130]
X31.58976 Y-16.57034 Z[#100+-0.20000]
#105=[#522+[#523-#522]*0.86882]
#106=[#535+[#536-#535]*0.86882]
#100=[#105+[#106-#105]*0.15572]
X31.37292 Y-16.81115 Z[#100+-0.20000]
#105=[#522+[#523-#522]*0.81253]
#106=[#535+[#536-#535]*0.81253]
#100=[#105+[#106-#105]*0.12167]
X31.21092 Y-17.09177 Z[#100+-0.20000]
#105=[#522+[#523-#522]*0.75072]
#106=[#535+[#536-#535]*0.75072]
#100=[#105+[#106-#105]*0.10061]
X31.11077 Y-17.39995 Z[#100+-0.20000]
#105=[#522+[#523-#522]*0.68609]
#106=[#535+[#536-#535]*0.68609]
#100=[#105+[#106-#105]*0.09350]
X31.07691 Y-17.72220 Z[#100+-0.20000]
(Suppressed: G04 P0 ( dwell for no time -- G64 should not smooth over this point ))
G00 Z5.00000 ( retract )

G00 X29.07496 Y-16.58240 ( rapid move to begin. )
G01 F100.00000
( Mill infeed pass 1/1 )
#105=[#509+[#510-#509]*0.91470]
#106=[#522+[#523-#522]*0.91470]
#100=[#105+[#106-#105]*0.67267]
G01 Z[-0.20000+#100]
(Suppressed: G04 P0 ( dwell for no time -- G64 should not smooth over this point ))
G01 F150.00000
#105=[#509+[#510-#509]*0.94057]
#106=[#522+[#523-#522]*0.94057]
#100=[#105+[#106-#105]*0.67490]
X29.08558 Y-16.45342 Z[#100+-0.20000]
#105=[#509+[#510-#509]*0.96502]
#106=[#522+[#523-#522]*0.96502]
#100=[#105+[#106-#105]*0.68118]
X29.11547 Y-16.33152 Z[#100+-0.20000]
#105=[#509+[#510-#509]*0.98823]
#106=[#522+[#523-#522]*0.98823]
#100=[#105+[#106-#105]*0.69140]
X29.16409 Y-16.21580 Z[#100+-0.20000]
#100=[#510+[#523-#510]*0.69896]
X29.20005 Y-16.15711 Z[#100+-0.20000]
#105=[#510+[#511-#510]*0.00836]
#106=[#523+[#524-#523]*0.00836]
#100=[#105+[#106-#105]*0.70433]
X29.22558 Y-16.11545 Z[#100+-0.20000]
#105=[#510+[#511-#510]*0.02816]
#106=[#523+[#524-#523]*0.02816]
#100=[#105+[#106-#105]*0.72193]
X29.30930 Y-16.01672 Z[#100+-0.20000]
#105=[#523+[#524-#523]*0.29347]
#106=[#536+[#537-#536]*0.29347]
#100=[#105+[#106-#105]*0.00000]
X30.63213 Y-14.69390 Z[#100+-0.20000]
#105=[#523+[#524-#523]*0.35151]
#106=[#536+[#537-#536]*0.35151]
#100=[#105+[#106-#105]*0.06083]
X30.92151 Y-14.40453 Z[#100+-0.20000]
#105=[#523+[#524-#523]*0.37088]
#106=[#536+[#537-#536]*0.37088]
#100=[#105+[#106-#105]*0.08548]
X31.03878 Y-14.30796 Z[#100+-0.20000]
#105=[#523+[#524-#523]*0.38588]
#106=[#536+[#537-#536]*0.38588]
#100=[#105+[#106-#105]*0.11445]
X31.17661 Y-14.23321 Z[#100+-0.20000]
#105=[#523+[#524-#523]*0.39557]
#106=[#536+[#537-#536]*0.39557]
#100=[#105+[#106-#105]*0.14795]
X31.33596 Y-14.18487 Z[#100+-0.20000]
#105=[#523+[#524-#523]*0.39851]
#106=[#536+[#537-#536]*0.39851]
#100=[#105+[#106-#105]*0.17974]
X31.48720 Y-14.17021 Z[#100+-0.20000]
#105=[#536+[#537-#536]*0.39851]
#106=[#549+[#550-#549]*0.39851]
#100=[#105+[#106-#105]*0.00000]
X35.38928 Y-14.17021 Z[#100+-0.20000]
#105=[#536+[#537-#536]*0.39851]
#106=[#549+[#550-#549]*0.39851]
#100=[#105+[#106-#105]*1.00000]
X40.14642 Y-14.17021 Z[#100+-0.20000]
#100=[#562+[#563-#562]*0.39851]
X44.90356 Y-14.17021 Z[#100+-0.20000]
#105=[#562+[#563-#562]*0.39851]
#106=[#575+[#576-#575]*0.39851]
#100=[#105+[#106-#105]*0.81949]
X48.80200 Y-14.17021 Z[#100+-0.20000]
#105=[#562+[#563-#562]*0.39518]
#106=[#575+[#576-#575]*0.39518]
#100=[#105+[#106-#105]*0.85329]
X48.96280 Y-14.18680 Z[#100+-0.20000]
#105=[#562+[#563-#562]*0.38663]
#106=[#575+[#576-#575]*0.38663]
#100=[#105+[#106-#105]*0.88287]
X49.10352 Y-14.22947 Z[#100+-0.20000]
#105=[#562+[#563-#562]*0.37197]
#106=[#575+[#576-#575]*0.37197]
#100=[#105+[#106-#105]*0.91203]
X49.24223 Y-14.30252 Z[#100+-0.20000]
#105=[#562+[#563-#562]*0.35151]
#106=[#575+[#576-#575]*0.35151]
#100=[#105+[#106-#105]*0.93840]
X49.36768 Y-14.40453 Z[#100+-0.20000]
#100=[#575+[#576-#575]*0.29273]
X49.66070 Y-14.69762 Z[#100+-0.20000]
#105=[#575+[#576-#575]*0.03336]
#106=[#588+[#589-#588]*0.03336]
#100=[#105+[#106-#105]*0.27177]
X50.95355 Y-15.99078 Z[#100+-0.20000]
#105=[#575+[#576-#575]*0.00893]
#106=[#588+[#589-#588]*0.00893]
#100=[#105+[#106-#105]*0.29252]
X51.05228 Y-16.11258 Z[#100+-0.20000]
#100=[#575+[#588-#575]*0.29745]
X51.07573 Y-16.15711 Z[#100+-0.20000]
#105=[#574+[#575-#574]*0.98111]
#106=[#587+[#588-#587]*0.98111]
#100=[#105+[#106-#105]*0.30788]
X51.12533 Y-16.25129 Z[#100+-0.20000]
#105=[#574+[#575-#574]*0.95193]
#106=[#587+[#588-#587]*0.95193]
#100=[#105+[#106-#105]*0.31710]
X51.16920 Y-16.39675 Z[#100+-0.20000]
#105=[#574+[#575-#574]*0.92161]
#106=[#587+[#588-#587]*0.92161]
#100=[#105+[#106-#105]*0.32028]
X51.18434 Y-16.54793 Z[#100+-0.20000]
#100=[#574+[#587-#574]*0.32033]
X51.18457 Y-21.14290 Z[#100+-0.20000]
#105=[#573+[#574-#573]*0.93341]
#106=[#586+[#587-#586]*0.93341]
#100=[#105+[#106-#105]*0.32034]
X51.18459 Y-21.47492 Z[#100+-0.20000]
#105=[#573+[#574-#573]*0.90753]
#106=[#586+[#587-#586]*0.90753]
#100=[#105+[#106-#105]*0.31811]
X51.17397 Y-21.60393 Z[#100+-0.20000]
#105=[#573+[#574-#573]*0.88458]
#106=[#586+[#587-#586]*0.88458]
#100=[#105+[#106-#105]*0.31233]
X51.14649 Y-21.71838 Z[#100+-0.20000]
#105=[#573+[#574-#573]*0.86127]
#106=[#586+[#587-#586]*0.86127]
#100=[#105+[#106-#105]*0.30235]
X51.09902 Y-21.83456 Z[#100+-0.20000]
#105=[#573+[#574-#573]*0.83847]
#106=[#586+[#587-#586]*0.83847]
#100=[#105+[#106-#105]*0.28770]
X51.02935 Y-21.94825 Z[#100+-0.20000]
#105=[#573+[#574-#573]*0.81994]
#106=[#586+[#587-#586]*0.81994]
#100=[#105+[#106-#105]*0.27108]
X50.95025 Y-22.04063 Z[#100+-0.20000]
#105=[#573+[#574-#573]*0.65442]
#106=[#586+[#587-#586]*0.65442]
#100=[#105+[#106-#105]*0.09760]
X50.12498 Y-22.86590 Z[#100+-0.20000]
#100=[#573+[#586-#573]*0.09760]
X50.12498 Y-26.12869 Z[#100+-0.20000]
#105=[#572+[#573-#572]*0.13628]
#106=[#585+[#586-#585]*0.13628]
#100=[#105+[#106-#105]*0.09760]
X50.12498 Y-30.43500 Z[#100+-0.20000]
#105=[#572+[#573-#572]*0.13628]
#106=[#585+[#586-#585]*0.13628]
#100=[#105+[#106-#105]*0.31358]
X51.15246 Y-30.43500 Z[#100+-0.20000]
#105=[#572+[#573-#572]*0.14677]
#106=[#585+[#586-#585]*0.14677]
#100=[#105+[#106-#105]*0.32614]
X51.21220 Y-30.38270 Z[#100+-0.20000]
#105=[#572+[#573-#572]*0.16859]
#106=[#585+[#586-#585]*0.16859]
#100=[#105+[#106-#105]*0.36621]
X51.40280 Y-30.27391 Z[#100+-0.20000]
#105=[#572+[#573-#572]*0.18182]
#106=[#585+[#586-#585]*0.18182]
#100=[#105+[#106-#105]*0.40907]
X51.60669 Y-30.20795 Z[#100+-0.20000]
#105=[#572+[#573-#572]*0.18637]
#106=[#585+[#586-#585]*0.18637]
#100=[#105+[#106-#105]*0.45386]
X51.81977 Y-30.18529 Z[#100+-0.20000]
#105=[#572+[#573-#572]*0.18642]
#106=[#585+[#586-#585]*0.18642]
#100=[#105+[#106-#105]*0.87538]
X53.82500 Y-30.18501 Z[#100+-0.20000]
#105=[#572+[#573-#572]*0.18155]
#106=[#585+[#586-#585]*0.18155]
#100=[#105+[#106-#105]*0.92233]
X54.04834 Y-30.20932 Z[#100+-0.20000]
#105=[#572+[#573-#572]*0.16822]
#106=[#585+[#586-#585]*0.16822]
#100=[#105+[#106-#105]*0.96514]
X54.25202 Y-30.27579 Z[#100+-0.20000]
#105=[#572+[#573-#572]*0.14886]
#106=[#585+[#586-#585]*0.14886]
#100=[#105+[#106-#105]*1.00000]
X54.41784 Y-30.37233 Z[#100+-0.20000]
#105=[#585+[#586-#585]*0.14554]
#106=[#598+[#599-#598]*0.14554]
#100=[#105+[#106-#105]*0.00597]
X54.44623 Y-30.38885 Z[#100+-0.20000]
#105=[#585+[#586-#585]*0.11593]
#106=[#598+[#599-#598]*0.11593]
#100=[#105+[#106-#105]*0.04010]
X54.60859 Y-30.53650 Z[#100+-0.20000]
#105=[#585+[#586-#585]*0.08113]
#106=[#598+[#599-#598]*0.08113]
#100=[#105+[#106-#105]*0.06653]
X54.73432 Y-30.71001 Z[#100+-0.20000]
#105=[#585+[#586-#585]*0.04188]
#106=[#598+[#599-#598]*0.04188]
#100=[#105+[#106-#105]*0.08490]
X54.82172 Y-30.90566 Z[#100+-0.20000]
#105=[#584+[#585-#584]*1.00000]
#106=[#597+[#598-#597]*1.00000]
#100=[#105+[#106-#105]*0.09440]
X54.86691 Y-31.11449 Z[#100+-0.20000]
#105=[#584+[#585-#584]*0.99784]
#106=[#597+[#598-#597]*0.99784]
#100=[#105+[#106-#105]*0.09489]
X54.86924 Y-31.12525 Z[#100+-0.20000]
#105=[#584+[#585-#584]*0.95381]
#106=[#597+[#598-#597]*0.95381]
#100=[#105+[#106-#105]*0.09489]
X54.86924 Y-31.34478 Z[#100+-0.20000]
#105=[#584+[#585-#584]*0.91075]
#106=[#597+[#598-#597]*0.91075]
#100=[#105+[#106-#105]*0.08529]
X54.82360 Y-31.55948 Z[#100+-0.20000]
#105=[#584+[#585-#584]*0.87053]
#106=[#597+[#598-#597]*0.87053]
#100=[#105+[#106-#105]*0.06653]
X54.73432 Y-31.76002 Z[#100+-0.20000]
#105=[#584+[#585-#584]*0.83491]
#106=[#597+[#598-#597]*0.83491]
#100=[#105+[#106-#105]*0.03940]
X54.60529 Y-31.93759 Z[#100+-0.20000]
#105=[#584+[#585-#584]*0.80545]
#106=[#597+[#598-#597]*0.80545]
#100=[#105+[#106-#105]*0.00511]
X54.44214 Y-32.08448 Z[#100+-0.20000]
#105=[#571+[#572-#571]*0.80264]
#106=[#584+[#585-#584]*0.80264]
#100=[#105+[#106-#105]*1.00000]
X54.41784 Y-32.09850 Z[#100+-0.20000]
#105=[#571+[#572-#571]*0.78344]
#106=[#584+[#585-#584]*0.78344]
#100=[#105+[#106-#105]*0.96514]
X54.25202 Y-32.19423 Z[#100+-0.20000]
#105=[#571+[#572-#571]*0.76983]
#106=[#584+[#585-#584]*0.76983]
#100=[#105+[#106-#105]*0.92126]
X54.04329 Y-32.26207 Z[#100+-0.20000]
#105=[#571+[#572-#571]*0.76523]
#106=[#584+[#585-#584]*0.76523]
#100=[#105+[#106-#105]*0.87538]
X53.82500 Y-32.28501 Z[#100+-0.20000]
#105=[#571+[#572-#571]*0.76523]
#106=[#584+[#585-#584]*0.76523]
#100=[#105+[#106-#105]*0.45495]
X51.82498 Y-32.28501 Z[#100+-0.20000]
#105=[#571+[#572-#571]*0.76983]
#106=[#584+[#585-#584]*0.76983]
#100=[#105+[#106-#105]*0.40907]
X51.60669 Y-32.26207 Z[#100+-0.20000]
#105=[#571+[#572-#571]*0.78306]
#106=[#584+[#585-#584]*0.78306]
#100=[#105+[#106-#105]*0.36621]
X51.40280 Y-32.19611 Z[#100+-0.20000]
#105=[#571+[#572-#571]*0.80488]
#106=[#584+[#585-#584]*0.80488]
#100=[#105+[#106-#105]*0.32614]
X51.21220 Y-32.08732 Z[#100+-0.20000]
#105=[#571+[#572-#571]*0.81537]
#106=[#584+[#585-#584]*0.81537]
#100=[#105+[#106-#105]*0.31358]
X51.15246 Y-32.03502 Z[#100+-0.20000]
#100=[#571+[#572-#571]*0.81537]
X49.66070 Y-32.03502 Z[#100+-0.20000]
#105=[#558+[#559-#558]*0.81537]
#106=[#571+[#572-#571]*0.81537]
#100=[#105+[#106-#105]*0.92943]
X49.32498 Y-32.03502 Z[#100+-0.20000]
#105=[#558+[#559-#558]*0.81869]
#106=[#571+[#572-#571]*0.81869]
#100=[#105+[#106-#105]*0.89562]
X49.16415 Y-32.01844 Z[#100+-0.20000]
#105=[#558+[#559-#558]*0.82725]
#106=[#571+[#572-#571]*0.82725]
#100=[#105+[#106-#105]*0.86604]
X49.02343 Y-31.97577 Z[#100+-0.20000]
#105=[#558+[#559-#558]*0.84191]
#106=[#571+[#572-#571]*0.84191]
#100=[#105+[#106-#105]*0.83688]
X48.88472 Y-31.90272 Z[#100+-0.20000]
#105=[#558+[#559-#558]*0.86171]
#106=[#571+[#572-#571]*0.86171]
#100=[#105+[#106-#105]*0.81128]
X48.76293 Y-31.80399 Z[#100+-0.20000]
#105=[#558+[#559-#558]*0.88589]
#106=[#571+[#572-#571]*0.88589]
#100=[#105+[#106-#105]*0.79022]
X48.66273 Y-31.68341 Z[#100+-0.20000]
#105=[#558+[#559-#558]*0.91442]
#106=[#571+[#572-#571]*0.91442]
#100=[#105+[#106-#105]*0.77406]
X48.58587 Y-31.54117 Z[#100+-0.20000]
#105=[#558+[#559-#558]*0.94550]
#106=[#571+[#572-#571]*0.94550]
#100=[#105+[#106-#105]*0.76434]
X48.53961 Y-31.38623 Z[#100+-0.20000]
#105=[#558+[#559-#558]*0.97583]
#106=[#571+[#572-#571]*0.97583]
#100=[#105+[#106-#105]*0.76125]
X48.52496 Y-31.23500 Z[#100+-0.20000]
#105=[#558+[#559-#558]*1.00000]
#106=[#571+[#572-#571]*1.00000]
#100=[#105+[#106-#105]*0.76126]
X48.52496 Y-31.11449 Z[#100+-0.20000]
#100=[#560+[#573-#560]*0.76128]
X48.52506 Y-26.12869 Z[#100+-0.20000]
#105=[#560+[#561-#560]*0.72167]
#106=[#573+[#574-#573]*0.72167]
#100=[#105+[#106-#105]*0.76129]
X48.52514 Y-22.53060 Z[#100+-0.20000]
#105=[#560+[#561-#560]*0.74675]
#106=[#573+[#574-#573]*0.74675]
#100=[#105+[#106-#105]*0.76349]
X48.53557 Y-22.40553 Z[#100+-0.20000]
#105=[#560+[#561-#560]*0.77120]
#106=[#573+[#574-#573]*0.77120]
#100=[#105+[#106-#105]*0.76978]
X48.56550 Y-22.28363 Z[#100+-0.20000]
#105=[#560+[#561-#560]*0.79441]
#106=[#573+[#574-#573]*0.79441]
#100=[#105+[#106-#105]*0.77999]
X48.61409 Y-22.16791 Z[#100+-0.20000]
#105=[#560+[#561-#560]*0.81582]
#106=[#573+[#574-#573]*0.81582]
#100=[#105+[#106-#105]*0.79389]
X48.68020 Y-22.06121 Z[#100+-0.20000]
#105=[#560+[#561-#560]*0.83434]
#106=[#573+[#574-#573]*0.83434]
#100=[#105+[#106-#105]*0.81052]
X48.75930 Y-21.96883 Z[#100+-0.20000]
#105=[#560+[#561-#560]*0.99987]
#106=[#573+[#574-#573]*0.99987]
#100=[#105+[#106-#105]*0.98400]
X49.58457 Y-21.14355 Z[#100+-0.20000]
#100=[#561+[#574-#561]*0.98400]
X49.58457 Y-21.14290 Z[#100+-0.20000]
#105=[#561+[#562-#561]*0.85417]
#106=[#574+[#575-#574]*0.85417]
#100=[#105+[#106-#105]*0.98400]
X49.58457 Y-16.88420 Z[#100+-0.20000]
#100=[#562+[#575-#562]*0.83115]
X48.85747 Y-16.15711 Z[#100+-0.20000]
#105=[#562+[#563-#562]*0.07759]
#106=[#575+[#576-#575]*0.07759]
#100=[#105+[#106-#105]*0.74983]
X48.47060 Y-15.77024 Z[#100+-0.20000]
#100=[#562+[#563-#562]*0.07759]
X44.90356 Y-15.77024 Z[#100+-0.20000]
#105=[#536+[#537-#536]*0.07759]
#106=[#549+[#550-#549]*0.07759]
#100=[#105+[#106-#105]*1.00000]
X40.14642 Y-15.77024 Z[#100+-0.20000]
#105=[#536+[#537-#536]*0.07759]
#106=[#549+[#550-#549]*0.07759]
#100=[#105+[#106-#105]*0.00000]
X35.38928 Y-15.77024 Z[#100+-0.20000]
#105=[#523+[#524-#523]*0.07759]
#106=[#536+[#537-#536]*0.07759]
#100=[#105+[#106-#105]*0.24939]
X31.81854 Y-15.77024 Z[#100+-0.20000]
#100=[#523+[#536-#523]*0.16807]
X31.43167 Y-16.15711 Z[#100+-0.20000]
#105=[#522+[#523-#522]*0.84823]
#106=[#535+[#536-#535]*0.84823]
#100=[#105+[#106-#105]*0.00901]
X30.67498 Y-16.91379 Z[#100+-0.20000]
#105=[#522+[#523-#522]*0.52394]
#106=[#535+[#536-#535]*0.52394]
#100=[#105+[#106-#105]*0.00901]
X30.67498 Y-18.53066 Z[#100+-0.20000]
#105=[#522+[#523-#522]*0.29459]
#106=[#535+[#536-#535]*0.29459]
#100=[#105+[#106-#105]*0.24937]
X31.81844 Y-19.67414 Z[#100+-0.20000]
#105=[#522+[#523-#522]*0.29459]
#106=[#535+[#536-#535]*0.29459]
#100=[#105+[#106-#105]*0.64203]
X33.68638 Y-19.67414 Z[#100+-0.20000]
#105=[#522+[#523-#522]*0.31167]
#106=[#535+[#536-#535]*0.31167]
#100=[#105+[#106-#105]*0.64809]
X33.71518 Y-19.58900 Z[#100+-0.20000]
#105=[#522+[#523-#522]*0.36783]
#106=[#535+[#536-#535]*0.36783]
#100=[#105+[#106-#105]*0.68234]
X33.87812 Y-19.30899 Z[#100+-0.20000]
#105=[#522+[#523-#522]*0.41531]
#106=[#535+[#536-#535]*0.41531]
#100=[#105+[#106-#105]*0.72723]
X34.09166 Y-19.07224 Z[#100+-0.20000]
#105=[#522+[#523-#522]*0.45352]
#106=[#535+[#536-#535]*0.45352]
#100=[#105+[#106-#105]*0.78234]
X34.35382 Y-18.88176 Z[#100+-0.20000]
#105=[#522+[#523-#522]*0.48022]
#106=[#535+[#536-#535]*0.48022]
#100=[#105+[#106-#105]*0.84562]
X34.65488 Y-18.74861 Z[#100+-0.20000]
#105=[#522+[#523-#522]*0.49346]
#106=[#535+[#536-#535]*0.49346]
#100=[#105+[#106-#105]*0.91119]
X34.96679 Y-18.68260 Z[#100+-0.20000]
#105=[#522+[#523-#522]*0.49351]
#106=[#535+[#536-#535]*0.49351]
#100=[#105+[#106-#105]*0.97820]
X35.28559 Y-18.68235 Z[#100+-0.20000]
#105=[#535+[#536-#535]*0.48909]
#106=[#548+[#549-#548]*0.48909]
#100=[#105+[#106-#105]*0.00000]
X35.38928 Y-18.70438 Z[#100+-0.20000]
#105=[#535+[#536-#535]*0.47957]
#106=[#548+[#549-#548]*0.47957]
#100=[#105+[#106-#105]*0.04696]
X35.61266 Y-18.75184 Z[#100+-0.20000]
#105=[#535+[#536-#535]*0.45352]
#106=[#548+[#549-#548]*0.45352]
#100=[#105+[#106-#105]*0.10816]
X35.90380 Y-18.88176 Z[#100+-0.20000]
#105=[#535+[#536-#535]*0.41531]
#106=[#548+[#549-#548]*0.41531]
#100=[#105+[#106-#105]*0.16327]
X36.16595 Y-19.07224 Z[#100+-0.20000]
#105=[#535+[#536-#535]*0.36701]
#106=[#548+[#549-#548]*0.36701]
#100=[#105+[#106-#105]*0.20885]
X36.38279 Y-19.31308 Z[#100+-0.20000]
#105=[#535+[#536-#535]*0.31167]
#106=[#548+[#549-#548]*0.31167]
#100=[#105+[#106-#105]*0.24241]
X36.54243 Y-19.58900 Z[#100+-0.20000]
#105=[#535+[#536-#535]*0.24788]
#106=[#548+[#549-#548]*0.24788]
#100=[#105+[#106-#105]*0.26413]
X36.64576 Y-19.90703 Z[#100+-0.20000]
#105=[#535+[#536-#535]*0.18428]
#106=[#548+[#549-#548]*0.18428]
#100=[#105+[#106-#105]*0.27107]
X36.67880 Y-20.22410 Z[#100+-0.20000]
#105=[#535+[#536-#535]*0.12067]
#106=[#548+[#549-#548]*0.12067]
#100=[#105+[#106-#105]*0.26413]
X36.64576 Y-20.54124 Z[#100+-0.20000]
#105=[#535+[#536-#535]*0.05783]
#106=[#548+[#549-#548]*0.05783]
#100=[#105+[#106-#105]*0.24290]
X36.54479 Y-20.85458 Z[#100+-0.20000]
#105=[#535+[#536-#535]*0.00155]
#106=[#548+[#549-#548]*0.00155]
#100=[#105+[#106-#105]*0.20885]
X36.38279 Y-21.13517 Z[#100+-0.20000]
#100=[#535+[#548-#535]*0.20739]
X36.37585 Y-21.14290 Z[#100+-0.20000]
#105=[#534+[#535-#534]*0.95399]
#106=[#547+[#548-#547]*0.95399]
#100=[#105+[#106-#105]*0.16405]
X36.16966 Y-21.37228 Z[#100+-0.20000]
#105=[#534+[#535-#534]*0.91562]
#106=[#547+[#548-#547]*0.91562]
#100=[#105+[#106-#105]*0.10908]
X35.90819 Y-21.56359 Z[#100+-0.20000]
#105=[#534+[#535-#534]*0.90974]
#106=[#547+[#548-#547]*0.90974]
#100=[#105+[#106-#105]*0.09580]
X35.84500 Y-21.59293 Z[#100+-0.20000]
#100=[#534+[#547-#534]*0.09580]
X35.84500 Y-26.12869 Z[#100+-0.20000]
#105=[#532+[#533-#532]*1.00000]
#106=[#545+[#546-#545]*1.00000]
#100=[#105+[#106-#105]*0.09580]
X35.84500 Y-31.11449 Z[#100+-0.20000]
#105=[#532+[#533-#532]*0.73204]
#106=[#545+[#546-#545]*0.73204]
#100=[#105+[#106-#105]*0.09580]
X35.84500 Y-32.45049 Z[#100+-0.20000]
#105=[#532+[#533-#532]*0.69741]
#106=[#545+[#546-#545]*0.69741]
#100=[#105+[#106-#105]*0.14565]
X36.08213 Y-32.62314 Z[#100+-0.20000]
#105=[#532+[#533-#532]*0.64993]
#106=[#545+[#546-#545]*0.64993]
#100=[#105+[#106-#105]*0.19053]
X36.29567 Y-32.85989 Z[#100+-0.20000]
#105=[#532+[#533-#532]*0.59283]
#106=[#545+[#546-#545]*0.59283]
#100=[#105+[#106-#105]*0.22528]
X36.46097 Y-33.14457 Z[#100+-0.20000]
#105=[#532+[#533-#532]*0.52998]
#106=[#545+[#546-#545]*0.52998]
#100=[#105+[#106-#105]*0.24651]
X36.56194 Y-33.45791 Z[#100+-0.20000]
#105=[#532+[#533-#532]*0.46638]
#106=[#545+[#546-#545]*0.46638]
#100=[#105+[#106-#105]*0.25345]
X36.59498 Y-33.77500 Z[#100+-0.20000]
#105=[#532+[#533-#532]*0.40278]
#106=[#545+[#546-#545]*0.40278]
#100=[#105+[#106-#105]*0.24651]
X36.56194 Y-34.09212 Z[#100+-0.20000]
#105=[#532+[#533-#532]*0.33993]
#106=[#545+[#546-#545]*0.33993]
#100=[#105+[#106-#105]*0.22528]
X36.46097 Y-34.40545 Z[#100+-0.20000]
#105=[#532+[#533-#532]*0.28365]
#106=[#545+[#546-#545]*0.28365]
#100=[#105+[#106-#105]*0.19123]
X36.29897 Y-34.68607 Z[#100+-0.20000]
#105=[#532+[#533-#532]*0.23535]
#106=[#545+[#546-#545]*0.23535]
#100=[#105+[#106-#105]*0.14565]
X36.08213 Y-34.92689 Z[#100+-0.20000]
#105=[#532+[#533-#532]*0.19667]
#106=[#545+[#546-#545]*0.19667]
#100=[#105+[#106-#105]*0.08956]
X35.81533 Y-35.11973 Z[#100+-0.20000]
#105=[#532+[#533-#532]*0.17071]
#106=[#545+[#546-#545]*0.17071]
#100=[#105+[#106-#105]*0.02831]
X35.52397 Y-35.24914 Z[#100+-0.20000]
#105=[#532+[#533-#532]*0.16494]
#106=[#545+[#546-#545]*0.16494]
#100=[#105+[#106-#105]*0.00000]
X35.38928 Y-35.27790 Z[#100+-0.20000]
#105=[#519+[#520-#519]*0.15736]
#106=[#532+[#533-#532]*0.15736]
#100=[#105+[#106-#105]*0.96277]
X35.21218 Y-35.31571 Z[#100+-0.20000]
#105=[#519+[#520-#519]*0.15714]
#106=[#532+[#533-#532]*0.15714]
#100=[#105+[#106-#105]*0.89467]
X34.88821 Y-35.31681 Z[#100+-0.20000]
#105=[#519+[#520-#519]*0.17071]
#106=[#532+[#533-#532]*0.17071]
#100=[#105+[#106-#105]*0.82694]
X34.56601 Y-35.24914 Z[#100+-0.20000]
#105=[#519+[#520-#519]*0.19714]
#106=[#532+[#533-#532]*0.19714]
#100=[#105+[#106-#105]*0.76472]
X34.27000 Y-35.11736 Z[#100+-0.20000]
#105=[#519+[#520-#519]*0.23609]
#106=[#532+[#533-#532]*0.23609]
#100=[#105+[#106-#105]*0.70883]
X34.00413 Y-34.92318 Z[#100+-0.20000]
#105=[#519+[#520-#519]*0.28365]
#106=[#532+[#533-#532]*0.28365]
#100=[#105+[#106-#105]*0.66403]
X33.79100 Y-34.68607 Z[#100+-0.20000]
#105=[#519+[#520-#519]*0.33899]
#106=[#532+[#533-#532]*0.33899]
#100=[#105+[#106-#105]*0.63047]
X33.63136 Y-34.41013 Z[#100+-0.20000]
#105=[#519+[#520-#519]*0.40174]
#106=[#532+[#533-#532]*0.40174]
#100=[#105+[#106-#105]*0.60892]
X33.52885 Y-34.09728 Z[#100+-0.20000]
#105=[#519+[#520-#519]*0.46638]
#106=[#532+[#533-#532]*0.46638]
#100=[#105+[#106-#105]*0.60180]
X33.49499 Y-33.77500 Z[#100+-0.20000]
#105=[#519+[#520-#519]*0.53101]
#106=[#532+[#533-#532]*0.53101]
#100=[#105+[#106-#105]*0.60892]
X33.52885 Y-33.45275 Z[#100+-0.20000]
#105=[#519+[#520-#519]*0.59376]
#106=[#532+[#533-#532]*0.59376]
#100=[#105+[#106-#105]*0.63047]
X33.63136 Y-33.13990 Z[#100+-0.20000]
#105=[#519+[#520-#519]*0.64993]
#106=[#532+[#533-#532]*0.64993]
#100=[#105+[#106-#105]*0.66472]
X33.79430 Y-32.85989 Z[#100+-0.20000]
#105=[#519+[#520-#519]*0.69741]
#106=[#532+[#533-#532]*0.69741]
#100=[#105+[#106-#105]*0.70961]
X34.00784 Y-32.62314 Z[#100+-0.20000]
#105=[#519+[#520-#519]*0.73204]
#106=[#532+[#533-#532]*0.73204]
#100=[#105+[#106-#105]*0.75946]
X34.24498 Y-32.45049 Z[#100+-0.20000]
#105=[#519+[#520-#519]*1.00000]
#106=[#532+[#533-#532]*1.00000]
#100=[#105+[#106-#105]*0.75946]
X34.24498 Y-31.11449 Z[#100+-0.20000]
#100=[#521+[#534-#521]*0.75946]
X34.24498 Y-26.12869 Z[#100+-0.20000]
#105=[#521+[#522-#521]*0.93084]
#106=[#534+[#535-#534]*0.93084]
#100=[#105+[#106-#105]*0.75946]
X34.24498 Y-21.48772 Z[#100+-0.20000]
#105=[#521+[#522-#521]*0.95325]
#106=[#534+[#535-#534]*0.95325]
#100=[#105+[#106-#105]*0.72723]
X34.09166 Y-21.37599 Z[#100+-0.20000]
#105=[#521+[#522-#521]*0.97368]
#106=[#534+[#535-#534]*0.97368]
#100=[#105+[#106-#105]*0.70787]
X33.99956 Y-21.27414 Z[#100+-0.20000]
#105=[#521+[#522-#521]*0.97373]
#106=[#534+[#535-#534]*0.97373]
#100=[#105+[#106-#105]*0.17869]
X31.48219 Y-21.27388 Z[#100+-0.20000]
#105=[#521+[#522-#521]*0.97700]
#106=[#534+[#535-#534]*0.97700]
#100=[#105+[#106-#105]*0.14591]
X31.32626 Y-21.25755 Z[#100+-0.20000]
#105=[#521+[#522-#521]*0.98631]
#106=[#534+[#535-#534]*0.98631]
#100=[#105+[#106-#105]*0.11443]
X31.17650 Y-21.21114 Z[#100+-0.20000]
#100=[#522+[#535-#522]*0.08798]
X31.05068 Y-21.14290 Z[#100+-0.20000]
#105=[#522+[#523-#522]*0.00131]
#106=[#535+[#536-#535]*0.00131]
#100=[#105+[#106-#105]*0.08546]
X31.03868 Y-21.13639 Z[#100+-0.20000]
#105=[#522+[#523-#522]*0.02067]
#106=[#535+[#536-#535]*0.02067]
#100=[#105+[#106-#105]*0.06081]
X30.92141 Y-21.03982 Z[#100+-0.20000]
#105=[#522+[#523-#522]*0.07869]
#106=[#535+[#536-#535]*0.07869]
#100=[#105+[#106-#105]*0.00000]
X30.63213 Y-20.75055 Z[#100+-0.20000]
#105=[#509+[#510-#509]*0.34401]
#106=[#522+[#523-#522]*0.34401]
#100=[#105+[#106-#105]*0.72193]
X29.30930 Y-19.42776 Z[#100+-0.20000]
#105=[#509+[#510-#509]*0.36381]
#106=[#522+[#523-#522]*0.36381]
#100=[#105+[#106-#105]*0.70433]
X29.22558 Y-19.32900 Z[#100+-0.20000]
#105=[#509+[#510-#509]*0.38394]
#106=[#522+[#523-#522]*0.38394]
#100=[#105+[#106-#105]*0.69140]
X29.16409 Y-19.22867 Z[#100+-0.20000]
#105=[#509+[#510-#509]*0.40715]
#106=[#522+[#523-#522]*0.40715]
#100=[#105+[#106-#105]*0.68118]
X29.11547 Y-19.11295 Z[#100+-0.20000]
#105=[#509+[#510-#509]*0.43160]
#106=[#522+[#523-#522]*0.43160]
#100=[#105+[#106-#105]*0.67490]
X29.08558 Y-18.99103 Z[#100+-0.20000]
#105=[#509+[#510-#509]*0.45747]
#106=[#522+[#523-#522]*0.45747]
#100=[#105+[#106-#105]*0.67267]
X29.07496 Y-18.86203 Z[#100+-0.20000]
#105=[#509+[#510-#509]*0.91470]
#106=[#522+[#523-#522]*0.91470]
#100=[#105+[#106-#105]*0.67267]
X29.07496 Y-16.58240 Z[#100+-0.20000]
(Suppressed: G04 P0 ( dwell for no time -- G64 should not smooth over this point ))
G00 Z5.00000 ( retract )

G00 X33.57373 Y-7.72730 ( rapid move to begin. )
G01 F100.00000
( Mill infeed pass 1/1 )
#105=[#524+[#525-#524]*0.69077]
#106=[#537+[#538-#537]*0.69077]
#100=[#105+[#106-#105]*0.61835]
G01 Z[-0.20000+#100]
(Suppressed: G04 P0 ( dwell for no time -- G64 should not smooth over this point ))
G01 F150.00000
#105=[#524+[#525-#524]*0.62613]
#106=[#537+[#538-#537]*0.62613]
#100=[#105+[#106-#105]*0.62547]
X33.60759 Y-8.04958 Z[#100+-0.20000]
#105=[#524+[#525-#524]*0.56432]
#106=[#537+[#538-#537]*0.56432]
#100=[#105+[#106-#105]*0.64652]
X33.70774 Y-8.35775 Z[#100+-0.20000]
#105=[#524+[#525-#524]*0.50803]
#106=[#537+[#538-#537]*0.50803]
#100=[#105+[#106-#105]*0.68058]
X33.86974 Y-8.63837 Z[#100+-0.20000]
#105=[#524+[#525-#524]*0.46047]
#106=[#537+[#538-#537]*0.46047]
#100=[#105+[#106-#105]*0.72538]
X34.08287 Y-8.87548 Z[#100+-0.20000]
#105=[#524+[#525-#524]*0.42153]
#106=[#537+[#538-#537]*0.42153]
#100=[#105+[#106-#105]*0.78127]
X34.34874 Y-9.06966 Z[#100+-0.20000]
#105=[#524+[#525-#524]*0.39547]
#106=[#537+[#538-#537]*0.39547]
#100=[#105+[#106-#105]*0.84247]
X34.63987 Y-9.19959 Z[#100+-0.20000]
#105=[#524+[#525-#524]*0.38153]
#106=[#537+[#538-#537]*0.38153]
#100=[#105+[#106-#105]*0.91122]
X34.96695 Y-9.26911 Z[#100+-0.20000]
#105=[#524+[#525-#524]*0.38158]
#106=[#537+[#538-#537]*0.38158]
#100=[#105+[#106-#105]*0.97824]
X35.28574 Y-9.26883 Z[#100+-0.20000]
#105=[#537+[#538-#537]*0.38600]
#106=[#550+[#551-#550]*0.38600]
#100=[#105+[#106-#105]*0.00000]
X35.38928 Y-9.24681 Z[#100+-0.20000]
#105=[#537+[#538-#537]*0.39510]
#106=[#550+[#551-#550]*0.39510]
#100=[#105+[#106-#105]*0.04487]
X35.60271 Y-9.20144 Z[#100+-0.20000]
#105=[#537+[#538-#537]*0.42153]
#106=[#550+[#551-#550]*0.42153]
#100=[#105+[#106-#105]*0.10709]
X35.89872 Y-9.06966 Z[#100+-0.20000]
#105=[#537+[#538-#537]*0.45973]
#106=[#550+[#551-#550]*0.45973]
#100=[#105+[#106-#105]*0.16220]
X36.16087 Y-8.87919 Z[#100+-0.20000]
#105=[#537+[#538-#537]*0.50803]
#106=[#550+[#551-#550]*0.50803]
#100=[#105+[#106-#105]*0.20778]
X36.37771 Y-8.63837 Z[#100+-0.20000]
#105=[#537+[#538-#537]*0.56432]
#106=[#550+[#551-#550]*0.56432]
#100=[#105+[#106-#105]*0.24183]
X36.53971 Y-8.35775 Z[#100+-0.20000]
#105=[#537+[#538-#537]*0.62613]
#106=[#550+[#551-#550]*0.62613]
#100=[#105+[#106-#105]*0.26289]
X36.63987 Y-8.04958 Z[#100+-0.20000]
#105=[#537+[#538-#537]*0.69077]
#106=[#550+[#551-#550]*0.69077]
#100=[#105+[#106-#105]*0.27000]
X36.67372 Y-7.72730 Z[#100+-0.20000]
#105=[#537+[#538-#537]*0.75540]
#106=[#550+[#551-#550]*0.75540]
#100=[#105+[#106-#105]*0.26289]
X36.63987 Y-7.40505 Z[#100+-0.20000]
#105=[#537+[#538-#537]*0.81721]
#106=[#550+[#551-#550]*0.81721]
#100=[#105+[#106-#105]*0.24183]
X36.53971 Y-7.09687 Z[#100+-0.20000]
#105=[#537+[#538-#537]*0.87349]
#106=[#550+[#551-#550]*0.87349]
#100=[#105+[#106-#105]*0.20778]
X36.37771 Y-6.81625 Z[#100+-0.20000]
#105=[#537+[#538-#537]*0.92105]
#106=[#550+[#551-#550]*0.92105]
#100=[#105+[#106-#105]*0.16298]
X36.16458 Y-6.57914 Z[#100+-0.20000]
#105=[#537+[#538-#537]*0.96000]
#106=[#550+[#551-#550]*0.96000]
#100=[#105+[#106-#105]*0.10709]
X35.89872 Y-6.38496 Z[#100+-0.20000]
#105=[#537+[#538-#537]*0.98606]
#106=[#550+[#551-#550]*0.98606]
#100=[#105+[#106-#105]*0.04589]
X35.60758 Y-6.25504 Z[#100+-0.20000]
#105=[#537+[#538-#537]*0.99536]
#106=[#550+[#551-#550]*0.99536]
#100=[#105+[#106-#105]*0.00000]
X35.38928 Y-6.20864 Z[#100+-0.20000]
#100=[#525+[#538-#525]*0.97714]
X35.28051 Y-6.18552 Z[#100+-0.20000]
#100=[#525+[#538-#525]*0.97714]
X35.28051 Y-6.18552 Z[#100+-0.20000]
#100=[#525+[#538-#525]*0.97714]
X35.28051 Y-6.18552 Z[#100+-0.20000]
#105=[#524+[#525-#524]*0.99994]
#106=[#537+[#538-#537]*0.99994]
#100=[#105+[#106-#105]*0.91012]
X34.96171 Y-6.18580 Z[#100+-0.20000]
#105=[#524+[#525-#524]*0.98643]
#106=[#537+[#538-#537]*0.98643]
#100=[#105+[#106-#105]*0.84349]
X34.64475 Y-6.25319 Z[#100+-0.20000]
#105=[#524+[#525-#524]*0.96000]
#106=[#537+[#538-#537]*0.96000]
#100=[#105+[#106-#105]*0.78127]
X34.34874 Y-6.38496 Z[#100+-0.20000]
#105=[#524+[#525-#524]*0.92179]
#106=[#537+[#538-#537]*0.92179]
#100=[#105+[#106-#105]*0.72616]
X34.08658 Y-6.57544 Z[#100+-0.20000]
#105=[#524+[#525-#524]*0.87349]
#106=[#537+[#538-#537]*0.87349]
#100=[#105+[#106-#105]*0.68058]
X33.86974 Y-6.81625 Z[#100+-0.20000]
#105=[#524+[#525-#524]*0.81721]
#106=[#537+[#538-#537]*0.81721]
#100=[#105+[#106-#105]*0.64652]
X33.70774 Y-7.09687 Z[#100+-0.20000]
#105=[#524+[#525-#524]*0.75540]
#106=[#537+[#538-#537]*0.75540]
#100=[#105+[#106-#105]*0.62547]
X33.60759 Y-7.40505 Z[#100+-0.20000]
#105=[#524+[#525-#524]*0.69077]
#106=[#537+[#538-#537]*0.69077]
#100=[#105+[#106-#105]*0.61835]
X33.57373 Y-7.72730 Z[#100+-0.20000]
(Suppressed: G04 P0 ( dwell for no time -- G64 should not smooth over this point ))
G00 Z5.00000 ( retract )

G00 X43.57625 Y-7.72730 ( rapid move to begin. )
G01 F100.00000
( Mill infeed pass 1/1 )
#105=[#550+[#551-#550]*0.69077]
#106=[#563+[#564-#563]*0.69077]
#100=[#105+[#106-#105]*0.72099]
G01 Z[-0.20000+#100]
(Suppressed: G04 P0 ( dwell for no time -- G64 should not smooth over this point ))
G01 F150.00000
#105=[#550+[#551-#550]*0.62613]
#106=[#563+[#564-#563]*0.62613]
#100=[#105+[#106-#105]*0.72810]
X43.61011 Y-8.04958 Z[#100+-0.20000]
#105=[#550+[#551-#550]*0.56432]
#106=[#563+[#564-#563]*0.56432]
#100=[#105+[#106-#105]*0.74916]
X43.71026 Y-8.35775 Z[#100+-0.20000]
#105=[#550+[#551-#550]*0.50803]
#106=[#563+[#564-#563]*0.50803]
#100=[#105+[#106-#105]*0.78321]
X43.87226 Y-8.63837 Z[#100+-0.20000]
#105=[#550+[#551-#550]*0.46047]
#106=[#563+[#564-#563]*0.46047]
#100=[#105+[#106-#105]*0.82801]
X44.08539 Y-8.87548 Z[#100+-0.20000]
#105=[#550+[#551-#550]*0.42153]
#106=[#563+[#564-#563]*0.42153]
#100=[#105+[#106-#105]*0.88390]
X44.35126 Y-9.06966 Z[#100+-0.20000]
#105=[#550+[#551-#550]*0.39547]
#106=[#563+[#564-#563]*0.39547]
#100=[#105+[#106-#105]*0.94510]
X44.64239 Y-9.19959 Z[#100+-0.20000]
#100=[#563+[#564-#563]*0.38434]
X44.90356 Y-9.25510 Z[#100+-0.20000]
#105=[#563+[#564-#563]*0.38153]
#106=[#576+[#577-#576]*0.38153]
#100=[#105+[#106-#105]*0.01385]
X44.96947 Y-9.26911 Z[#100+-0.20000]
#105=[#563+[#564-#563]*0.38158]
#106=[#576+[#577-#576]*0.38158]
#100=[#105+[#106-#105]*0.08087]
X45.28826 Y-9.26883 Z[#100+-0.20000]
#105=[#563+[#564-#563]*0.39510]
#106=[#576+[#577-#576]*0.39510]
#100=[#105+[#106-#105]*0.14750]
X45.60523 Y-9.20144 Z[#100+-0.20000]
#105=[#563+[#564-#563]*0.42153]
#106=[#576+[#577-#576]*0.42153]
#100=[#105+[#106-#105]*0.20972]
X45.90124 Y-9.06966 Z[#100+-0.20000]
#105=[#563+[#564-#563]*0.45973]
#106=[#576+[#577-#576]*0.45973]
#100=[#105+[#106-#105]*0.26483]
X46.16339 Y-8.87919 Z[#100+-0.20000]
#105=[#563+[#564-#563]*0.50803]
#106=[#576+[#577-#576]*0.50803]
#100=[#105+[#106-#105]*0.31041]
X46.38023 Y-8.63837 Z[#100+-0.20000]
#105=[#563+[#564-#563]*0.56432]
#106=[#576+[#577-#576]*0.56432]
#100=[#105+[#106-#105]*0.34447]
X46.54223 Y-8.35775 Z[#100+-0.20000]
#105=[#563+[#564-#563]*0.62613]
#106=[#576+[#577-#576]*0.62613]
#100=[#105+[#106-#105]*0.36552]
X46.64239 Y-8.04958 Z[#100+-0.20000]
#105=[#563+[#564-#563]*0.69077]
#106=[#576+[#577-#576]*0.69077]
#100=[#105+[#106-#105]*0.37264]
X46.67624 Y-7.72730 Z[#100+-0.20000]
#105=[#563+[#564-#563]*0.75540]
#106=[#576+[#577-#576]*0.75540]
#100=[#105+[#106-#105]*0.36552]
X46.64239 Y-7.40505 Z[#100+-0.20000]
#105=[#563+[#564-#563]*0.81721]
#106=[#576+[#577-#576]*0.81721]
#100=[#105+[#106-#105]*0.34447]
X46.54223 Y-7.09687 Z[#100+-0.20000]
#105=[#563+[#564-#563]*0.87349]
#106=[#576+[#577-#576]*0.87349]
#100=[#105+[#106-#105]*0.31041]
X46.38023 Y-6.81625 Z[#100+-0.20000]
#105=[#563+[#564-#563]*0.92105]
#106=[#576+[#577-#576]*0.92105]
#100=[#105+[#106-#105]*0.26561]
X46.16710 Y-6.57914 Z[#100+-0.20000]
#105=[#563+[#564-#563]*0.96000]
#106=[#576+[#577-#576]*0.96000]
#100=[#105+[#106-#105]*0.20972]
X45.90124 Y-6.38496 Z[#100+-0.20000]
#105=[#563+[#564-#563]*0.98606]
#106=[#576+[#577-#576]*0.98606]
#100=[#105+[#106-#105]*0.14852]
X45.61010 Y-6.25504 Z[#100+-0.20000]
#100=[#564+[#577-#564]*0.07977]
X45.28303 Y-6.18552 Z[#100+-0.20000]
#100=[#564+[#577-#564]*0.07977]
X45.28303 Y-6.18552 Z[#100+-0.20000]
#100=[#564+[#577-#564]*0.07977]
X45.28303 Y-6.18552 Z[#100+-0.20000]
#105=[#563+[#564-#563]*0.99994]
#106=[#576+[#577-#576]*0.99994]
#100=[#105+[#106-#105]*0.01275]
X44.96423 Y-6.18580 Z[#100+-0.20000]
#100=[#563+[#564-#563]*0.99736]
X44.90356 Y-6.19870 Z[#100+-0.20000]
#105=[#550+[#551-#550]*0.98643]
#106=[#563+[#564-#563]*0.98643]
#100=[#105+[#106-#105]*0.94612]
X44.64727 Y-6.25319 Z[#100+-0.20000]
#105=[#550+[#551-#550]*0.96000]
#106=[#563+[#564-#563]*0.96000]
#100=[#105+[#106-#105]*0.88390]
X44.35126 Y-6.38496 Z[#100+-0.20000]
#105=[#550+[#551-#550]*0.92179]
#106=[#563+[#564-#563]*0.92179]
#100=[#105+[#106-#105]*0.82879]
X44.08910 Y-6.57544 Z[#100+-0.20000]
#105=[#550+[#551-#550]*0.87349]
#106=[#563+[#564-#563]*0.87349]
#100=[#105+[#106-#105]*0.78321]
X43.87226 Y-6.81625 Z[#100+-0.20000]
#105=[#550+[#551-#550]*0.81721]
#106=[#563+[#564-#563]*0.81721]
#100=[#105+[#106-#105]*0.74916]
X43.71026 Y-7.09687 Z[#100+-0.20000]
#105=[#550+[#551-#550]*0.75540]
#106=[#563+[#564-#563]*0.75540]
#100=[#105+[#106-#105]*0.72810]
X43.61011 Y-7.40505 Z[#100+-0.20000]
#105=[#550+[#551-#550]*0.69077]
#106=[#563+[#564-#563]*0.69077]
#100=[#105+[#106-#105]*0.72099]
X43.57625 Y-7.72730 Z[#100+-0.20000]
(Suppressed: G04 P0 ( dwell for no time -- G64 should not smooth over this point ))
G00 Z5.00000 ( retract )

G00 X58.97373 Y-7.72730 ( rapid move to begin. )
G01 F100.00000
( Mill infeed pass 1/1 )
#105=[#589+[#590-#589]*0.69077]
#106=[#602+[#603-#602]*0.69077]
#100=[#105+[#106-#105]*0.95769]
G01 Z[-0.20000+#100]
(Suppressed: G04 P0 ( dwell for no time -- G64 should not smooth over this point ))
G01 F150.00000
#105=[#589+[#590-#589]*0.62613]
#106=[#602+[#603-#602]*0.62613]
#100=[#105+[#106-#105]*0.96481]
X59.00759 Y-8.04958 Z[#100+-0.20000]
#105=[#589+[#590-#589]*0.56432]
#106=[#602+[#603-#602]*0.56432]
#100=[#105+[#106-#105]*0.98586]
X59.10774 Y-8.35775 Z[#100+-0.20000]
#100=[#602+[#603-#602]*0.54095]
X59.17499 Y-8.47424 Z[#100+-0.20000]
#105=[#602+[#603-#602]*0.50803]
#106=[#615+[#616-#615]*0.50803]
#100=[#105+[#106-#105]*0.01992]
X59.26974 Y-8.63837 Z[#100+-0.20000]
#105=[#602+[#603-#602]*0.46047]
#106=[#615+[#616-#615]*0.46047]
#100=[#105+[#106-#105]*0.06472]
X59.48287 Y-8.87548 Z[#100+-0.20000]
#105=[#602+[#603-#602]*0.42153]
#106=[#615+[#616-#615]*0.42153]
#100=[#105+[#106-#105]*0.12061]
X59.74874 Y-9.06966 Z[#100+-0.20000]
#105=[#602+[#603-#602]*0.39547]
#106=[#615+[#616-#615]*0.39547]
#100=[#105+[#106-#105]*0.18181]
X60.03987 Y-9.19959 Z[#100+-0.20000]
#105=[#602+[#603-#602]*0.38153]
#106=[#615+[#616-#615]*0.38153]
#100=[#105+[#106-#105]*0.25056]
X60.36695 Y-9.26911 Z[#100+-0.20000]
#105=[#602+[#603-#602]*0.38158]
#106=[#615+[#616-#615]*0.38158]
#100=[#105+[#106-#105]*0.31758]
X60.68574 Y-9.26883 Z[#100+-0.20000]
#105=[#602+[#603-#602]*0.39510]
#106=[#615+[#616-#615]*0.39510]
#100=[#105+[#106-#105]*0.38421]
X61.00271 Y-9.20144 Z[#100+-0.20000]
#105=[#602+[#603-#602]*0.42153]
#106=[#615+[#616-#615]*0.42153]
#100=[#105+[#106-#105]*0.44643]
X61.29872 Y-9.06966 Z[#100+-0.20000]
#105=[#602+[#603-#602]*0.45973]
#106=[#615+[#616-#615]*0.45973]
#100=[#105+[#106-#105]*0.50154]
X61.56087 Y-8.87919 Z[#100+-0.20000]
#105=[#602+[#603-#602]*0.50803]
#106=[#615+[#616-#615]*0.50803]
#100=[#105+[#106-#105]*0.54712]
X61.77771 Y-8.63837 Z[#100+-0.20000]
#105=[#602+[#603-#602]*0.56432]
#106=[#615+[#616-#615]*0.56432]
#100=[#105+[#106-#105]*0.58117]
X61.93971 Y-8.35775 Z[#100+-0.20000]
#105=[#602+[#603-#602]*0.62613]
#106=[#615+[#616-#615]*0.62613]
#100=[#105+[#106-#105]*0.60223]
X62.03987 Y-8.04958 Z[#100+-0.20000]
#105=[#602+[#603-#602]*0.69077]
#106=[#615+[#616-#615]*0.69077]
#100=[#105+[#106-#105]*0.60934]
X62.07372 Y-7.72730 Z[#100+-0.20000]
#105=[#602+[#603-#602]*0.75540]
#106=[#615+[#616-#615]*0.75540]
#100=[#105+[#106-#105]*0.60223]
X62.03987 Y-7.40505 Z[#100+-0.20000]
#105=[#602+[#603-#602]*0.81721]
#106=[#615+[#616-#615]*0.81721]
#100=[#105+[#106-#105]*0.58117]
X61.93971 Y-7.09687 Z[#100+-0.20000]
#105=[#602+[#603-#602]*0.87349]
#106=[#615+[#616-#615]*0.87349]
#100=[#105+[#106-#105]*0.54712]
X61.77771 Y-6.81625 Z[#100+-0.20000]
#105=[#602+[#603-#602]*0.92105]
#106=[#615+[#616-#615]*0.92105]
#100=[#105+[#106-#105]*0.50232]
X61.56458 Y-6.57914 Z[#100+-0.20000]
#105=[#602+[#603-#602]*0.96000]
#106=[#615+[#616-#615]*0.96000]
#100=[#105+[#106-#105]*0.44643]
X61.29872 Y-6.38496 Z[#100+-0.20000]
#105=[#602+[#603-#602]*0.98606]
#106=[#615+[#616-#615]*0.98606]
#100=[#105+[#106-#105]*0.38523]
X61.00758 Y-6.25504 Z[#100+-0.20000]
#100=[#603+[#616-#603]*0.31648]
X60.68051 Y-6.18552 Z[#100+-0.20000]
#100=[#603+[#616-#603]*0.31648]
X60.68051 Y-6.18552 Z[#100+-0.20000]
#100=[#603+[#616-#603]*0.31648]
X60.68051 Y-6.18552 Z[#100+-0.20000]
#105=[#602+[#603-#602]*0.99994]
#106=[#615+[#616-#615]*0.99994]
#100=[#105+[#106-#105]*0.24946]
X60.36171 Y-6.18580 Z[#100+-0.20000]
#105=[#602+[#603-#602]*0.98643]
#106=[#615+[#616-#615]*0.98643]
